<?xml version="1.0" encoding="UTF-8"?>
<map version="1.10" tiledversion="1.10.2" orientation="orthogonal" renderorder="right-down" width="16" height="24" tilewidth="16" tileheight="16" infinite="1" nextlayerid="14" nextobjectid="1">
 <tileset firstgid="1" name="Interior_tiles" tilewidth="16" tileheight="16" tilecount="115" columns="23">
  <image source="Interior_tiles.png" width="368" height="80"/>
 </tileset>
 <tileset firstgid="116" name="Interior_objects" tilewidth="16" tileheight="16" tilecount="399" columns="21">
  <image source="Interior_objects.png" width="336" height="304"/>
 </tileset>
 <tileset firstgid="515" name="Fireplace" tilewidth="16" tileheight="16" tilecount="72" columns="18">
  <image source="Fireplace.png" width="288" height="64"/>
  <tile id="36">
   <animation>
    <frame tileid="36" duration="150"/>
    <frame tileid="39" duration="150"/>
    <frame tileid="42" duration="150"/>
    <frame tileid="45" duration="150"/>
    <frame tileid="48" duration="150"/>
    <frame tileid="51" duration="150"/>
   </animation>
  </tile>
  <tile id="37">
   <animation>
    <frame tileid="37" duration="150"/>
    <frame tileid="40" duration="150"/>
    <frame tileid="43" duration="150"/>
    <frame tileid="46" duration="150"/>
    <frame tileid="49" duration="150"/>
    <frame tileid="52" duration="150"/>
   </animation>
  </tile>
  <tile id="38">
   <animation>
    <frame tileid="38" duration="150"/>
    <frame tileid="41" duration="150"/>
    <frame tileid="44" duration="150"/>
    <frame tileid="47" duration="150"/>
    <frame tileid="50" duration="150"/>
    <frame tileid="53" duration="150"/>
   </animation>
  </tile>
  <tile id="54">
   <animation>
    <frame tileid="54" duration="150"/>
    <frame tileid="57" duration="150"/>
    <frame tileid="60" duration="150"/>
    <frame tileid="63" duration="150"/>
    <frame tileid="66" duration="150"/>
    <frame tileid="69" duration="150"/>
   </animation>
  </tile>
  <tile id="55">
   <animation>
    <frame tileid="55" duration="150"/>
    <frame tileid="58" duration="150"/>
    <frame tileid="61" duration="150"/>
    <frame tileid="64" duration="150"/>
    <frame tileid="67" duration="150"/>
    <frame tileid="70" duration="150"/>
   </animation>
  </tile>
  <tile id="56">
   <animation>
    <frame tileid="56" duration="150"/>
    <frame tileid="59" duration="150"/>
    <frame tileid="62" duration="150"/>
    <frame tileid="65" duration="150"/>
    <frame tileid="68" duration="150"/>
    <frame tileid="71" duration="150"/>
   </animation>
  </tile>
 </tileset>
 <tileset firstgid="587" name="Candles" tilewidth="16" tileheight="16" tilecount="48" columns="12">
  <image source="Candles.png" width="192" height="64"/>
  <tile id="0">
   <animation>
    <frame tileid="0" duration="150"/>
    <frame tileid="4" duration="150"/>
    <frame tileid="8" duration="150"/>
   </animation>
  </tile>
  <tile id="1">
   <animation>
    <frame tileid="1" duration="150"/>
    <frame tileid="5" duration="150"/>
    <frame tileid="9" duration="150"/>
   </animation>
  </tile>
  <tile id="2">
   <animation>
    <frame tileid="2" duration="150"/>
    <frame tileid="6" duration="150"/>
    <frame tileid="10" duration="150"/>
   </animation>
  </tile>
  <tile id="3">
   <animation>
    <frame tileid="3" duration="150"/>
    <frame tileid="7" duration="150"/>
    <frame tileid="11" duration="150"/>
   </animation>
  </tile>
  <tile id="12">
   <animation>
    <frame tileid="12" duration="150"/>
    <frame tileid="16" duration="150"/>
    <frame tileid="20" duration="150"/>
   </animation>
  </tile>
  <tile id="13">
   <animation>
    <frame tileid="13" duration="150"/>
    <frame tileid="17" duration="150"/>
    <frame tileid="21" duration="150"/>
   </animation>
  </tile>
  <tile id="14">
   <animation>
    <frame tileid="14" duration="150"/>
    <frame tileid="18" duration="150"/>
    <frame tileid="22" duration="150"/>
   </animation>
  </tile>
  <tile id="15">
   <animation>
    <frame tileid="15" duration="150"/>
    <frame tileid="19" duration="150"/>
    <frame tileid="23" duration="150"/>
   </animation>
  </tile>
  <tile id="24">
   <animation>
    <frame tileid="24" duration="150"/>
    <frame tileid="28" duration="150"/>
    <frame tileid="32" duration="150"/>
   </animation>
  </tile>
  <tile id="25">
   <animation>
    <frame tileid="25" duration="150"/>
    <frame tileid="29" duration="150"/>
    <frame tileid="33" duration="150"/>
   </animation>
  </tile>
  <tile id="26">
   <animation>
    <frame tileid="26" duration="150"/>
    <frame tileid="30" duration="150"/>
    <frame tileid="34" duration="150"/>
   </animation>
  </tile>
  <tile id="27">
   <animation>
    <frame tileid="27" duration="150"/>
    <frame tileid="31" duration="150"/>
    <frame tileid="35" duration="150"/>
   </animation>
  </tile>
  <tile id="36">
   <animation>
    <frame tileid="36" duration="150"/>
    <frame tileid="40" duration="150"/>
    <frame tileid="44" duration="150"/>
   </animation>
  </tile>
  <tile id="37">
   <animation>
    <frame tileid="37" duration="150"/>
    <frame tileid="41" duration="150"/>
    <frame tileid="45" duration="150"/>
   </animation>
  </tile>
  <tile id="38">
   <animation>
    <frame tileid="38" duration="150"/>
    <frame tileid="42" duration="150"/>
    <frame tileid="46" duration="150"/>
   </animation>
  </tile>
  <tile id="39">
   <animation>
    <frame tileid="39" duration="150"/>
    <frame tileid="43" duration="150"/>
    <frame tileid="47" duration="150"/>
   </animation>
  </tile>
 </tileset>
 <tileset firstgid="635" name="Hunter_Idle_outside" tilewidth="16" tileheight="16" tilecount="432" columns="36">
  <image source="Hunter_Idle_inside.png" width="576" height="192"/>
  <tile id="0">
   <animation>
    <frame tileid="0" duration="150"/>
    <frame tileid="3" duration="150"/>
    <frame tileid="6" duration="150"/>
    <frame tileid="9" duration="150"/>
    <frame tileid="12" duration="150"/>
    <frame tileid="15" duration="150"/>
    <frame tileid="18" duration="150"/>
    <frame tileid="21" duration="150"/>
    <frame tileid="24" duration="150"/>
    <frame tileid="27" duration="150"/>
    <frame tileid="30" duration="150"/>
    <frame tileid="33" duration="150"/>
   </animation>
  </tile>
  <tile id="1">
   <animation>
    <frame tileid="1" duration="150"/>
    <frame tileid="4" duration="150"/>
    <frame tileid="7" duration="150"/>
    <frame tileid="10" duration="150"/>
    <frame tileid="13" duration="150"/>
    <frame tileid="16" duration="150"/>
    <frame tileid="19" duration="150"/>
    <frame tileid="22" duration="150"/>
    <frame tileid="25" duration="150"/>
    <frame tileid="28" duration="150"/>
    <frame tileid="31" duration="150"/>
    <frame tileid="34" duration="150"/>
   </animation>
  </tile>
  <tile id="2">
   <animation>
    <frame tileid="2" duration="150"/>
    <frame tileid="5" duration="150"/>
    <frame tileid="8" duration="150"/>
    <frame tileid="11" duration="150"/>
    <frame tileid="14" duration="150"/>
    <frame tileid="17" duration="150"/>
    <frame tileid="20" duration="150"/>
    <frame tileid="23" duration="150"/>
    <frame tileid="26" duration="150"/>
    <frame tileid="29" duration="150"/>
    <frame tileid="32" duration="150"/>
    <frame tileid="35" duration="150"/>
   </animation>
  </tile>
  <tile id="36">
   <animation>
    <frame tileid="36" duration="150"/>
    <frame tileid="39" duration="150"/>
    <frame tileid="42" duration="150"/>
    <frame tileid="45" duration="150"/>
    <frame tileid="48" duration="150"/>
    <frame tileid="51" duration="150"/>
    <frame tileid="54" duration="150"/>
    <frame tileid="57" duration="150"/>
    <frame tileid="60" duration="150"/>
    <frame tileid="63" duration="150"/>
    <frame tileid="66" duration="150"/>
    <frame tileid="69" duration="150"/>
   </animation>
  </tile>
  <tile id="37">
   <animation>
    <frame tileid="37" duration="150"/>
    <frame tileid="40" duration="150"/>
    <frame tileid="43" duration="150"/>
    <frame tileid="46" duration="150"/>
    <frame tileid="49" duration="150"/>
    <frame tileid="52" duration="150"/>
    <frame tileid="55" duration="150"/>
    <frame tileid="58" duration="150"/>
    <frame tileid="61" duration="150"/>
    <frame tileid="64" duration="150"/>
    <frame tileid="67" duration="150"/>
    <frame tileid="70" duration="150"/>
   </animation>
  </tile>
  <tile id="38">
   <animation>
    <frame tileid="38" duration="150"/>
    <frame tileid="41" duration="150"/>
    <frame tileid="44" duration="150"/>
    <frame tileid="47" duration="150"/>
    <frame tileid="50" duration="150"/>
    <frame tileid="53" duration="150"/>
    <frame tileid="56" duration="150"/>
    <frame tileid="59" duration="150"/>
    <frame tileid="62" duration="150"/>
    <frame tileid="65" duration="150"/>
    <frame tileid="68" duration="150"/>
    <frame tileid="71" duration="150"/>
   </animation>
  </tile>
  <tile id="108">
   <animation>
    <frame tileid="108" duration="150"/>
    <frame tileid="111" duration="150"/>
    <frame tileid="114" duration="150"/>
    <frame tileid="117" duration="150"/>
    <frame tileid="120" duration="150"/>
    <frame tileid="123" duration="150"/>
    <frame tileid="126" duration="150"/>
    <frame tileid="129" duration="150"/>
    <frame tileid="132" duration="150"/>
    <frame tileid="135" duration="150"/>
    <frame tileid="138" duration="150"/>
    <frame tileid="141" duration="150"/>
   </animation>
  </tile>
  <tile id="109">
   <animation>
    <frame tileid="109" duration="150"/>
    <frame tileid="112" duration="150"/>
    <frame tileid="115" duration="150"/>
    <frame tileid="118" duration="150"/>
    <frame tileid="121" duration="150"/>
    <frame tileid="124" duration="150"/>
    <frame tileid="127" duration="150"/>
    <frame tileid="130" duration="150"/>
    <frame tileid="133" duration="150"/>
    <frame tileid="136" duration="150"/>
    <frame tileid="139" duration="150"/>
    <frame tileid="142" duration="150"/>
   </animation>
  </tile>
  <tile id="110">
   <animation>
    <frame tileid="110" duration="150"/>
    <frame tileid="113" duration="150"/>
    <frame tileid="116" duration="150"/>
    <frame tileid="119" duration="150"/>
    <frame tileid="122" duration="150"/>
    <frame tileid="125" duration="150"/>
    <frame tileid="128" duration="150"/>
    <frame tileid="131" duration="150"/>
    <frame tileid="134" duration="150"/>
    <frame tileid="137" duration="150"/>
    <frame tileid="140" duration="150"/>
    <frame tileid="143" duration="150"/>
   </animation>
  </tile>
  <tile id="145">
   <animation>
    <frame tileid="145" duration="150"/>
    <frame tileid="148" duration="150"/>
    <frame tileid="151" duration="150"/>
    <frame tileid="154" duration="150"/>
    <frame tileid="157" duration="150"/>
    <frame tileid="160" duration="150"/>
    <frame tileid="163" duration="150"/>
    <frame tileid="166" duration="150"/>
    <frame tileid="169" duration="150"/>
    <frame tileid="172" duration="150"/>
    <frame tileid="175" duration="150"/>
    <frame tileid="178" duration="150"/>
   </animation>
  </tile>
  <tile id="146">
   <animation>
    <frame tileid="146" duration="150"/>
    <frame tileid="149" duration="150"/>
    <frame tileid="152" duration="150"/>
    <frame tileid="155" duration="150"/>
    <frame tileid="158" duration="150"/>
    <frame tileid="161" duration="150"/>
    <frame tileid="164" duration="150"/>
    <frame tileid="167" duration="150"/>
    <frame tileid="170" duration="150"/>
    <frame tileid="173" duration="150"/>
    <frame tileid="176" duration="150"/>
    <frame tileid="179" duration="150"/>
   </animation>
  </tile>
  <tile id="216">
   <animation>
    <frame tileid="216" duration="150"/>
    <frame tileid="219" duration="150"/>
    <frame tileid="222" duration="150"/>
    <frame tileid="225" duration="150"/>
    <frame tileid="228" duration="150"/>
    <frame tileid="231" duration="150"/>
    <frame tileid="234" duration="150"/>
    <frame tileid="237" duration="150"/>
    <frame tileid="240" duration="150"/>
    <frame tileid="243" duration="150"/>
    <frame tileid="246" duration="150"/>
    <frame tileid="249" duration="150"/>
   </animation>
  </tile>
  <tile id="217">
   <animation>
    <frame tileid="217" duration="150"/>
    <frame tileid="220" duration="150"/>
    <frame tileid="223" duration="150"/>
    <frame tileid="226" duration="150"/>
    <frame tileid="229" duration="150"/>
    <frame tileid="232" duration="150"/>
    <frame tileid="235" duration="150"/>
    <frame tileid="238" duration="150"/>
    <frame tileid="241" duration="150"/>
    <frame tileid="244" duration="150"/>
    <frame tileid="247" duration="150"/>
    <frame tileid="250" duration="150"/>
   </animation>
  </tile>
  <tile id="218">
   <animation>
    <frame tileid="218" duration="150"/>
    <frame tileid="221" duration="150"/>
    <frame tileid="224" duration="150"/>
    <frame tileid="227" duration="150"/>
    <frame tileid="230" duration="150"/>
    <frame tileid="233" duration="150"/>
    <frame tileid="236" duration="150"/>
    <frame tileid="239" duration="150"/>
    <frame tileid="242" duration="150"/>
    <frame tileid="245" duration="150"/>
    <frame tileid="248" duration="150"/>
    <frame tileid="251" duration="150"/>
   </animation>
  </tile>
  <tile id="252">
   <animation>
    <frame tileid="252" duration="150"/>
    <frame tileid="255" duration="150"/>
    <frame tileid="258" duration="150"/>
    <frame tileid="261" duration="150"/>
    <frame tileid="264" duration="150"/>
    <frame tileid="267" duration="150"/>
    <frame tileid="270" duration="150"/>
    <frame tileid="273" duration="150"/>
    <frame tileid="276" duration="150"/>
    <frame tileid="279" duration="150"/>
    <frame tileid="282" duration="150"/>
    <frame tileid="285" duration="150"/>
   </animation>
  </tile>
  <tile id="253">
   <animation>
    <frame tileid="253" duration="150"/>
    <frame tileid="256" duration="150"/>
    <frame tileid="259" duration="150"/>
    <frame tileid="262" duration="150"/>
    <frame tileid="265" duration="150"/>
    <frame tileid="268" duration="150"/>
    <frame tileid="271" duration="150"/>
    <frame tileid="274" duration="150"/>
    <frame tileid="277" duration="150"/>
    <frame tileid="280" duration="150"/>
    <frame tileid="283" duration="150"/>
    <frame tileid="286" duration="150"/>
   </animation>
  </tile>
  <tile id="325">
   <animation>
    <frame tileid="325" duration="150"/>
    <frame tileid="325" duration="150"/>
    <frame tileid="325" duration="150"/>
    <frame tileid="325" duration="150"/>
    <frame tileid="325" duration="150"/>
    <frame tileid="325" duration="150"/>
    <frame tileid="325" duration="150"/>
    <frame tileid="328" duration="150"/>
    <frame tileid="331" duration="150"/>
    <frame tileid="334" duration="150"/>
    <frame tileid="337" duration="150"/>
    <frame tileid="340" duration="150"/>
   </animation>
  </tile>
  <tile id="326">
   <animation>
    <frame tileid="326" duration="150"/>
    <frame tileid="326" duration="150"/>
    <frame tileid="326" duration="150"/>
    <frame tileid="326" duration="150"/>
    <frame tileid="326" duration="150"/>
    <frame tileid="326" duration="150"/>
    <frame tileid="326" duration="150"/>
    <frame tileid="329" duration="150"/>
    <frame tileid="332" duration="150"/>
    <frame tileid="335" duration="150"/>
    <frame tileid="338" duration="150"/>
    <frame tileid="341" duration="150"/>
   </animation>
  </tile>
  <tile id="361">
   <animation>
    <frame tileid="361" duration="150"/>
    <frame tileid="361" duration="150"/>
    <frame tileid="361" duration="150"/>
    <frame tileid="361" duration="150"/>
    <frame tileid="361" duration="150"/>
    <frame tileid="361" duration="150"/>
    <frame tileid="361" duration="150"/>
    <frame tileid="364" duration="150"/>
    <frame tileid="367" duration="150"/>
    <frame tileid="370" duration="150"/>
    <frame tileid="373" duration="150"/>
    <frame tileid="376" duration="150"/>
   </animation>
  </tile>
  <tile id="362">
   <animation>
    <frame tileid="362" duration="150"/>
    <frame tileid="362" duration="150"/>
    <frame tileid="362" duration="150"/>
    <frame tileid="362" duration="150"/>
    <frame tileid="362" duration="150"/>
    <frame tileid="362" duration="150"/>
    <frame tileid="362" duration="150"/>
    <frame tileid="365" duration="150"/>
    <frame tileid="368" duration="150"/>
    <frame tileid="371" duration="150"/>
    <frame tileid="374" duration="150"/>
    <frame tileid="377" duration="150"/>
   </animation>
  </tile>
 </tileset>
 <tileset firstgid="1067" name="Dog" tilewidth="16" tileheight="16" tilecount="192" columns="12">
  <image source="Dog_animation.png" width="192" height="256"/>
  <tile id="0">
   <animation>
    <frame tileid="0" duration="150"/>
    <frame tileid="2" duration="150"/>
    <frame tileid="4" duration="150"/>
    <frame tileid="6" duration="150"/>
    <frame tileid="8" duration="150"/>
    <frame tileid="10" duration="150"/>
   </animation>
  </tile>
  <tile id="1">
   <animation>
    <frame tileid="1" duration="150"/>
    <frame tileid="3" duration="150"/>
    <frame tileid="5" duration="150"/>
    <frame tileid="7" duration="150"/>
    <frame tileid="9" duration="150"/>
    <frame tileid="11" duration="150"/>
   </animation>
  </tile>
  <tile id="12">
   <animation>
    <frame tileid="12" duration="150"/>
    <frame tileid="14" duration="150"/>
    <frame tileid="16" duration="150"/>
    <frame tileid="18" duration="150"/>
    <frame tileid="20" duration="150"/>
    <frame tileid="22" duration="150"/>
   </animation>
  </tile>
  <tile id="13">
   <animation>
    <frame tileid="13" duration="150"/>
    <frame tileid="15" duration="150"/>
    <frame tileid="17" duration="150"/>
    <frame tileid="19" duration="150"/>
    <frame tileid="21" duration="150"/>
    <frame tileid="23" duration="150"/>
   </animation>
  </tile>
  <tile id="24">
   <animation>
    <frame tileid="24" duration="150"/>
    <frame tileid="26" duration="150"/>
    <frame tileid="28" duration="150"/>
    <frame tileid="30" duration="150"/>
    <frame tileid="32" duration="150"/>
    <frame tileid="34" duration="150"/>
   </animation>
  </tile>
  <tile id="25">
   <animation>
    <frame tileid="25" duration="150"/>
    <frame tileid="27" duration="150"/>
    <frame tileid="29" duration="150"/>
    <frame tileid="31" duration="150"/>
    <frame tileid="33" duration="150"/>
    <frame tileid="35" duration="150"/>
   </animation>
  </tile>
  <tile id="36">
   <animation>
    <frame tileid="36" duration="150"/>
    <frame tileid="38" duration="150"/>
    <frame tileid="40" duration="150"/>
    <frame tileid="42" duration="150"/>
    <frame tileid="44" duration="150"/>
    <frame tileid="46" duration="150"/>
   </animation>
  </tile>
  <tile id="37">
   <animation>
    <frame tileid="37" duration="150"/>
    <frame tileid="39" duration="150"/>
    <frame tileid="41" duration="150"/>
    <frame tileid="43" duration="150"/>
    <frame tileid="45" duration="150"/>
    <frame tileid="47" duration="150"/>
   </animation>
  </tile>
  <tile id="48">
   <animation>
    <frame tileid="48" duration="150"/>
    <frame tileid="50" duration="150"/>
    <frame tileid="52" duration="150"/>
    <frame tileid="54" duration="150"/>
    <frame tileid="56" duration="150"/>
    <frame tileid="58" duration="150"/>
   </animation>
  </tile>
  <tile id="49">
   <animation>
    <frame tileid="49" duration="150"/>
    <frame tileid="51" duration="150"/>
    <frame tileid="53" duration="150"/>
    <frame tileid="55" duration="150"/>
    <frame tileid="57" duration="150"/>
    <frame tileid="59" duration="150"/>
   </animation>
  </tile>
  <tile id="60">
   <animation>
    <frame tileid="60" duration="150"/>
    <frame tileid="62" duration="150"/>
    <frame tileid="64" duration="150"/>
    <frame tileid="66" duration="150"/>
    <frame tileid="68" duration="150"/>
    <frame tileid="70" duration="150"/>
   </animation>
  </tile>
  <tile id="61">
   <animation>
    <frame tileid="61" duration="150"/>
    <frame tileid="63" duration="150"/>
    <frame tileid="65" duration="150"/>
    <frame tileid="67" duration="150"/>
    <frame tileid="69" duration="150"/>
    <frame tileid="71" duration="150"/>
   </animation>
  </tile>
  <tile id="72">
   <animation>
    <frame tileid="72" duration="150"/>
    <frame tileid="74" duration="150"/>
    <frame tileid="76" duration="150"/>
    <frame tileid="78" duration="150"/>
    <frame tileid="80" duration="150"/>
    <frame tileid="82" duration="150"/>
   </animation>
  </tile>
  <tile id="73">
   <animation>
    <frame tileid="73" duration="150"/>
    <frame tileid="75" duration="150"/>
    <frame tileid="77" duration="150"/>
    <frame tileid="79" duration="150"/>
    <frame tileid="81" duration="150"/>
    <frame tileid="83" duration="150"/>
   </animation>
  </tile>
  <tile id="84">
   <animation>
    <frame tileid="84" duration="150"/>
    <frame tileid="86" duration="150"/>
    <frame tileid="88" duration="150"/>
    <frame tileid="90" duration="150"/>
    <frame tileid="92" duration="150"/>
    <frame tileid="94" duration="150"/>
   </animation>
  </tile>
  <tile id="85">
   <animation>
    <frame tileid="85" duration="150"/>
    <frame tileid="87" duration="150"/>
    <frame tileid="89" duration="150"/>
    <frame tileid="91" duration="150"/>
    <frame tileid="93" duration="150"/>
    <frame tileid="95" duration="150"/>
   </animation>
  </tile>
  <tile id="96">
   <animation>
    <frame tileid="96" duration="150"/>
    <frame tileid="98" duration="150"/>
    <frame tileid="100" duration="150"/>
    <frame tileid="102" duration="150"/>
    <frame tileid="104" duration="150"/>
    <frame tileid="106" duration="150"/>
   </animation>
  </tile>
  <tile id="97">
   <animation>
    <frame tileid="97" duration="150"/>
    <frame tileid="99" duration="150"/>
    <frame tileid="101" duration="150"/>
    <frame tileid="103" duration="150"/>
    <frame tileid="105" duration="150"/>
    <frame tileid="107" duration="150"/>
   </animation>
  </tile>
  <tile id="108">
   <animation>
    <frame tileid="108" duration="150"/>
    <frame tileid="110" duration="150"/>
    <frame tileid="112" duration="150"/>
    <frame tileid="114" duration="150"/>
    <frame tileid="116" duration="150"/>
    <frame tileid="118" duration="150"/>
   </animation>
  </tile>
  <tile id="109">
   <animation>
    <frame tileid="109" duration="150"/>
    <frame tileid="111" duration="150"/>
    <frame tileid="113" duration="150"/>
    <frame tileid="115" duration="150"/>
    <frame tileid="117" duration="150"/>
    <frame tileid="119" duration="150"/>
   </animation>
  </tile>
  <tile id="120">
   <animation>
    <frame tileid="120" duration="150"/>
    <frame tileid="122" duration="150"/>
    <frame tileid="124" duration="150"/>
    <frame tileid="126" duration="150"/>
    <frame tileid="128" duration="150"/>
    <frame tileid="130" duration="150"/>
   </animation>
  </tile>
  <tile id="121">
   <animation>
    <frame tileid="121" duration="150"/>
    <frame tileid="123" duration="150"/>
    <frame tileid="125" duration="150"/>
    <frame tileid="127" duration="150"/>
    <frame tileid="129" duration="150"/>
    <frame tileid="131" duration="150"/>
   </animation>
  </tile>
  <tile id="132">
   <animation>
    <frame tileid="132" duration="150"/>
    <frame tileid="134" duration="150"/>
    <frame tileid="136" duration="150"/>
    <frame tileid="138" duration="150"/>
    <frame tileid="140" duration="150"/>
    <frame tileid="142" duration="150"/>
   </animation>
  </tile>
  <tile id="133">
   <animation>
    <frame tileid="133" duration="150"/>
    <frame tileid="135" duration="150"/>
    <frame tileid="137" duration="150"/>
    <frame tileid="139" duration="150"/>
    <frame tileid="141" duration="150"/>
    <frame tileid="143" duration="150"/>
   </animation>
  </tile>
  <tile id="144">
   <animation>
    <frame tileid="144" duration="150"/>
    <frame tileid="146" duration="150"/>
    <frame tileid="148" duration="150"/>
    <frame tileid="150" duration="150"/>
    <frame tileid="152" duration="150"/>
    <frame tileid="154" duration="150"/>
   </animation>
  </tile>
  <tile id="145">
   <animation>
    <frame tileid="145" duration="150"/>
    <frame tileid="147" duration="150"/>
    <frame tileid="149" duration="150"/>
    <frame tileid="151" duration="150"/>
    <frame tileid="153" duration="150"/>
    <frame tileid="155" duration="150"/>
   </animation>
  </tile>
  <tile id="156">
   <animation>
    <frame tileid="156" duration="150"/>
    <frame tileid="158" duration="150"/>
    <frame tileid="160" duration="150"/>
    <frame tileid="162" duration="150"/>
    <frame tileid="164" duration="150"/>
    <frame tileid="166" duration="150"/>
   </animation>
  </tile>
  <tile id="157">
   <animation>
    <frame tileid="157" duration="150"/>
    <frame tileid="159" duration="150"/>
    <frame tileid="161" duration="150"/>
    <frame tileid="163" duration="150"/>
    <frame tileid="165" duration="150"/>
    <frame tileid="167" duration="150"/>
   </animation>
  </tile>
  <tile id="168">
   <animation>
    <frame tileid="168" duration="150"/>
    <frame tileid="170" duration="150"/>
    <frame tileid="172" duration="150"/>
    <frame tileid="174" duration="150"/>
    <frame tileid="176" duration="150"/>
    <frame tileid="178" duration="150"/>
   </animation>
  </tile>
  <tile id="169">
   <animation>
    <frame tileid="169" duration="150"/>
    <frame tileid="171" duration="150"/>
    <frame tileid="173" duration="150"/>
    <frame tileid="175" duration="150"/>
    <frame tileid="177" duration="150"/>
    <frame tileid="179" duration="150"/>
   </animation>
  </tile>
  <tile id="180">
   <animation>
    <frame tileid="180" duration="150"/>
    <frame tileid="182" duration="150"/>
    <frame tileid="184" duration="150"/>
    <frame tileid="186" duration="150"/>
    <frame tileid="188" duration="150"/>
    <frame tileid="190" duration="150"/>
   </animation>
  </tile>
  <tile id="181">
   <animation>
    <frame tileid="181" duration="150"/>
    <frame tileid="183" duration="150"/>
    <frame tileid="185" duration="150"/>
    <frame tileid="187" duration="150"/>
    <frame tileid="189" duration="150"/>
    <frame tileid="191" duration="150"/>
   </animation>
  </tile>
 </tileset>
 <layer id="4" name="floor" width="16" height="24">
  <data encoding="csv">
   <chunk x="-16" y="-16" width="16" height="16">
0,0,0,0,0,0,0,0,0,0,0,0,0,0,0,0,
0,0,0,0,0,0,0,0,0,0,0,0,0,0,0,0,
0,0,0,0,0,0,0,0,0,0,0,0,0,0,0,0,
0,0,0,0,0,0,0,0,0,0,0,0,0,0,0,0,
0,0,0,0,0,0,0,0,0,0,0,0,0,0,0,0,
0,0,0,0,0,0,0,0,0,0,0,0,0,0,0,0,
0,0,0,0,0,0,0,0,0,0,0,0,0,0,21,22,
0,0,0,0,0,0,0,0,0,0,0,0,0,0,44,45,
0,0,0,0,0,0,0,0,0,0,0,0,0,0,67,68,
0,0,0,0,0,0,0,0,0,0,0,0,0,0,90,91,
0,0,0,0,0,0,0,0,0,0,0,0,0,0,113,114,
0,0,0,0,0,0,0,0,0,0,0,0,0,0,21,22,
0,0,0,0,0,0,0,0,0,0,0,0,0,0,44,45,
0,0,0,0,0,0,0,0,0,0,0,0,0,0,67,68,
0,0,0,0,0,0,0,0,0,0,0,0,0,0,90,91,
0,0,0,0,0,0,0,0,0,0,0,0,0,0,113,114
</chunk>
   <chunk x="0" y="-16" width="16" height="16">
0,0,0,0,0,0,0,0,0,0,0,0,0,0,0,0,
0,0,0,0,0,0,0,0,0,0,0,0,0,0,0,0,
0,0,0,0,0,0,0,0,0,0,0,0,0,0,0,0,
0,0,0,0,0,0,0,0,0,0,0,0,0,0,0,0,
0,0,0,0,0,0,0,0,0,0,0,0,0,0,0,0,
0,0,0,0,0,0,0,0,0,0,0,0,0,0,0,0,
23,21,22,23,21,22,23,21,22,23,21,22,23,21,22,23,
46,44,45,46,44,45,46,44,45,46,44,45,46,44,45,46,
69,67,68,69,67,68,69,67,68,69,67,68,69,67,68,69,
92,90,91,92,90,91,92,90,91,92,90,91,92,90,91,92,
115,113,114,115,113,114,115,113,114,115,113,114,115,113,114,115,
23,22,23,21,22,23,21,22,23,21,22,23,21,22,23,0,
46,45,46,44,45,46,44,45,46,44,45,46,44,45,46,0,
69,68,69,67,68,69,67,68,69,67,68,69,67,68,69,0,
92,91,92,90,91,92,90,91,92,90,91,92,90,91,92,0,
115,114,115,113,114,115,113,114,115,113,114,115,113,114,115,0
</chunk>
  </data>
 </layer>
 <layer id="2" name="Walls" width="16" height="24">
  <data encoding="csv">
   <chunk x="-16" y="-16" width="16" height="16">
0,0,0,0,0,0,0,0,0,0,0,0,0,0,0,0,
0,0,0,0,0,0,0,0,0,0,0,0,0,0,0,0,
0,0,0,0,0,0,0,0,0,0,0,0,0,0,0,0,
0,0,0,0,0,0,0,0,0,0,0,0,0,25,89,25,
0,0,0,0,0,0,0,0,0,0,0,0,0,25,4,48,
0,0,0,0,0,0,0,0,0,0,0,0,0,25,27,86,
0,0,0,0,0,0,0,0,0,0,0,0,0,25,50,109,
0,0,0,0,0,0,0,0,0,0,0,0,0,25,34,0,
0,0,0,0,0,0,0,0,0,0,0,0,0,25,57,0,
0,0,0,0,0,0,0,0,0,0,0,0,0,25,4,14,
0,0,0,0,0,0,0,0,0,0,0,0,0,25,27,37,
0,0,0,0,0,0,0,0,0,0,0,0,0,25,50,60,
0,0,0,0,0,0,0,0,0,0,0,0,0,0,0,0,
0,0,0,0,0,0,0,0,0,0,0,0,0,0,0,0,
0,0,0,0,0,0,0,0,0,0,0,0,0,0,0,0,
0,0,0,0,0,0,0,0,0,0,0,0,0,0,0,0
</chunk>
   <chunk x="0" y="-16" width="16" height="16">
0,0,0,0,0,0,0,0,0,0,0,0,0,0,0,0,
0,0,0,0,0,0,0,0,0,0,0,0,0,0,0,0,
0,0,0,0,0,0,0,0,0,0,0,0,0,0,0,0,
25,25,89,25,25,25,25,25,25,25,88,25,25,25,25,25,
18,19,4,48,18,19,20,48,19,20,7,25,25,25,25,25,
41,86,27,2147483734,41,42,43,71,42,86,9,25,25,25,88,25,
64,109,50,2147483757,65,94,64,94,94,109,32,48,48,48,5,25,
0,0,1073741835,0,0,0,0,0,0,0,55,87,71,87,28,25,
0,0,26,0,0,0,0,0,0,0,78,65,94,66,51,25,
83,15,49,0,0,0,0,0,0,0,0,0,0,0,0,0,
0,38,72,0,0,0,0,0,0,0,0,0,0,0,0,0,
0,61,95,0,0,0,0,0,0,0,0,0,0,0,0,0,
0,0,0,0,0,0,0,0,0,0,0,0,0,0,0,0,
0,0,0,0,0,0,0,0,0,0,0,0,0,0,0,0,
0,0,0,0,0,0,0,0,0,0,0,0,0,0,0,0,
0,0,0,0,0,0,0,0,0,0,0,0,0,0,0,0
</chunk>
  </data>
 </layer>
 <layer id="10" name="Fireplace" width="16" height="24">
  <data encoding="csv">
   <chunk x="0" y="-16" width="16" height="16">
0,0,0,0,0,0,0,0,0,0,0,0,0,0,0,0,
0,0,0,0,0,0,0,0,0,0,0,0,0,0,0,0,
0,0,0,0,0,0,0,0,0,0,0,0,0,0,0,0,
0,0,0,0,0,515,516,517,0,0,0,0,0,0,0,0,
0,0,0,0,0,533,534,535,0,0,0,0,0,0,0,0,
0,0,0,0,0,551,552,553,0,0,0,0,0,0,0,0,
0,0,0,0,0,569,570,571,0,0,0,0,0,0,0,0,
0,0,0,0,0,0,0,0,0,0,0,0,0,0,0,0,
0,0,0,0,0,0,0,0,0,0,0,0,0,0,0,0,
0,0,0,0,0,0,0,0,0,0,0,0,0,0,0,0,
0,0,0,0,0,0,0,0,0,0,0,0,0,0,0,0,
0,0,0,0,0,0,0,0,0,0,0,0,0,0,0,0,
0,0,0,0,0,0,0,0,0,0,0,0,0,0,0,0,
0,0,0,0,0,0,0,0,0,0,0,0,0,0,0,0,
0,0,0,0,0,0,0,0,0,0,0,0,0,0,0,0,
0,0,0,0,0,0,0,0,0,0,0,0,0,0,0,0
</chunk>
  </data>
 </layer>
 <layer id="7" name="Objects1" width="16" height="24">
  <data encoding="csv">
   <chunk x="-16" y="-16" width="16" height="16">
0,0,0,0,0,0,0,0,0,0,0,0,0,0,0,0,
0,0,0,0,0,0,0,0,0,0,0,0,0,0,0,0,
0,0,0,0,0,0,0,0,0,0,0,0,0,0,0,0,
0,0,0,0,0,0,0,0,0,0,0,0,0,0,0,0,
0,0,0,0,0,0,0,0,0,0,0,0,0,0,0,0,
0,0,0,0,0,0,0,0,0,0,0,0,0,0,221,222,
0,0,0,0,0,0,0,0,0,0,0,0,0,0,242,243,
0,0,0,0,0,0,0,0,0,0,0,0,0,0,263,264,
0,0,0,0,0,0,0,0,0,0,0,0,0,0,284,285,
0,0,0,0,0,0,0,0,0,0,0,0,0,0,0,0,
0,0,0,0,0,0,0,0,0,0,0,0,0,0,0,0,
0,0,0,0,0,0,0,0,0,0,0,0,0,0,0,0,
0,0,0,0,0,0,0,0,0,0,0,0,0,0,0,0,
0,0,0,0,0,0,0,0,0,0,0,0,0,0,0,0,
0,0,0,0,0,0,0,0,0,0,0,0,0,0,0,0,
0,0,0,0,0,0,0,0,0,0,0,0,0,0,0,0
</chunk>
   <chunk x="0" y="-16" width="16" height="16">
0,0,0,0,0,0,0,0,0,0,0,0,0,0,0,0,
0,0,0,0,0,0,0,0,0,0,0,0,0,0,0,0,
0,0,0,0,0,0,0,0,0,0,0,0,0,0,0,0,
0,0,0,0,0,0,0,0,0,0,0,0,0,0,0,0,
0,0,0,0,0,0,0,0,0,0,0,0,0,0,0,0,
223,224,0,0,0,0,0,0,0,0,0,373,374,375,0,0,
244,245,0,0,0,0,0,0,0,0,0,394,395,396,0,0,
265,266,0,0,116,117,118,119,120,0,0,415,416,417,0,0,
286,287,0,0,137,138,139,140,141,121,122,123,124,125,126,0,
0,0,0,0,158,159,160,161,162,142,143,144,145,146,147,0,
0,0,0,0,179,180,181,182,183,163,164,165,166,167,168,0,
0,0,0,0,200,201,202,203,204,184,185,186,187,188,189,0,
0,377,378,379,380,448,449,450,451,205,206,207,208,209,210,0,
0,398,399,400,401,469,470,471,472,0,0,0,0,0,0,0,
0,419,420,421,422,490,491,492,493,0,0,0,0,0,0,0,
0,0,0,0,0,0,0,0,0,0,0,0,0,0,0,0
</chunk>
  </data>
 </layer>
 <layer id="8" name="Objects2" width="16" height="24">
  <data encoding="csv">
   <chunk x="-16" y="-16" width="16" height="16">
0,0,0,0,0,0,0,0,0,0,0,0,0,0,0,0,
0,0,0,0,0,0,0,0,0,0,0,0,0,0,0,0,
0,0,0,0,0,0,0,0,0,0,0,0,0,0,0,0,
0,0,0,0,0,0,0,0,0,0,0,0,0,0,0,0,
0,0,0,0,0,0,0,0,0,0,0,0,0,0,0,0,
0,0,0,0,0,0,0,0,0,0,0,0,0,0,0,0,
0,0,0,0,0,0,0,0,0,0,0,0,0,0,0,0,
0,0,0,0,0,0,0,0,0,0,0,0,0,0,0,0,
0,0,0,0,0,0,0,0,0,0,0,0,0,0,0,0,
0,0,0,0,0,0,0,0,0,0,0,0,0,0,0,0,
0,0,0,0,0,0,0,0,0,0,0,0,0,0,0,0,
0,0,0,0,0,0,0,0,0,0,0,0,0,0,0,0,
0,0,0,0,0,0,0,0,0,0,0,0,0,0,318,319,
0,0,0,0,0,0,0,0,0,0,0,0,0,0,339,340,
0,0,0,0,0,0,0,0,0,0,0,0,0,0,360,361,
0,0,0,0,0,0,0,0,0,0,0,0,0,0,0,0
</chunk>
   <chunk x="0" y="-16" width="16" height="16">
0,0,0,0,0,0,0,0,0,0,0,0,0,0,0,0,
0,0,0,0,0,0,0,0,0,0,0,0,0,0,0,0,
0,0,0,0,0,0,0,0,0,0,0,0,0,0,0,0,
0,0,0,0,0,0,0,0,0,0,0,0,0,0,0,0,
0,0,381,382,383,384,0,0,132,133,134,0,0,0,0,0,
0,0,402,403,404,405,0,0,153,154,155,0,0,0,0,0,
0,0,423,424,425,426,0,0,174,175,176,0,0,0,0,0,
0,0,239,240,241,0,0,0,195,196,197,0,0,0,0,0,
0,0,260,261,262,0,0,0,0,0,0,0,0,0,0,0,
0,0,281,282,283,0,0,0,0,0,0,0,0,0,0,0,
0,0,302,303,304,0,0,0,0,0,0,0,0,0,0,0,
0,0,0,0,0,0,0,0,0,0,0,0,0,0,0,0,
320,321,0,0,0,0,0,0,0,0,0,0,0,0,0,0,
341,342,0,0,0,0,0,0,0,0,0,0,0,0,0,0,
362,363,0,0,0,0,0,0,0,0,0,0,0,0,0,0,
0,0,0,0,0,0,0,0,0,0,0,0,0,0,0,0
</chunk>
  </data>
 </layer>
 <layer id="9" name="Objects3" width="16" height="24">
  <data encoding="csv">
   <chunk x="-16" y="-16" width="16" height="16">
0,0,0,0,0,0,0,0,0,0,0,0,0,0,0,0,
0,0,0,0,0,0,0,0,0,0,0,0,0,0,0,0,
0,0,0,0,0,0,0,0,0,0,0,0,0,0,0,0,
0,0,0,0,0,0,0,0,0,0,0,0,0,0,0,0,
0,0,0,0,0,0,0,0,0,0,0,0,0,0,0,478,
0,0,0,0,0,0,0,0,0,0,0,0,0,0,0,499,
0,0,0,0,0,0,0,0,0,0,0,0,0,0,0,0,
0,0,0,0,0,0,0,0,0,0,0,0,0,0,0,0,
0,0,0,0,0,0,0,0,0,0,0,0,0,0,0,0,
0,0,0,0,0,0,0,0,0,0,0,0,0,0,309,310,
0,0,0,0,0,0,0,0,0,0,0,0,0,0,330,331,
0,0,0,0,0,0,0,0,0,0,0,0,0,0,351,352,
0,0,0,0,0,0,0,0,0,0,0,0,0,0,0,0,
0,0,0,0,0,0,0,0,0,0,0,0,0,0,0,0,
0,0,0,0,0,0,0,0,0,0,0,0,0,0,0,0,
0,0,0,0,0,0,0,0,0,0,0,0,0,0,0,0
</chunk>
   <chunk x="0" y="-16" width="16" height="16">
0,0,0,0,0,0,0,0,0,0,0,0,0,0,0,0,
0,0,0,0,0,0,0,0,0,0,0,0,0,0,0,0,
0,0,0,0,0,0,0,0,0,0,0,0,0,0,0,0,
0,0,0,0,0,0,0,0,0,0,0,0,0,0,0,0,
479,480,0,0,0,0,0,473,474,0,0,0,0,0,0,0,
500,501,0,0,0,0,0,494,495,0,0,0,0,0,0,0,
0,0,431,432,433,0,0,0,0,0,0,0,0,0,0,0,
0,0,452,453,454,0,0,0,368,369,370,0,0,0,0,0,
0,0,0,0,0,0,0,0,389,390,391,0,0,0,0,0,
311,312,0,0,0,0,0,0,410,411,412,0,0,0,0,0,
332,333,371,372,0,0,0,0,0,0,0,0,0,0,0,0,
353,354,392,393,0,0,0,0,0,0,0,0,0,0,0,0,
0,0,413,414,0,0,0,0,313,314,315,0,0,0,0,0,
0,0,0,0,0,0,0,0,334,335,336,0,0,0,0,0,
0,0,0,0,0,0,0,0,355,356,357,0,0,0,0,0,
0,0,0,0,0,0,0,0,0,0,0,0,0,0,0,0
</chunk>
  </data>
 </layer>
 <layer id="6" name="Walls_front" width="16" height="24">
  <data encoding="csv">
   <chunk x="-16" y="-16" width="16" height="16">
0,0,0,0,0,0,0,0,0,0,0,0,0,0,0,0,
0,0,0,0,0,0,0,0,0,0,0,0,0,0,0,0,
0,0,0,0,0,0,0,0,0,0,0,0,0,0,0,0,
0,0,0,0,0,0,0,0,0,0,0,0,0,0,0,0,
0,0,0,0,0,0,0,0,0,0,0,0,0,0,0,0,
0,0,0,0,0,0,0,0,0,0,0,0,0,0,0,0,
0,0,0,0,0,0,0,0,0,0,0,0,0,0,0,0,
0,0,0,0,0,0,0,0,0,0,0,0,0,0,0,0,
0,0,0,0,0,0,0,0,0,0,0,0,0,0,0,0,
0,0,0,0,0,0,0,0,0,0,0,0,0,0,0,0,
0,0,0,0,0,0,0,0,0,0,0,0,0,0,0,0,
0,0,0,0,0,0,0,0,0,0,0,0,0,0,0,0,
0,0,0,0,0,0,0,0,0,0,0,0,0,25,11,0,
0,0,0,0,0,0,0,0,0,0,0,0,0,25,58,0,
0,0,0,0,0,0,0,0,0,0,0,0,0,25,73,2,
0,0,0,0,0,0,0,0,0,0,0,0,0,25,112,25
</chunk>
   <chunk x="0" y="-16" width="16" height="16">
0,0,0,0,0,0,0,0,0,0,0,0,0,0,0,0,
0,0,0,0,0,0,0,0,0,0,0,0,0,0,0,0,
0,0,0,0,0,0,0,0,0,0,0,0,0,0,0,0,
0,0,0,0,0,0,0,0,0,0,0,0,0,0,0,0,
0,0,0,0,0,0,0,0,0,0,0,0,0,0,0,0,
0,0,0,0,0,0,0,0,0,0,0,0,0,0,0,0,
0,0,0,0,0,0,0,0,0,0,0,0,0,0,0,0,
0,0,0,0,0,0,0,0,0,0,0,0,0,0,0,0,
0,0,0,0,0,0,0,0,0,0,0,0,0,0,0,0,
0,0,0,0,0,0,0,0,0,0,0,0,0,0,33,25,
0,0,0,0,0,0,0,0,0,0,0,0,0,0,36,25,
0,0,0,0,0,0,0,0,0,0,0,0,0,0,56,25,
0,0,0,0,0,0,0,0,0,0,1,2,99,2,74,25,
0,0,0,0,0,0,0,0,0,0,59,25,25,25,111,25,
2,2147483747,2,2,100,101,102,102,103,2147483747,74,25,25,25,25,25,
25,25,25,25,25,25,25,25,25,25,111,25,25,25,25,25
</chunk>
  </data>
 </layer>
 <layer id="11" name="Candles" width="16" height="24">
  <data encoding="csv">
   <chunk x="-16" y="-16" width="16" height="16">
0,0,0,0,0,0,0,0,0,0,0,0,0,0,0,0,
0,0,0,0,0,0,0,0,0,0,0,0,0,0,0,0,
0,0,0,0,0,0,0,0,0,0,0,0,0,0,0,0,
0,0,0,0,0,0,0,0,0,0,0,0,0,0,0,0,
0,0,0,0,0,0,0,0,0,0,0,0,0,0,0,0,
0,0,0,0,0,0,0,0,0,0,0,0,0,0,0,0,
0,0,0,0,0,0,0,0,0,0,0,0,0,0,0,0,
0,0,0,0,0,0,0,0,0,0,0,0,0,0,0,0,
0,0,0,0,0,0,0,0,0,0,0,0,0,0,0,0,
0,0,0,0,0,0,0,0,0,0,0,0,0,0,0,0,
0,0,0,0,0,0,0,0,0,0,0,0,0,0,0,0,
0,0,0,0,0,0,0,0,0,0,0,0,0,0,0,0,
0,0,0,0,0,0,0,0,0,0,0,0,0,0,0,0,
0,0,0,0,0,0,0,0,0,0,0,0,0,0,589,590,
0,0,0,0,0,0,0,0,0,0,0,0,0,0,601,602,
0,0,0,0,0,0,0,0,0,0,0,0,0,0,0,0
</chunk>
   <chunk x="0" y="-16" width="16" height="16">
0,0,0,0,0,0,0,0,0,0,0,0,0,0,0,0,
0,0,0,0,0,0,0,0,0,0,0,0,0,0,0,0,
0,0,0,0,0,0,0,0,0,0,0,0,0,0,0,0,
0,0,0,0,0,0,0,0,0,0,0,0,0,0,0,0,
0,0,0,0,0,0,0,0,0,0,0,0,0,0,0,0,
0,0,0,0,0,0,0,0,0,0,0,0,0,0,0,0,
0,0,0,0,0,0,0,0,0,0,0,0,0,0,0,0,
0,0,0,0,0,0,0,0,0,0,0,0,0,0,0,0,
0,0,0,0,0,0,0,0,0,0,0,0,0,0,0,0,
0,0,0,0,0,0,0,0,0,0,0,0,587,588,0,0,
0,0,0,0,0,0,0,0,0,0,0,0,599,600,0,0,
0,0,0,0,0,0,0,0,0,0,0,0,0,0,0,0,
0,0,0,0,0,0,0,0,0,0,0,0,0,0,0,0,
0,0,0,0,0,0,0,0,0,0,0,0,0,0,0,0,
0,0,0,0,0,0,0,0,0,0,0,0,0,0,0,0,
0,0,0,0,0,0,0,0,0,0,0,0,0,0,0,0
</chunk>
  </data>
 </layer>
 <layer id="12" name="Hunter" width="16" height="24">
  <data encoding="csv">
   <chunk x="0" y="-16" width="16" height="16">
0,0,0,0,0,0,0,0,0,0,0,0,0,0,0,0,
0,0,0,0,0,0,0,0,0,0,0,0,0,0,0,0,
0,0,0,0,0,0,0,0,0,0,0,0,0,0,0,0,
0,0,0,0,0,0,0,0,0,0,0,0,0,0,0,0,
0,0,0,0,0,0,0,0,0,0,0,0,0,0,0,0,
0,0,0,0,0,0,0,0,0,0,0,0,0,0,0,0,
0,0,0,0,0,0,0,0,0,0,0,0,0,0,0,0,
0,0,0,0,0,0,0,0,0,0,0,0,0,0,0,0,
0,0,0,0,0,0,0,0,0,0,0,0,0,0,0,0,
0,0,0,0,0,0,0,0,0,0,0,0,0,0,0,0,
0,0,0,851,852,853,0,0,0,0,0,0,0,0,0,0,
0,0,0,887,888,889,0,0,0,0,0,0,0,0,0,0,
0,0,0,923,924,925,0,0,0,0,0,0,0,0,0,0,
0,0,0,0,0,0,0,0,0,0,0,0,0,0,0,0,
0,0,0,0,0,0,0,0,0,0,0,0,0,0,0,0,
0,0,0,0,0,0,0,0,0,0,0,0,0,0,0,0
</chunk>
  </data>
 </layer>
 <layer id="13" name="Dog" width="16" height="24">
  <data encoding="csv">
   <chunk x="0" y="-16" width="16" height="16">
0,0,0,0,0,0,0,0,0,0,0,0,0,0,0,0,
0,0,0,0,0,0,0,0,0,0,0,0,0,0,0,0,
0,0,0,0,0,0,0,0,0,0,0,0,0,0,0,0,
0,0,0,0,0,0,0,0,0,0,0,0,0,0,0,0,
0,0,0,0,0,0,0,0,0,0,0,0,0,0,0,0,
0,0,0,0,0,0,0,0,0,0,0,0,0,0,0,0,
0,0,0,0,0,0,0,0,0,0,0,0,0,0,0,0,
0,0,0,0,0,0,0,0,0,0,0,0,0,0,0,0,
0,0,0,0,0,0,0,0,0,0,0,0,0,0,0,0,
0,0,0,0,0,0,0,0,0,0,0,0,0,0,0,0,
0,0,0,0,0,0,0,0,0,0,0,0,0,0,0,0,
0,0,0,0,0,0,0,0,0,0,0,0,0,0,0,0,
0,0,0,0,0,0,1163,1164,0,0,0,0,0,0,0,0,
0,0,0,0,0,0,1175,1176,0,0,0,0,0,0,0,0,
0,0,0,0,0,0,0,0,0,0,0,0,0,0,0,0,
0,0,0,0,0,0,0,0,0,0,0,0,0,0,0,0
</chunk>
  </data>
 </layer>
</map>
