<?xml version="1.0" encoding="UTF-8"?>
<map version="1.10" tiledversion="1.10.2" orientation="orthogonal" renderorder="right-down" width="16" height="24" tilewidth="16" tileheight="16" infinite="1" nextlayerid="22" nextobjectid="1">
 <tileset firstgid="1" name="Walls_street" tilewidth="16" tileheight="16" tilecount="420" columns="21">
  <image source="Walls_street.png" width="336" height="320"/>
 </tileset>
 <tileset firstgid="421" name="Decorative_cracks" tilewidth="16" tileheight="16" tilecount="285" columns="19">
  <image source="Decorative_cracks.png" width="304" height="240"/>
 </tileset>
 <tileset firstgid="706" name="Exterior_objects" tilewidth="16" tileheight="16" tilecount="726" columns="22">
  <image source="Exterior.png" width="352" height="528"/>
 </tileset>
 <tileset firstgid="1432" name="Exterior_objects" tilewidth="16" tileheight="16" tilecount="726" columns="22">
  <image source="Exterior.png" width="352" height="528"/>
 </tileset>
 <tileset firstgid="2158" name="Exterior_objects_alternative_fit" tilewidth="16" tileheight="16" tilecount="300" columns="12">
  <image source="Exterior_objects_alternative_fit.png" width="192" height="400"/>
 </tileset>
 <tileset firstgid="2458" name="bird_fly_animation" tilewidth="16" tileheight="16" tilecount="1728" columns="27">
  <image source="bird_fly_animation.png" width="432" height="1024"/>
  <tile id="0">
   <animation>
    <frame tileid="0" duration="150"/>
    <frame tileid="0" duration="150"/>
    <frame tileid="0" duration="150"/>
    <frame tileid="0" duration="150"/>
    <frame tileid="0" duration="150"/>
    <frame tileid="0" duration="150"/>
    <frame tileid="0" duration="150"/>
    <frame tileid="0" duration="150"/>
    <frame tileid="0" duration="150"/>
    <frame tileid="108" duration="150"/>
    <frame tileid="216" duration="150"/>
    <frame tileid="324" duration="150"/>
    <frame tileid="432" duration="150"/>
    <frame tileid="540" duration="150"/>
    <frame tileid="648" duration="150"/>
    <frame tileid="756" duration="150"/>
    <frame tileid="864" duration="150"/>
    <frame tileid="972" duration="150"/>
    <frame tileid="1080" duration="150"/>
    <frame tileid="1188" duration="150"/>
    <frame tileid="1296" duration="150"/>
    <frame tileid="1404" duration="150"/>
    <frame tileid="1512" duration="150"/>
    <frame tileid="1620" duration="150"/>
   </animation>
  </tile>
  <tile id="1">
   <animation>
    <frame tileid="1" duration="150"/>
    <frame tileid="1" duration="150"/>
    <frame tileid="1" duration="150"/>
    <frame tileid="1" duration="150"/>
    <frame tileid="1" duration="150"/>
    <frame tileid="1" duration="150"/>
    <frame tileid="1" duration="150"/>
    <frame tileid="1" duration="150"/>
    <frame tileid="1" duration="150"/>
    <frame tileid="109" duration="150"/>
    <frame tileid="217" duration="150"/>
    <frame tileid="325" duration="150"/>
    <frame tileid="433" duration="150"/>
    <frame tileid="541" duration="150"/>
    <frame tileid="649" duration="150"/>
    <frame tileid="757" duration="150"/>
    <frame tileid="865" duration="150"/>
    <frame tileid="973" duration="150"/>
    <frame tileid="1081" duration="150"/>
    <frame tileid="1189" duration="150"/>
    <frame tileid="1297" duration="150"/>
    <frame tileid="1405" duration="150"/>
    <frame tileid="1513" duration="150"/>
    <frame tileid="1621" duration="150"/>
   </animation>
  </tile>
  <tile id="2">
   <animation>
    <frame tileid="2" duration="150"/>
    <frame tileid="2" duration="150"/>
    <frame tileid="2" duration="150"/>
    <frame tileid="2" duration="150"/>
    <frame tileid="2" duration="150"/>
    <frame tileid="2" duration="150"/>
    <frame tileid="2" duration="150"/>
    <frame tileid="2" duration="150"/>
    <frame tileid="2" duration="150"/>
    <frame tileid="110" duration="150"/>
    <frame tileid="218" duration="150"/>
    <frame tileid="326" duration="150"/>
    <frame tileid="434" duration="150"/>
    <frame tileid="542" duration="150"/>
    <frame tileid="650" duration="150"/>
    <frame tileid="758" duration="150"/>
    <frame tileid="866" duration="150"/>
    <frame tileid="974" duration="150"/>
    <frame tileid="1082" duration="150"/>
    <frame tileid="1190" duration="150"/>
    <frame tileid="1298" duration="150"/>
    <frame tileid="1406" duration="150"/>
    <frame tileid="1514" duration="150"/>
    <frame tileid="1622" duration="150"/>
   </animation>
  </tile>
  <tile id="3">
   <animation>
    <frame tileid="3" duration="150"/>
    <frame tileid="3" duration="150"/>
    <frame tileid="3" duration="150"/>
    <frame tileid="3" duration="150"/>
    <frame tileid="3" duration="150"/>
    <frame tileid="3" duration="150"/>
    <frame tileid="3" duration="150"/>
    <frame tileid="3" duration="150"/>
    <frame tileid="3" duration="150"/>
    <frame tileid="111" duration="150"/>
    <frame tileid="219" duration="150"/>
    <frame tileid="327" duration="150"/>
    <frame tileid="435" duration="150"/>
    <frame tileid="543" duration="150"/>
    <frame tileid="651" duration="150"/>
    <frame tileid="759" duration="150"/>
    <frame tileid="867" duration="150"/>
    <frame tileid="975" duration="150"/>
    <frame tileid="1083" duration="150"/>
    <frame tileid="1191" duration="150"/>
    <frame tileid="1299" duration="150"/>
    <frame tileid="1407" duration="150"/>
    <frame tileid="1515" duration="150"/>
    <frame tileid="1623" duration="150"/>
   </animation>
  </tile>
  <tile id="4">
   <animation>
    <frame tileid="4" duration="150"/>
    <frame tileid="4" duration="150"/>
    <frame tileid="4" duration="150"/>
    <frame tileid="4" duration="150"/>
    <frame tileid="4" duration="150"/>
    <frame tileid="4" duration="150"/>
    <frame tileid="4" duration="150"/>
    <frame tileid="4" duration="150"/>
    <frame tileid="4" duration="150"/>
    <frame tileid="112" duration="150"/>
    <frame tileid="220" duration="150"/>
    <frame tileid="328" duration="150"/>
    <frame tileid="436" duration="150"/>
    <frame tileid="544" duration="150"/>
    <frame tileid="652" duration="150"/>
    <frame tileid="760" duration="150"/>
    <frame tileid="868" duration="150"/>
    <frame tileid="976" duration="150"/>
    <frame tileid="1084" duration="150"/>
    <frame tileid="1192" duration="150"/>
    <frame tileid="1300" duration="150"/>
    <frame tileid="1408" duration="150"/>
    <frame tileid="1516" duration="150"/>
    <frame tileid="1624" duration="150"/>
   </animation>
  </tile>
  <tile id="5">
   <animation>
    <frame tileid="5" duration="150"/>
    <frame tileid="5" duration="150"/>
    <frame tileid="5" duration="150"/>
    <frame tileid="5" duration="150"/>
    <frame tileid="5" duration="150"/>
    <frame tileid="5" duration="150"/>
    <frame tileid="5" duration="150"/>
    <frame tileid="5" duration="150"/>
    <frame tileid="5" duration="150"/>
    <frame tileid="113" duration="150"/>
    <frame tileid="221" duration="150"/>
    <frame tileid="329" duration="150"/>
    <frame tileid="437" duration="150"/>
    <frame tileid="545" duration="150"/>
    <frame tileid="653" duration="150"/>
    <frame tileid="761" duration="150"/>
    <frame tileid="869" duration="150"/>
    <frame tileid="977" duration="150"/>
    <frame tileid="1085" duration="150"/>
    <frame tileid="1193" duration="150"/>
    <frame tileid="1301" duration="150"/>
    <frame tileid="1409" duration="150"/>
    <frame tileid="1517" duration="150"/>
    <frame tileid="1625" duration="150"/>
   </animation>
  </tile>
  <tile id="6">
   <animation>
    <frame tileid="6" duration="150"/>
    <frame tileid="6" duration="150"/>
    <frame tileid="6" duration="150"/>
    <frame tileid="6" duration="150"/>
    <frame tileid="6" duration="150"/>
    <frame tileid="6" duration="150"/>
    <frame tileid="6" duration="150"/>
    <frame tileid="6" duration="150"/>
    <frame tileid="6" duration="150"/>
    <frame tileid="114" duration="150"/>
    <frame tileid="222" duration="150"/>
    <frame tileid="330" duration="150"/>
    <frame tileid="438" duration="150"/>
    <frame tileid="546" duration="150"/>
    <frame tileid="654" duration="150"/>
    <frame tileid="762" duration="150"/>
    <frame tileid="870" duration="150"/>
    <frame tileid="978" duration="150"/>
    <frame tileid="1086" duration="150"/>
    <frame tileid="1194" duration="150"/>
    <frame tileid="1302" duration="150"/>
    <frame tileid="1410" duration="150"/>
    <frame tileid="1518" duration="150"/>
    <frame tileid="1626" duration="150"/>
   </animation>
  </tile>
  <tile id="7">
   <animation>
    <frame tileid="7" duration="150"/>
    <frame tileid="7" duration="150"/>
    <frame tileid="7" duration="150"/>
    <frame tileid="7" duration="150"/>
    <frame tileid="7" duration="150"/>
    <frame tileid="7" duration="150"/>
    <frame tileid="7" duration="150"/>
    <frame tileid="7" duration="150"/>
    <frame tileid="7" duration="150"/>
    <frame tileid="115" duration="150"/>
    <frame tileid="223" duration="150"/>
    <frame tileid="331" duration="150"/>
    <frame tileid="439" duration="150"/>
    <frame tileid="547" duration="150"/>
    <frame tileid="655" duration="150"/>
    <frame tileid="763" duration="150"/>
    <frame tileid="871" duration="150"/>
    <frame tileid="979" duration="150"/>
    <frame tileid="1087" duration="150"/>
    <frame tileid="1195" duration="150"/>
    <frame tileid="1303" duration="150"/>
    <frame tileid="1411" duration="150"/>
    <frame tileid="1519" duration="150"/>
    <frame tileid="1627" duration="150"/>
   </animation>
  </tile>
  <tile id="8">
   <animation>
    <frame tileid="8" duration="150"/>
    <frame tileid="8" duration="150"/>
    <frame tileid="8" duration="150"/>
    <frame tileid="8" duration="150"/>
    <frame tileid="8" duration="150"/>
    <frame tileid="8" duration="150"/>
    <frame tileid="8" duration="150"/>
    <frame tileid="8" duration="150"/>
    <frame tileid="8" duration="150"/>
    <frame tileid="116" duration="150"/>
    <frame tileid="224" duration="150"/>
    <frame tileid="332" duration="150"/>
    <frame tileid="440" duration="150"/>
    <frame tileid="548" duration="150"/>
    <frame tileid="656" duration="150"/>
    <frame tileid="764" duration="150"/>
    <frame tileid="872" duration="150"/>
    <frame tileid="980" duration="150"/>
    <frame tileid="1088" duration="150"/>
    <frame tileid="1196" duration="150"/>
    <frame tileid="1304" duration="150"/>
    <frame tileid="1412" duration="150"/>
    <frame tileid="1520" duration="150"/>
    <frame tileid="1628" duration="150"/>
   </animation>
  </tile>
  <tile id="9">
   <animation>
    <frame tileid="117" duration="150"/>
    <frame tileid="225" duration="150"/>
    <frame tileid="333" duration="150"/>
    <frame tileid="441" duration="150"/>
    <frame tileid="549" duration="150"/>
    <frame tileid="657" duration="150"/>
    <frame tileid="765" duration="150"/>
    <frame tileid="873" duration="150"/>
    <frame tileid="981" duration="150"/>
    <frame tileid="1089" duration="150"/>
    <frame tileid="1197" duration="150"/>
    <frame tileid="1305" duration="150"/>
    <frame tileid="1413" duration="150"/>
    <frame tileid="1521" duration="150"/>
    <frame tileid="1629" duration="150"/>
    <frame tileid="9" duration="150"/>
    <frame tileid="9" duration="150"/>
    <frame tileid="9" duration="150"/>
    <frame tileid="9" duration="150"/>
    <frame tileid="9" duration="150"/>
    <frame tileid="9" duration="150"/>
    <frame tileid="9" duration="150"/>
    <frame tileid="9" duration="150"/>
    <frame tileid="9" duration="150"/>
   </animation>
  </tile>
  <tile id="10">
   <animation>
    <frame tileid="118" duration="150"/>
    <frame tileid="226" duration="150"/>
    <frame tileid="334" duration="150"/>
    <frame tileid="442" duration="150"/>
    <frame tileid="550" duration="150"/>
    <frame tileid="658" duration="150"/>
    <frame tileid="766" duration="150"/>
    <frame tileid="874" duration="150"/>
    <frame tileid="982" duration="150"/>
    <frame tileid="1090" duration="150"/>
    <frame tileid="1198" duration="150"/>
    <frame tileid="1306" duration="150"/>
    <frame tileid="1414" duration="150"/>
    <frame tileid="1522" duration="150"/>
    <frame tileid="1630" duration="150"/>
    <frame tileid="10" duration="150"/>
    <frame tileid="10" duration="150"/>
    <frame tileid="10" duration="150"/>
    <frame tileid="10" duration="150"/>
    <frame tileid="10" duration="150"/>
    <frame tileid="10" duration="150"/>
    <frame tileid="10" duration="150"/>
    <frame tileid="10" duration="150"/>
    <frame tileid="10" duration="150"/>
   </animation>
  </tile>
  <tile id="11">
   <animation>
    <frame tileid="119" duration="150"/>
    <frame tileid="227" duration="150"/>
    <frame tileid="335" duration="150"/>
    <frame tileid="443" duration="150"/>
    <frame tileid="551" duration="150"/>
    <frame tileid="659" duration="150"/>
    <frame tileid="767" duration="150"/>
    <frame tileid="875" duration="150"/>
    <frame tileid="983" duration="150"/>
    <frame tileid="1091" duration="150"/>
    <frame tileid="1199" duration="150"/>
    <frame tileid="1307" duration="150"/>
    <frame tileid="1415" duration="150"/>
    <frame tileid="1523" duration="150"/>
    <frame tileid="1631" duration="150"/>
    <frame tileid="11" duration="150"/>
    <frame tileid="11" duration="150"/>
    <frame tileid="11" duration="150"/>
    <frame tileid="11" duration="150"/>
    <frame tileid="11" duration="150"/>
    <frame tileid="11" duration="150"/>
    <frame tileid="11" duration="150"/>
    <frame tileid="11" duration="150"/>
    <frame tileid="11" duration="150"/>
   </animation>
  </tile>
  <tile id="12">
   <animation>
    <frame tileid="120" duration="150"/>
    <frame tileid="228" duration="150"/>
    <frame tileid="336" duration="150"/>
    <frame tileid="444" duration="150"/>
    <frame tileid="552" duration="150"/>
    <frame tileid="660" duration="150"/>
    <frame tileid="768" duration="150"/>
    <frame tileid="876" duration="150"/>
    <frame tileid="984" duration="150"/>
    <frame tileid="1092" duration="150"/>
    <frame tileid="1200" duration="150"/>
    <frame tileid="1308" duration="150"/>
    <frame tileid="1416" duration="150"/>
    <frame tileid="1524" duration="150"/>
    <frame tileid="1632" duration="150"/>
    <frame tileid="12" duration="150"/>
    <frame tileid="12" duration="150"/>
    <frame tileid="12" duration="150"/>
    <frame tileid="12" duration="150"/>
    <frame tileid="12" duration="150"/>
    <frame tileid="12" duration="150"/>
    <frame tileid="12" duration="150"/>
    <frame tileid="12" duration="150"/>
    <frame tileid="12" duration="150"/>
   </animation>
  </tile>
  <tile id="13">
   <animation>
    <frame tileid="121" duration="150"/>
    <frame tileid="229" duration="150"/>
    <frame tileid="337" duration="150"/>
    <frame tileid="445" duration="150"/>
    <frame tileid="553" duration="150"/>
    <frame tileid="661" duration="150"/>
    <frame tileid="769" duration="150"/>
    <frame tileid="877" duration="150"/>
    <frame tileid="985" duration="150"/>
    <frame tileid="1093" duration="150"/>
    <frame tileid="1201" duration="150"/>
    <frame tileid="1309" duration="150"/>
    <frame tileid="1417" duration="150"/>
    <frame tileid="1525" duration="150"/>
    <frame tileid="1633" duration="150"/>
    <frame tileid="13" duration="150"/>
    <frame tileid="13" duration="150"/>
    <frame tileid="13" duration="150"/>
    <frame tileid="13" duration="150"/>
    <frame tileid="13" duration="150"/>
    <frame tileid="13" duration="150"/>
    <frame tileid="13" duration="150"/>
    <frame tileid="13" duration="150"/>
    <frame tileid="13" duration="150"/>
   </animation>
  </tile>
  <tile id="14">
   <animation>
    <frame tileid="122" duration="150"/>
    <frame tileid="230" duration="150"/>
    <frame tileid="338" duration="150"/>
    <frame tileid="446" duration="150"/>
    <frame tileid="554" duration="150"/>
    <frame tileid="662" duration="150"/>
    <frame tileid="770" duration="150"/>
    <frame tileid="878" duration="150"/>
    <frame tileid="986" duration="150"/>
    <frame tileid="1094" duration="150"/>
    <frame tileid="1202" duration="150"/>
    <frame tileid="1310" duration="150"/>
    <frame tileid="1418" duration="150"/>
    <frame tileid="1526" duration="150"/>
    <frame tileid="1634" duration="150"/>
    <frame tileid="14" duration="150"/>
    <frame tileid="14" duration="150"/>
    <frame tileid="14" duration="150"/>
    <frame tileid="14" duration="150"/>
    <frame tileid="14" duration="150"/>
    <frame tileid="14" duration="150"/>
    <frame tileid="14" duration="150"/>
    <frame tileid="14" duration="150"/>
    <frame tileid="14" duration="150"/>
   </animation>
  </tile>
  <tile id="15">
   <animation>
    <frame tileid="123" duration="150"/>
    <frame tileid="231" duration="150"/>
    <frame tileid="339" duration="150"/>
    <frame tileid="447" duration="150"/>
    <frame tileid="555" duration="150"/>
    <frame tileid="663" duration="150"/>
    <frame tileid="771" duration="150"/>
    <frame tileid="879" duration="150"/>
    <frame tileid="987" duration="150"/>
    <frame tileid="1095" duration="150"/>
    <frame tileid="1203" duration="150"/>
    <frame tileid="1311" duration="150"/>
    <frame tileid="1419" duration="150"/>
    <frame tileid="1527" duration="150"/>
    <frame tileid="1635" duration="150"/>
    <frame tileid="15" duration="150"/>
    <frame tileid="15" duration="150"/>
    <frame tileid="15" duration="150"/>
    <frame tileid="15" duration="150"/>
    <frame tileid="15" duration="150"/>
    <frame tileid="15" duration="150"/>
    <frame tileid="15" duration="150"/>
    <frame tileid="15" duration="150"/>
    <frame tileid="15" duration="150"/>
   </animation>
  </tile>
  <tile id="16">
   <animation>
    <frame tileid="124" duration="150"/>
    <frame tileid="232" duration="150"/>
    <frame tileid="340" duration="150"/>
    <frame tileid="448" duration="150"/>
    <frame tileid="556" duration="150"/>
    <frame tileid="664" duration="150"/>
    <frame tileid="772" duration="150"/>
    <frame tileid="880" duration="150"/>
    <frame tileid="988" duration="150"/>
    <frame tileid="1096" duration="150"/>
    <frame tileid="1204" duration="150"/>
    <frame tileid="1312" duration="150"/>
    <frame tileid="1420" duration="150"/>
    <frame tileid="1528" duration="150"/>
    <frame tileid="1636" duration="150"/>
    <frame tileid="16" duration="150"/>
    <frame tileid="16" duration="150"/>
    <frame tileid="16" duration="150"/>
    <frame tileid="16" duration="150"/>
    <frame tileid="16" duration="150"/>
    <frame tileid="16" duration="150"/>
    <frame tileid="16" duration="150"/>
    <frame tileid="16" duration="150"/>
    <frame tileid="16" duration="150"/>
   </animation>
  </tile>
  <tile id="17">
   <animation>
    <frame tileid="125" duration="150"/>
    <frame tileid="233" duration="150"/>
    <frame tileid="341" duration="150"/>
    <frame tileid="449" duration="150"/>
    <frame tileid="557" duration="150"/>
    <frame tileid="665" duration="150"/>
    <frame tileid="773" duration="150"/>
    <frame tileid="881" duration="150"/>
    <frame tileid="989" duration="150"/>
    <frame tileid="1097" duration="150"/>
    <frame tileid="1205" duration="150"/>
    <frame tileid="1313" duration="150"/>
    <frame tileid="1421" duration="150"/>
    <frame tileid="1529" duration="150"/>
    <frame tileid="1637" duration="150"/>
    <frame tileid="17" duration="150"/>
    <frame tileid="17" duration="150"/>
    <frame tileid="17" duration="150"/>
    <frame tileid="17" duration="150"/>
    <frame tileid="17" duration="150"/>
    <frame tileid="17" duration="150"/>
    <frame tileid="17" duration="150"/>
    <frame tileid="17" duration="150"/>
    <frame tileid="17" duration="150"/>
   </animation>
  </tile>
  <tile id="18">
   <animation>
    <frame tileid="18" duration="150"/>
    <frame tileid="18" duration="150"/>
    <frame tileid="18" duration="150"/>
    <frame tileid="18" duration="150"/>
    <frame tileid="126" duration="150"/>
    <frame tileid="234" duration="150"/>
    <frame tileid="342" duration="150"/>
    <frame tileid="450" duration="150"/>
    <frame tileid="558" duration="150"/>
    <frame tileid="666" duration="150"/>
    <frame tileid="774" duration="150"/>
    <frame tileid="882" duration="150"/>
    <frame tileid="990" duration="150"/>
    <frame tileid="1098" duration="150"/>
    <frame tileid="1206" duration="150"/>
    <frame tileid="1314" duration="150"/>
    <frame tileid="1422" duration="150"/>
    <frame tileid="1530" duration="150"/>
    <frame tileid="1638" duration="150"/>
    <frame tileid="18" duration="150"/>
    <frame tileid="18" duration="150"/>
    <frame tileid="18" duration="150"/>
    <frame tileid="18" duration="150"/>
    <frame tileid="18" duration="150"/>
   </animation>
  </tile>
  <tile id="19">
   <animation>
    <frame tileid="19" duration="150"/>
    <frame tileid="19" duration="150"/>
    <frame tileid="19" duration="150"/>
    <frame tileid="19" duration="150"/>
    <frame tileid="127" duration="150"/>
    <frame tileid="235" duration="150"/>
    <frame tileid="343" duration="150"/>
    <frame tileid="451" duration="150"/>
    <frame tileid="559" duration="150"/>
    <frame tileid="667" duration="150"/>
    <frame tileid="775" duration="150"/>
    <frame tileid="883" duration="150"/>
    <frame tileid="991" duration="150"/>
    <frame tileid="1099" duration="150"/>
    <frame tileid="1207" duration="150"/>
    <frame tileid="1315" duration="150"/>
    <frame tileid="1423" duration="150"/>
    <frame tileid="1531" duration="150"/>
    <frame tileid="1639" duration="150"/>
    <frame tileid="19" duration="150"/>
    <frame tileid="19" duration="150"/>
    <frame tileid="19" duration="150"/>
    <frame tileid="19" duration="150"/>
    <frame tileid="19" duration="150"/>
   </animation>
  </tile>
  <tile id="20">
   <animation>
    <frame tileid="20" duration="150"/>
    <frame tileid="20" duration="150"/>
    <frame tileid="20" duration="150"/>
    <frame tileid="20" duration="150"/>
    <frame tileid="128" duration="150"/>
    <frame tileid="236" duration="150"/>
    <frame tileid="344" duration="150"/>
    <frame tileid="452" duration="150"/>
    <frame tileid="560" duration="150"/>
    <frame tileid="668" duration="150"/>
    <frame tileid="776" duration="150"/>
    <frame tileid="884" duration="150"/>
    <frame tileid="992" duration="150"/>
    <frame tileid="1100" duration="150"/>
    <frame tileid="1208" duration="150"/>
    <frame tileid="1316" duration="150"/>
    <frame tileid="1424" duration="150"/>
    <frame tileid="1532" duration="150"/>
    <frame tileid="1640" duration="150"/>
    <frame tileid="20" duration="150"/>
    <frame tileid="20" duration="150"/>
    <frame tileid="20" duration="150"/>
    <frame tileid="20" duration="150"/>
    <frame tileid="20" duration="150"/>
   </animation>
  </tile>
  <tile id="21">
   <animation>
    <frame tileid="21" duration="150"/>
    <frame tileid="21" duration="150"/>
    <frame tileid="21" duration="150"/>
    <frame tileid="21" duration="150"/>
    <frame tileid="129" duration="150"/>
    <frame tileid="237" duration="150"/>
    <frame tileid="345" duration="150"/>
    <frame tileid="453" duration="150"/>
    <frame tileid="561" duration="150"/>
    <frame tileid="669" duration="150"/>
    <frame tileid="777" duration="150"/>
    <frame tileid="885" duration="150"/>
    <frame tileid="993" duration="150"/>
    <frame tileid="1101" duration="150"/>
    <frame tileid="1209" duration="150"/>
    <frame tileid="1317" duration="150"/>
    <frame tileid="1425" duration="150"/>
    <frame tileid="1533" duration="150"/>
    <frame tileid="1641" duration="150"/>
    <frame tileid="21" duration="150"/>
    <frame tileid="21" duration="150"/>
    <frame tileid="21" duration="150"/>
    <frame tileid="21" duration="150"/>
    <frame tileid="21" duration="150"/>
   </animation>
  </tile>
  <tile id="22">
   <animation>
    <frame tileid="22" duration="150"/>
    <frame tileid="22" duration="150"/>
    <frame tileid="22" duration="150"/>
    <frame tileid="22" duration="150"/>
    <frame tileid="130" duration="150"/>
    <frame tileid="238" duration="150"/>
    <frame tileid="346" duration="150"/>
    <frame tileid="454" duration="150"/>
    <frame tileid="562" duration="150"/>
    <frame tileid="670" duration="150"/>
    <frame tileid="778" duration="150"/>
    <frame tileid="886" duration="150"/>
    <frame tileid="994" duration="150"/>
    <frame tileid="1102" duration="150"/>
    <frame tileid="1210" duration="150"/>
    <frame tileid="1318" duration="150"/>
    <frame tileid="1426" duration="150"/>
    <frame tileid="1534" duration="150"/>
    <frame tileid="1642" duration="150"/>
    <frame tileid="22" duration="150"/>
    <frame tileid="22" duration="150"/>
    <frame tileid="22" duration="150"/>
    <frame tileid="22" duration="150"/>
    <frame tileid="22" duration="150"/>
   </animation>
  </tile>
  <tile id="23">
   <animation>
    <frame tileid="23" duration="150"/>
    <frame tileid="23" duration="150"/>
    <frame tileid="23" duration="150"/>
    <frame tileid="23" duration="150"/>
    <frame tileid="131" duration="150"/>
    <frame tileid="239" duration="150"/>
    <frame tileid="347" duration="150"/>
    <frame tileid="455" duration="150"/>
    <frame tileid="563" duration="150"/>
    <frame tileid="671" duration="150"/>
    <frame tileid="779" duration="150"/>
    <frame tileid="887" duration="150"/>
    <frame tileid="995" duration="150"/>
    <frame tileid="1103" duration="150"/>
    <frame tileid="1211" duration="150"/>
    <frame tileid="1319" duration="150"/>
    <frame tileid="1427" duration="150"/>
    <frame tileid="1535" duration="150"/>
    <frame tileid="1643" duration="150"/>
    <frame tileid="23" duration="150"/>
    <frame tileid="23" duration="150"/>
    <frame tileid="23" duration="150"/>
    <frame tileid="23" duration="150"/>
    <frame tileid="23" duration="150"/>
   </animation>
  </tile>
  <tile id="24">
   <animation>
    <frame tileid="24" duration="150"/>
    <frame tileid="24" duration="150"/>
    <frame tileid="24" duration="150"/>
    <frame tileid="24" duration="150"/>
    <frame tileid="132" duration="150"/>
    <frame tileid="240" duration="150"/>
    <frame tileid="348" duration="150"/>
    <frame tileid="456" duration="150"/>
    <frame tileid="564" duration="150"/>
    <frame tileid="672" duration="150"/>
    <frame tileid="780" duration="150"/>
    <frame tileid="888" duration="150"/>
    <frame tileid="996" duration="150"/>
    <frame tileid="1104" duration="150"/>
    <frame tileid="1212" duration="150"/>
    <frame tileid="1320" duration="150"/>
    <frame tileid="1428" duration="150"/>
    <frame tileid="1536" duration="150"/>
    <frame tileid="1644" duration="150"/>
    <frame tileid="24" duration="150"/>
    <frame tileid="24" duration="150"/>
    <frame tileid="24" duration="150"/>
    <frame tileid="24" duration="150"/>
    <frame tileid="24" duration="150"/>
   </animation>
  </tile>
  <tile id="25">
   <animation>
    <frame tileid="25" duration="150"/>
    <frame tileid="25" duration="150"/>
    <frame tileid="25" duration="150"/>
    <frame tileid="25" duration="150"/>
    <frame tileid="133" duration="150"/>
    <frame tileid="241" duration="150"/>
    <frame tileid="349" duration="150"/>
    <frame tileid="457" duration="150"/>
    <frame tileid="565" duration="150"/>
    <frame tileid="673" duration="150"/>
    <frame tileid="781" duration="150"/>
    <frame tileid="889" duration="150"/>
    <frame tileid="997" duration="150"/>
    <frame tileid="1105" duration="150"/>
    <frame tileid="1213" duration="150"/>
    <frame tileid="1321" duration="150"/>
    <frame tileid="1429" duration="150"/>
    <frame tileid="1537" duration="150"/>
    <frame tileid="1645" duration="150"/>
    <frame tileid="25" duration="150"/>
    <frame tileid="25" duration="150"/>
    <frame tileid="25" duration="150"/>
    <frame tileid="25" duration="150"/>
    <frame tileid="25" duration="150"/>
   </animation>
  </tile>
  <tile id="26">
   <animation>
    <frame tileid="25" duration="150"/>
    <frame tileid="25" duration="150"/>
    <frame tileid="25" duration="150"/>
    <frame tileid="26" duration="150"/>
    <frame tileid="134" duration="150"/>
    <frame tileid="242" duration="150"/>
    <frame tileid="350" duration="150"/>
    <frame tileid="458" duration="150"/>
    <frame tileid="566" duration="150"/>
    <frame tileid="674" duration="150"/>
    <frame tileid="782" duration="150"/>
    <frame tileid="890" duration="150"/>
    <frame tileid="998" duration="150"/>
    <frame tileid="1106" duration="150"/>
    <frame tileid="1214" duration="150"/>
    <frame tileid="1322" duration="150"/>
    <frame tileid="1430" duration="150"/>
    <frame tileid="1538" duration="150"/>
    <frame tileid="1646" duration="150"/>
    <frame tileid="25" duration="150"/>
    <frame tileid="25" duration="150"/>
    <frame tileid="25" duration="150"/>
    <frame tileid="25" duration="150"/>
    <frame tileid="25" duration="150"/>
   </animation>
  </tile>
  <tile id="27">
   <animation>
    <frame tileid="27" duration="150"/>
    <frame tileid="27" duration="150"/>
    <frame tileid="27" duration="150"/>
    <frame tileid="27" duration="150"/>
    <frame tileid="27" duration="150"/>
    <frame tileid="27" duration="150"/>
    <frame tileid="27" duration="150"/>
    <frame tileid="27" duration="150"/>
    <frame tileid="27" duration="150"/>
    <frame tileid="135" duration="150"/>
    <frame tileid="243" duration="150"/>
    <frame tileid="351" duration="150"/>
    <frame tileid="459" duration="150"/>
    <frame tileid="567" duration="150"/>
    <frame tileid="675" duration="150"/>
    <frame tileid="783" duration="150"/>
    <frame tileid="891" duration="150"/>
    <frame tileid="999" duration="150"/>
    <frame tileid="1107" duration="150"/>
    <frame tileid="1215" duration="150"/>
    <frame tileid="1323" duration="150"/>
    <frame tileid="1431" duration="150"/>
    <frame tileid="1539" duration="150"/>
    <frame tileid="1647" duration="150"/>
   </animation>
  </tile>
  <tile id="28">
   <animation>
    <frame tileid="28" duration="150"/>
    <frame tileid="28" duration="150"/>
    <frame tileid="28" duration="150"/>
    <frame tileid="28" duration="150"/>
    <frame tileid="28" duration="150"/>
    <frame tileid="28" duration="150"/>
    <frame tileid="28" duration="150"/>
    <frame tileid="28" duration="150"/>
    <frame tileid="28" duration="150"/>
    <frame tileid="136" duration="150"/>
    <frame tileid="244" duration="150"/>
    <frame tileid="352" duration="150"/>
    <frame tileid="460" duration="150"/>
    <frame tileid="568" duration="150"/>
    <frame tileid="676" duration="150"/>
    <frame tileid="784" duration="150"/>
    <frame tileid="892" duration="150"/>
    <frame tileid="1000" duration="150"/>
    <frame tileid="1108" duration="150"/>
    <frame tileid="1216" duration="150"/>
    <frame tileid="1324" duration="150"/>
    <frame tileid="1432" duration="150"/>
    <frame tileid="1540" duration="150"/>
    <frame tileid="1648" duration="150"/>
   </animation>
  </tile>
  <tile id="29">
   <animation>
    <frame tileid="29" duration="150"/>
    <frame tileid="29" duration="150"/>
    <frame tileid="29" duration="150"/>
    <frame tileid="29" duration="150"/>
    <frame tileid="29" duration="150"/>
    <frame tileid="29" duration="150"/>
    <frame tileid="29" duration="150"/>
    <frame tileid="29" duration="150"/>
    <frame tileid="29" duration="150"/>
    <frame tileid="137" duration="150"/>
    <frame tileid="245" duration="150"/>
    <frame tileid="353" duration="150"/>
    <frame tileid="461" duration="150"/>
    <frame tileid="569" duration="150"/>
    <frame tileid="677" duration="150"/>
    <frame tileid="785" duration="150"/>
    <frame tileid="893" duration="150"/>
    <frame tileid="1001" duration="150"/>
    <frame tileid="1109" duration="150"/>
    <frame tileid="1217" duration="150"/>
    <frame tileid="1325" duration="150"/>
    <frame tileid="1433" duration="150"/>
    <frame tileid="1541" duration="150"/>
    <frame tileid="1649" duration="150"/>
   </animation>
  </tile>
  <tile id="30">
   <animation>
    <frame tileid="30" duration="150"/>
    <frame tileid="30" duration="150"/>
    <frame tileid="30" duration="150"/>
    <frame tileid="30" duration="150"/>
    <frame tileid="30" duration="150"/>
    <frame tileid="30" duration="150"/>
    <frame tileid="30" duration="150"/>
    <frame tileid="30" duration="150"/>
    <frame tileid="30" duration="150"/>
    <frame tileid="138" duration="150"/>
    <frame tileid="246" duration="150"/>
    <frame tileid="354" duration="150"/>
    <frame tileid="462" duration="150"/>
    <frame tileid="570" duration="150"/>
    <frame tileid="678" duration="150"/>
    <frame tileid="786" duration="150"/>
    <frame tileid="894" duration="150"/>
    <frame tileid="1002" duration="150"/>
    <frame tileid="1110" duration="150"/>
    <frame tileid="1218" duration="150"/>
    <frame tileid="1326" duration="150"/>
    <frame tileid="1434" duration="150"/>
    <frame tileid="1542" duration="150"/>
    <frame tileid="1650" duration="150"/>
   </animation>
  </tile>
  <tile id="31">
   <animation>
    <frame tileid="31" duration="150"/>
    <frame tileid="31" duration="150"/>
    <frame tileid="31" duration="150"/>
    <frame tileid="31" duration="150"/>
    <frame tileid="31" duration="150"/>
    <frame tileid="31" duration="150"/>
    <frame tileid="31" duration="150"/>
    <frame tileid="31" duration="150"/>
    <frame tileid="31" duration="150"/>
    <frame tileid="139" duration="150"/>
    <frame tileid="247" duration="150"/>
    <frame tileid="355" duration="150"/>
    <frame tileid="463" duration="150"/>
    <frame tileid="571" duration="150"/>
    <frame tileid="679" duration="150"/>
    <frame tileid="787" duration="150"/>
    <frame tileid="895" duration="150"/>
    <frame tileid="1003" duration="150"/>
    <frame tileid="1111" duration="150"/>
    <frame tileid="1219" duration="150"/>
    <frame tileid="1327" duration="150"/>
    <frame tileid="1435" duration="150"/>
    <frame tileid="1543" duration="150"/>
    <frame tileid="1651" duration="150"/>
   </animation>
  </tile>
  <tile id="32">
   <animation>
    <frame tileid="32" duration="150"/>
    <frame tileid="32" duration="150"/>
    <frame tileid="32" duration="150"/>
    <frame tileid="32" duration="150"/>
    <frame tileid="32" duration="150"/>
    <frame tileid="32" duration="150"/>
    <frame tileid="32" duration="150"/>
    <frame tileid="32" duration="150"/>
    <frame tileid="32" duration="150"/>
    <frame tileid="140" duration="150"/>
    <frame tileid="248" duration="150"/>
    <frame tileid="356" duration="150"/>
    <frame tileid="464" duration="150"/>
    <frame tileid="572" duration="150"/>
    <frame tileid="680" duration="150"/>
    <frame tileid="788" duration="150"/>
    <frame tileid="896" duration="150"/>
    <frame tileid="1004" duration="150"/>
    <frame tileid="1112" duration="150"/>
    <frame tileid="1220" duration="150"/>
    <frame tileid="1328" duration="150"/>
    <frame tileid="1436" duration="150"/>
    <frame tileid="1544" duration="150"/>
    <frame tileid="1652" duration="150"/>
   </animation>
  </tile>
  <tile id="33">
   <animation>
    <frame tileid="33" duration="150"/>
    <frame tileid="33" duration="150"/>
    <frame tileid="33" duration="150"/>
    <frame tileid="33" duration="150"/>
    <frame tileid="33" duration="150"/>
    <frame tileid="33" duration="150"/>
    <frame tileid="33" duration="150"/>
    <frame tileid="33" duration="150"/>
    <frame tileid="33" duration="150"/>
    <frame tileid="141" duration="150"/>
    <frame tileid="249" duration="150"/>
    <frame tileid="357" duration="150"/>
    <frame tileid="465" duration="150"/>
    <frame tileid="573" duration="150"/>
    <frame tileid="681" duration="150"/>
    <frame tileid="789" duration="150"/>
    <frame tileid="897" duration="150"/>
    <frame tileid="1005" duration="150"/>
    <frame tileid="1113" duration="150"/>
    <frame tileid="1221" duration="150"/>
    <frame tileid="1329" duration="150"/>
    <frame tileid="1437" duration="150"/>
    <frame tileid="1545" duration="150"/>
    <frame tileid="1653" duration="150"/>
   </animation>
  </tile>
  <tile id="34">
   <animation>
    <frame tileid="34" duration="150"/>
    <frame tileid="34" duration="150"/>
    <frame tileid="34" duration="150"/>
    <frame tileid="34" duration="150"/>
    <frame tileid="34" duration="150"/>
    <frame tileid="34" duration="150"/>
    <frame tileid="34" duration="150"/>
    <frame tileid="34" duration="150"/>
    <frame tileid="34" duration="150"/>
    <frame tileid="142" duration="150"/>
    <frame tileid="250" duration="150"/>
    <frame tileid="358" duration="150"/>
    <frame tileid="466" duration="150"/>
    <frame tileid="574" duration="150"/>
    <frame tileid="682" duration="150"/>
    <frame tileid="790" duration="150"/>
    <frame tileid="898" duration="150"/>
    <frame tileid="1006" duration="150"/>
    <frame tileid="1114" duration="150"/>
    <frame tileid="1222" duration="150"/>
    <frame tileid="1330" duration="150"/>
    <frame tileid="1438" duration="150"/>
    <frame tileid="1546" duration="150"/>
    <frame tileid="1654" duration="150"/>
   </animation>
  </tile>
  <tile id="35">
   <animation>
    <frame tileid="35" duration="150"/>
    <frame tileid="35" duration="150"/>
    <frame tileid="35" duration="150"/>
    <frame tileid="35" duration="150"/>
    <frame tileid="35" duration="150"/>
    <frame tileid="35" duration="150"/>
    <frame tileid="35" duration="150"/>
    <frame tileid="35" duration="150"/>
    <frame tileid="35" duration="150"/>
    <frame tileid="143" duration="150"/>
    <frame tileid="251" duration="150"/>
    <frame tileid="359" duration="150"/>
    <frame tileid="467" duration="150"/>
    <frame tileid="575" duration="150"/>
    <frame tileid="683" duration="150"/>
    <frame tileid="791" duration="150"/>
    <frame tileid="899" duration="150"/>
    <frame tileid="1007" duration="150"/>
    <frame tileid="1115" duration="150"/>
    <frame tileid="1223" duration="150"/>
    <frame tileid="1331" duration="150"/>
    <frame tileid="1439" duration="150"/>
    <frame tileid="1547" duration="150"/>
    <frame tileid="1655" duration="150"/>
   </animation>
  </tile>
  <tile id="36">
   <animation>
    <frame tileid="144" duration="150"/>
    <frame tileid="252" duration="150"/>
    <frame tileid="360" duration="150"/>
    <frame tileid="468" duration="150"/>
    <frame tileid="576" duration="150"/>
    <frame tileid="684" duration="150"/>
    <frame tileid="792" duration="150"/>
    <frame tileid="900" duration="150"/>
    <frame tileid="1008" duration="150"/>
    <frame tileid="1116" duration="150"/>
    <frame tileid="1224" duration="150"/>
    <frame tileid="1332" duration="150"/>
    <frame tileid="1440" duration="150"/>
    <frame tileid="1548" duration="150"/>
    <frame tileid="1656" duration="150"/>
    <frame tileid="36" duration="150"/>
    <frame tileid="36" duration="150"/>
    <frame tileid="36" duration="150"/>
    <frame tileid="36" duration="150"/>
    <frame tileid="36" duration="150"/>
    <frame tileid="36" duration="150"/>
    <frame tileid="36" duration="150"/>
    <frame tileid="36" duration="150"/>
    <frame tileid="36" duration="150"/>
   </animation>
  </tile>
  <tile id="37">
   <animation>
    <frame tileid="145" duration="150"/>
    <frame tileid="253" duration="150"/>
    <frame tileid="361" duration="150"/>
    <frame tileid="469" duration="150"/>
    <frame tileid="577" duration="150"/>
    <frame tileid="685" duration="150"/>
    <frame tileid="793" duration="150"/>
    <frame tileid="901" duration="150"/>
    <frame tileid="1009" duration="150"/>
    <frame tileid="1117" duration="150"/>
    <frame tileid="1225" duration="150"/>
    <frame tileid="1333" duration="150"/>
    <frame tileid="1441" duration="150"/>
    <frame tileid="1549" duration="150"/>
    <frame tileid="1657" duration="150"/>
    <frame tileid="37" duration="150"/>
    <frame tileid="37" duration="150"/>
    <frame tileid="37" duration="150"/>
    <frame tileid="37" duration="150"/>
    <frame tileid="37" duration="150"/>
    <frame tileid="37" duration="150"/>
    <frame tileid="37" duration="150"/>
    <frame tileid="37" duration="150"/>
    <frame tileid="37" duration="150"/>
   </animation>
  </tile>
  <tile id="38">
   <animation>
    <frame tileid="146" duration="150"/>
    <frame tileid="254" duration="150"/>
    <frame tileid="362" duration="150"/>
    <frame tileid="470" duration="150"/>
    <frame tileid="578" duration="150"/>
    <frame tileid="686" duration="150"/>
    <frame tileid="794" duration="150"/>
    <frame tileid="902" duration="150"/>
    <frame tileid="1010" duration="150"/>
    <frame tileid="1118" duration="150"/>
    <frame tileid="1226" duration="150"/>
    <frame tileid="1334" duration="150"/>
    <frame tileid="1442" duration="150"/>
    <frame tileid="1550" duration="150"/>
    <frame tileid="1658" duration="150"/>
    <frame tileid="38" duration="150"/>
    <frame tileid="38" duration="150"/>
    <frame tileid="38" duration="150"/>
    <frame tileid="38" duration="150"/>
    <frame tileid="38" duration="150"/>
    <frame tileid="38" duration="150"/>
    <frame tileid="38" duration="150"/>
    <frame tileid="38" duration="150"/>
    <frame tileid="38" duration="150"/>
   </animation>
  </tile>
  <tile id="39">
   <animation>
    <frame tileid="147" duration="150"/>
    <frame tileid="255" duration="150"/>
    <frame tileid="363" duration="150"/>
    <frame tileid="471" duration="150"/>
    <frame tileid="579" duration="150"/>
    <frame tileid="687" duration="150"/>
    <frame tileid="795" duration="150"/>
    <frame tileid="903" duration="150"/>
    <frame tileid="1011" duration="150"/>
    <frame tileid="1119" duration="150"/>
    <frame tileid="1227" duration="150"/>
    <frame tileid="1335" duration="150"/>
    <frame tileid="1443" duration="150"/>
    <frame tileid="1551" duration="150"/>
    <frame tileid="1659" duration="150"/>
    <frame tileid="39" duration="150"/>
    <frame tileid="39" duration="150"/>
    <frame tileid="39" duration="150"/>
    <frame tileid="39" duration="150"/>
    <frame tileid="39" duration="150"/>
    <frame tileid="39" duration="150"/>
    <frame tileid="39" duration="150"/>
    <frame tileid="39" duration="150"/>
    <frame tileid="39" duration="150"/>
   </animation>
  </tile>
  <tile id="40">
   <animation>
    <frame tileid="148" duration="150"/>
    <frame tileid="256" duration="150"/>
    <frame tileid="364" duration="150"/>
    <frame tileid="472" duration="150"/>
    <frame tileid="580" duration="150"/>
    <frame tileid="688" duration="150"/>
    <frame tileid="796" duration="150"/>
    <frame tileid="904" duration="150"/>
    <frame tileid="1012" duration="150"/>
    <frame tileid="1120" duration="150"/>
    <frame tileid="1228" duration="150"/>
    <frame tileid="1336" duration="150"/>
    <frame tileid="1444" duration="150"/>
    <frame tileid="1552" duration="150"/>
    <frame tileid="1660" duration="150"/>
    <frame tileid="40" duration="150"/>
    <frame tileid="40" duration="150"/>
    <frame tileid="40" duration="150"/>
    <frame tileid="40" duration="150"/>
    <frame tileid="40" duration="150"/>
    <frame tileid="40" duration="150"/>
    <frame tileid="40" duration="150"/>
    <frame tileid="40" duration="150"/>
    <frame tileid="40" duration="150"/>
   </animation>
  </tile>
  <tile id="41">
   <animation>
    <frame tileid="149" duration="150"/>
    <frame tileid="257" duration="150"/>
    <frame tileid="365" duration="150"/>
    <frame tileid="473" duration="150"/>
    <frame tileid="581" duration="150"/>
    <frame tileid="689" duration="150"/>
    <frame tileid="797" duration="150"/>
    <frame tileid="905" duration="150"/>
    <frame tileid="1013" duration="150"/>
    <frame tileid="1121" duration="150"/>
    <frame tileid="1229" duration="150"/>
    <frame tileid="1337" duration="150"/>
    <frame tileid="1445" duration="150"/>
    <frame tileid="1553" duration="150"/>
    <frame tileid="1661" duration="150"/>
    <frame tileid="41" duration="150"/>
    <frame tileid="41" duration="150"/>
    <frame tileid="41" duration="150"/>
    <frame tileid="41" duration="150"/>
    <frame tileid="41" duration="150"/>
    <frame tileid="41" duration="150"/>
    <frame tileid="41" duration="150"/>
    <frame tileid="41" duration="150"/>
    <frame tileid="41" duration="150"/>
   </animation>
  </tile>
  <tile id="42">
   <animation>
    <frame tileid="150" duration="150"/>
    <frame tileid="258" duration="150"/>
    <frame tileid="366" duration="150"/>
    <frame tileid="474" duration="150"/>
    <frame tileid="582" duration="150"/>
    <frame tileid="690" duration="150"/>
    <frame tileid="798" duration="150"/>
    <frame tileid="906" duration="150"/>
    <frame tileid="1014" duration="150"/>
    <frame tileid="1122" duration="150"/>
    <frame tileid="1230" duration="150"/>
    <frame tileid="1338" duration="150"/>
    <frame tileid="1446" duration="150"/>
    <frame tileid="1554" duration="150"/>
    <frame tileid="1662" duration="150"/>
    <frame tileid="42" duration="150"/>
    <frame tileid="42" duration="150"/>
    <frame tileid="42" duration="150"/>
    <frame tileid="42" duration="150"/>
    <frame tileid="42" duration="150"/>
    <frame tileid="42" duration="150"/>
    <frame tileid="42" duration="150"/>
    <frame tileid="42" duration="150"/>
    <frame tileid="42" duration="150"/>
   </animation>
  </tile>
  <tile id="43">
   <animation>
    <frame tileid="151" duration="150"/>
    <frame tileid="259" duration="150"/>
    <frame tileid="367" duration="150"/>
    <frame tileid="475" duration="150"/>
    <frame tileid="583" duration="150"/>
    <frame tileid="691" duration="150"/>
    <frame tileid="799" duration="150"/>
    <frame tileid="907" duration="150"/>
    <frame tileid="1015" duration="150"/>
    <frame tileid="1123" duration="150"/>
    <frame tileid="1231" duration="150"/>
    <frame tileid="1339" duration="150"/>
    <frame tileid="1447" duration="150"/>
    <frame tileid="1555" duration="150"/>
    <frame tileid="1663" duration="150"/>
    <frame tileid="43" duration="150"/>
    <frame tileid="43" duration="150"/>
    <frame tileid="43" duration="150"/>
    <frame tileid="43" duration="150"/>
    <frame tileid="43" duration="150"/>
    <frame tileid="43" duration="150"/>
    <frame tileid="43" duration="150"/>
    <frame tileid="43" duration="150"/>
    <frame tileid="43" duration="150"/>
   </animation>
  </tile>
  <tile id="44">
   <animation>
    <frame tileid="152" duration="150"/>
    <frame tileid="260" duration="150"/>
    <frame tileid="368" duration="150"/>
    <frame tileid="476" duration="150"/>
    <frame tileid="584" duration="150"/>
    <frame tileid="692" duration="150"/>
    <frame tileid="800" duration="150"/>
    <frame tileid="908" duration="150"/>
    <frame tileid="1016" duration="150"/>
    <frame tileid="1124" duration="150"/>
    <frame tileid="1232" duration="150"/>
    <frame tileid="1340" duration="150"/>
    <frame tileid="1448" duration="150"/>
    <frame tileid="1556" duration="150"/>
    <frame tileid="1664" duration="150"/>
    <frame tileid="44" duration="150"/>
    <frame tileid="44" duration="150"/>
    <frame tileid="44" duration="150"/>
    <frame tileid="44" duration="150"/>
    <frame tileid="44" duration="150"/>
    <frame tileid="44" duration="150"/>
    <frame tileid="44" duration="150"/>
    <frame tileid="44" duration="150"/>
    <frame tileid="44" duration="150"/>
   </animation>
  </tile>
  <tile id="45">
   <animation>
    <frame tileid="45" duration="150"/>
    <frame tileid="45" duration="150"/>
    <frame tileid="45" duration="150"/>
    <frame tileid="45" duration="150"/>
    <frame tileid="153" duration="150"/>
    <frame tileid="261" duration="150"/>
    <frame tileid="369" duration="150"/>
    <frame tileid="477" duration="150"/>
    <frame tileid="585" duration="150"/>
    <frame tileid="693" duration="150"/>
    <frame tileid="801" duration="150"/>
    <frame tileid="909" duration="150"/>
    <frame tileid="1017" duration="150"/>
    <frame tileid="1125" duration="150"/>
    <frame tileid="1233" duration="150"/>
    <frame tileid="1341" duration="150"/>
    <frame tileid="1449" duration="150"/>
    <frame tileid="1557" duration="150"/>
    <frame tileid="1665" duration="150"/>
    <frame tileid="45" duration="150"/>
    <frame tileid="45" duration="150"/>
    <frame tileid="45" duration="150"/>
    <frame tileid="45" duration="150"/>
    <frame tileid="45" duration="150"/>
   </animation>
  </tile>
  <tile id="46">
   <animation>
    <frame tileid="46" duration="150"/>
    <frame tileid="46" duration="150"/>
    <frame tileid="46" duration="150"/>
    <frame tileid="46" duration="150"/>
    <frame tileid="154" duration="150"/>
    <frame tileid="262" duration="150"/>
    <frame tileid="370" duration="150"/>
    <frame tileid="478" duration="150"/>
    <frame tileid="586" duration="150"/>
    <frame tileid="694" duration="150"/>
    <frame tileid="802" duration="150"/>
    <frame tileid="910" duration="150"/>
    <frame tileid="1018" duration="150"/>
    <frame tileid="1126" duration="150"/>
    <frame tileid="1234" duration="150"/>
    <frame tileid="1342" duration="150"/>
    <frame tileid="1450" duration="150"/>
    <frame tileid="1558" duration="150"/>
    <frame tileid="1666" duration="150"/>
    <frame tileid="46" duration="150"/>
    <frame tileid="46" duration="150"/>
    <frame tileid="46" duration="150"/>
    <frame tileid="46" duration="150"/>
    <frame tileid="46" duration="150"/>
   </animation>
  </tile>
  <tile id="47">
   <animation>
    <frame tileid="47" duration="150"/>
    <frame tileid="47" duration="150"/>
    <frame tileid="47" duration="150"/>
    <frame tileid="47" duration="150"/>
    <frame tileid="155" duration="150"/>
    <frame tileid="263" duration="150"/>
    <frame tileid="371" duration="150"/>
    <frame tileid="479" duration="150"/>
    <frame tileid="587" duration="150"/>
    <frame tileid="695" duration="150"/>
    <frame tileid="803" duration="150"/>
    <frame tileid="911" duration="150"/>
    <frame tileid="1019" duration="150"/>
    <frame tileid="1127" duration="150"/>
    <frame tileid="1235" duration="150"/>
    <frame tileid="1343" duration="150"/>
    <frame tileid="1451" duration="150"/>
    <frame tileid="1559" duration="150"/>
    <frame tileid="1667" duration="150"/>
    <frame tileid="47" duration="150"/>
    <frame tileid="47" duration="150"/>
    <frame tileid="47" duration="150"/>
    <frame tileid="47" duration="150"/>
    <frame tileid="47" duration="150"/>
   </animation>
  </tile>
  <tile id="48">
   <animation>
    <frame tileid="48" duration="150"/>
    <frame tileid="48" duration="150"/>
    <frame tileid="48" duration="150"/>
    <frame tileid="48" duration="150"/>
    <frame tileid="156" duration="150"/>
    <frame tileid="264" duration="150"/>
    <frame tileid="372" duration="150"/>
    <frame tileid="480" duration="150"/>
    <frame tileid="588" duration="150"/>
    <frame tileid="696" duration="150"/>
    <frame tileid="804" duration="150"/>
    <frame tileid="912" duration="150"/>
    <frame tileid="1020" duration="150"/>
    <frame tileid="1128" duration="150"/>
    <frame tileid="1236" duration="150"/>
    <frame tileid="1344" duration="150"/>
    <frame tileid="1452" duration="150"/>
    <frame tileid="1560" duration="150"/>
    <frame tileid="1668" duration="150"/>
    <frame tileid="48" duration="150"/>
    <frame tileid="48" duration="150"/>
    <frame tileid="48" duration="150"/>
    <frame tileid="48" duration="150"/>
    <frame tileid="48" duration="150"/>
   </animation>
  </tile>
  <tile id="49">
   <animation>
    <frame tileid="49" duration="150"/>
    <frame tileid="49" duration="150"/>
    <frame tileid="49" duration="150"/>
    <frame tileid="49" duration="150"/>
    <frame tileid="157" duration="150"/>
    <frame tileid="265" duration="150"/>
    <frame tileid="373" duration="150"/>
    <frame tileid="481" duration="150"/>
    <frame tileid="589" duration="150"/>
    <frame tileid="697" duration="150"/>
    <frame tileid="805" duration="150"/>
    <frame tileid="913" duration="150"/>
    <frame tileid="1021" duration="150"/>
    <frame tileid="1129" duration="150"/>
    <frame tileid="1237" duration="150"/>
    <frame tileid="1345" duration="150"/>
    <frame tileid="1453" duration="150"/>
    <frame tileid="1561" duration="150"/>
    <frame tileid="1669" duration="150"/>
    <frame tileid="49" duration="150"/>
    <frame tileid="49" duration="150"/>
    <frame tileid="49" duration="150"/>
    <frame tileid="49" duration="150"/>
    <frame tileid="49" duration="150"/>
   </animation>
  </tile>
  <tile id="50">
   <animation>
    <frame tileid="50" duration="150"/>
    <frame tileid="50" duration="150"/>
    <frame tileid="50" duration="150"/>
    <frame tileid="50" duration="150"/>
    <frame tileid="158" duration="150"/>
    <frame tileid="266" duration="150"/>
    <frame tileid="374" duration="150"/>
    <frame tileid="482" duration="150"/>
    <frame tileid="590" duration="150"/>
    <frame tileid="698" duration="150"/>
    <frame tileid="806" duration="150"/>
    <frame tileid="914" duration="150"/>
    <frame tileid="1022" duration="150"/>
    <frame tileid="1130" duration="150"/>
    <frame tileid="1238" duration="150"/>
    <frame tileid="1346" duration="150"/>
    <frame tileid="1454" duration="150"/>
    <frame tileid="1562" duration="150"/>
    <frame tileid="1670" duration="150"/>
    <frame tileid="50" duration="150"/>
    <frame tileid="50" duration="150"/>
    <frame tileid="50" duration="150"/>
    <frame tileid="50" duration="150"/>
    <frame tileid="50" duration="150"/>
   </animation>
  </tile>
  <tile id="51">
   <animation>
    <frame tileid="51" duration="150"/>
    <frame tileid="51" duration="150"/>
    <frame tileid="51" duration="150"/>
    <frame tileid="51" duration="150"/>
    <frame tileid="159" duration="150"/>
    <frame tileid="267" duration="150"/>
    <frame tileid="375" duration="150"/>
    <frame tileid="483" duration="150"/>
    <frame tileid="591" duration="150"/>
    <frame tileid="699" duration="150"/>
    <frame tileid="807" duration="150"/>
    <frame tileid="915" duration="150"/>
    <frame tileid="1023" duration="150"/>
    <frame tileid="1131" duration="150"/>
    <frame tileid="1239" duration="150"/>
    <frame tileid="1347" duration="150"/>
    <frame tileid="1455" duration="150"/>
    <frame tileid="1563" duration="150"/>
    <frame tileid="1671" duration="150"/>
    <frame tileid="51" duration="150"/>
    <frame tileid="51" duration="150"/>
    <frame tileid="51" duration="150"/>
    <frame tileid="51" duration="150"/>
    <frame tileid="51" duration="150"/>
   </animation>
  </tile>
  <tile id="52">
   <animation>
    <frame tileid="52" duration="150"/>
    <frame tileid="52" duration="150"/>
    <frame tileid="52" duration="150"/>
    <frame tileid="52" duration="150"/>
    <frame tileid="160" duration="150"/>
    <frame tileid="268" duration="150"/>
    <frame tileid="376" duration="150"/>
    <frame tileid="484" duration="150"/>
    <frame tileid="592" duration="150"/>
    <frame tileid="700" duration="150"/>
    <frame tileid="808" duration="150"/>
    <frame tileid="916" duration="150"/>
    <frame tileid="1024" duration="150"/>
    <frame tileid="1132" duration="150"/>
    <frame tileid="1240" duration="150"/>
    <frame tileid="1348" duration="150"/>
    <frame tileid="1456" duration="150"/>
    <frame tileid="1564" duration="150"/>
    <frame tileid="1672" duration="150"/>
    <frame tileid="52" duration="150"/>
    <frame tileid="52" duration="150"/>
    <frame tileid="52" duration="150"/>
    <frame tileid="52" duration="150"/>
    <frame tileid="52" duration="150"/>
   </animation>
  </tile>
  <tile id="53">
   <animation>
    <frame tileid="53" duration="150"/>
    <frame tileid="53" duration="150"/>
    <frame tileid="53" duration="150"/>
    <frame tileid="53" duration="150"/>
    <frame tileid="161" duration="150"/>
    <frame tileid="269" duration="150"/>
    <frame tileid="377" duration="150"/>
    <frame tileid="485" duration="150"/>
    <frame tileid="593" duration="150"/>
    <frame tileid="701" duration="150"/>
    <frame tileid="809" duration="150"/>
    <frame tileid="917" duration="150"/>
    <frame tileid="1025" duration="150"/>
    <frame tileid="1133" duration="150"/>
    <frame tileid="1241" duration="150"/>
    <frame tileid="1349" duration="150"/>
    <frame tileid="1457" duration="150"/>
    <frame tileid="1565" duration="150"/>
    <frame tileid="1673" duration="150"/>
    <frame tileid="53" duration="150"/>
    <frame tileid="53" duration="150"/>
    <frame tileid="53" duration="150"/>
    <frame tileid="53" duration="150"/>
    <frame tileid="53" duration="150"/>
   </animation>
  </tile>
  <tile id="54">
   <animation>
    <frame tileid="54" duration="150"/>
    <frame tileid="54" duration="150"/>
    <frame tileid="54" duration="150"/>
    <frame tileid="54" duration="150"/>
    <frame tileid="54" duration="150"/>
    <frame tileid="54" duration="150"/>
    <frame tileid="54" duration="150"/>
    <frame tileid="54" duration="150"/>
    <frame tileid="54" duration="150"/>
    <frame tileid="162" duration="150"/>
    <frame tileid="270" duration="150"/>
    <frame tileid="378" duration="150"/>
    <frame tileid="486" duration="150"/>
    <frame tileid="567" duration="150"/>
    <frame tileid="702" duration="150"/>
    <frame tileid="810" duration="150"/>
    <frame tileid="918" duration="150"/>
    <frame tileid="1026" duration="150"/>
    <frame tileid="1134" duration="150"/>
    <frame tileid="1242" duration="150"/>
    <frame tileid="1350" duration="150"/>
    <frame tileid="1458" duration="150"/>
    <frame tileid="1566" duration="150"/>
    <frame tileid="1674" duration="150"/>
   </animation>
  </tile>
  <tile id="55">
   <animation>
    <frame tileid="55" duration="150"/>
    <frame tileid="55" duration="150"/>
    <frame tileid="55" duration="150"/>
    <frame tileid="55" duration="150"/>
    <frame tileid="55" duration="150"/>
    <frame tileid="55" duration="150"/>
    <frame tileid="55" duration="150"/>
    <frame tileid="55" duration="150"/>
    <frame tileid="55" duration="150"/>
    <frame tileid="163" duration="150"/>
    <frame tileid="271" duration="150"/>
    <frame tileid="379" duration="150"/>
    <frame tileid="487" duration="150"/>
    <frame tileid="595" duration="150"/>
    <frame tileid="703" duration="150"/>
    <frame tileid="811" duration="150"/>
    <frame tileid="919" duration="150"/>
    <frame tileid="1027" duration="150"/>
    <frame tileid="1135" duration="150"/>
    <frame tileid="1243" duration="150"/>
    <frame tileid="1351" duration="150"/>
    <frame tileid="1459" duration="150"/>
    <frame tileid="1567" duration="150"/>
    <frame tileid="1675" duration="150"/>
   </animation>
  </tile>
  <tile id="56">
   <animation>
    <frame tileid="56" duration="150"/>
    <frame tileid="56" duration="150"/>
    <frame tileid="56" duration="150"/>
    <frame tileid="56" duration="150"/>
    <frame tileid="56" duration="150"/>
    <frame tileid="56" duration="150"/>
    <frame tileid="56" duration="150"/>
    <frame tileid="56" duration="150"/>
    <frame tileid="56" duration="150"/>
    <frame tileid="164" duration="150"/>
    <frame tileid="272" duration="150"/>
    <frame tileid="380" duration="150"/>
    <frame tileid="488" duration="150"/>
    <frame tileid="596" duration="150"/>
    <frame tileid="704" duration="150"/>
    <frame tileid="812" duration="150"/>
    <frame tileid="920" duration="150"/>
    <frame tileid="1028" duration="150"/>
    <frame tileid="1136" duration="150"/>
    <frame tileid="1244" duration="150"/>
    <frame tileid="1352" duration="150"/>
    <frame tileid="1460" duration="150"/>
    <frame tileid="1568" duration="150"/>
    <frame tileid="1676" duration="150"/>
   </animation>
  </tile>
  <tile id="57">
   <animation>
    <frame tileid="57" duration="150"/>
    <frame tileid="57" duration="150"/>
    <frame tileid="57" duration="150"/>
    <frame tileid="57" duration="150"/>
    <frame tileid="57" duration="150"/>
    <frame tileid="57" duration="150"/>
    <frame tileid="57" duration="150"/>
    <frame tileid="57" duration="150"/>
    <frame tileid="57" duration="150"/>
    <frame tileid="165" duration="150"/>
    <frame tileid="273" duration="150"/>
    <frame tileid="381" duration="150"/>
    <frame tileid="489" duration="150"/>
    <frame tileid="597" duration="150"/>
    <frame tileid="705" duration="150"/>
    <frame tileid="813" duration="150"/>
    <frame tileid="921" duration="150"/>
    <frame tileid="1029" duration="150"/>
    <frame tileid="1137" duration="150"/>
    <frame tileid="1245" duration="150"/>
    <frame tileid="1353" duration="150"/>
    <frame tileid="1461" duration="150"/>
    <frame tileid="1569" duration="150"/>
    <frame tileid="1677" duration="150"/>
   </animation>
  </tile>
  <tile id="58">
   <animation>
    <frame tileid="58" duration="150"/>
    <frame tileid="58" duration="150"/>
    <frame tileid="58" duration="150"/>
    <frame tileid="58" duration="150"/>
    <frame tileid="58" duration="150"/>
    <frame tileid="58" duration="150"/>
    <frame tileid="58" duration="150"/>
    <frame tileid="58" duration="150"/>
    <frame tileid="58" duration="150"/>
    <frame tileid="166" duration="150"/>
    <frame tileid="274" duration="150"/>
    <frame tileid="382" duration="150"/>
    <frame tileid="490" duration="150"/>
    <frame tileid="598" duration="150"/>
    <frame tileid="706" duration="150"/>
    <frame tileid="814" duration="150"/>
    <frame tileid="922" duration="150"/>
    <frame tileid="1030" duration="150"/>
    <frame tileid="1138" duration="150"/>
    <frame tileid="1246" duration="150"/>
    <frame tileid="1354" duration="150"/>
    <frame tileid="1462" duration="150"/>
    <frame tileid="1570" duration="150"/>
    <frame tileid="1678" duration="150"/>
   </animation>
  </tile>
  <tile id="59">
   <animation>
    <frame tileid="59" duration="150"/>
    <frame tileid="59" duration="150"/>
    <frame tileid="59" duration="150"/>
    <frame tileid="59" duration="150"/>
    <frame tileid="59" duration="150"/>
    <frame tileid="59" duration="150"/>
    <frame tileid="59" duration="150"/>
    <frame tileid="59" duration="150"/>
    <frame tileid="59" duration="150"/>
    <frame tileid="167" duration="150"/>
    <frame tileid="275" duration="150"/>
    <frame tileid="383" duration="150"/>
    <frame tileid="491" duration="150"/>
    <frame tileid="599" duration="150"/>
    <frame tileid="707" duration="150"/>
    <frame tileid="815" duration="150"/>
    <frame tileid="923" duration="150"/>
    <frame tileid="1031" duration="150"/>
    <frame tileid="1139" duration="150"/>
    <frame tileid="1247" duration="150"/>
    <frame tileid="1355" duration="150"/>
    <frame tileid="1463" duration="150"/>
    <frame tileid="1571" duration="150"/>
    <frame tileid="1679" duration="150"/>
   </animation>
  </tile>
  <tile id="60">
   <animation>
    <frame tileid="59" duration="150"/>
    <frame tileid="59" duration="150"/>
    <frame tileid="59" duration="150"/>
    <frame tileid="59" duration="150"/>
    <frame tileid="59" duration="150"/>
    <frame tileid="59" duration="150"/>
    <frame tileid="59" duration="150"/>
    <frame tileid="59" duration="150"/>
    <frame tileid="60" duration="150"/>
    <frame tileid="168" duration="150"/>
    <frame tileid="276" duration="150"/>
    <frame tileid="384" duration="150"/>
    <frame tileid="492" duration="150"/>
    <frame tileid="600" duration="150"/>
    <frame tileid="708" duration="150"/>
    <frame tileid="816" duration="150"/>
    <frame tileid="924" duration="150"/>
    <frame tileid="1032" duration="150"/>
    <frame tileid="1140" duration="150"/>
    <frame tileid="1248" duration="150"/>
    <frame tileid="1356" duration="150"/>
    <frame tileid="1464" duration="150"/>
    <frame tileid="1572" duration="150"/>
    <frame tileid="1680" duration="150"/>
   </animation>
  </tile>
  <tile id="61">
   <animation>
    <frame tileid="61" duration="150"/>
    <frame tileid="61" duration="150"/>
    <frame tileid="61" duration="150"/>
    <frame tileid="61" duration="150"/>
    <frame tileid="61" duration="150"/>
    <frame tileid="61" duration="150"/>
    <frame tileid="61" duration="150"/>
    <frame tileid="61" duration="150"/>
    <frame tileid="61" duration="150"/>
    <frame tileid="169" duration="150"/>
    <frame tileid="277" duration="150"/>
    <frame tileid="385" duration="150"/>
    <frame tileid="493" duration="150"/>
    <frame tileid="601" duration="150"/>
    <frame tileid="709" duration="150"/>
    <frame tileid="817" duration="150"/>
    <frame tileid="925" duration="150"/>
    <frame tileid="1033" duration="150"/>
    <frame tileid="1141" duration="150"/>
    <frame tileid="1249" duration="150"/>
    <frame tileid="1357" duration="150"/>
    <frame tileid="1465" duration="150"/>
    <frame tileid="1573" duration="150"/>
    <frame tileid="1681" duration="150"/>
   </animation>
  </tile>
  <tile id="62">
   <animation>
    <frame tileid="62" duration="150"/>
    <frame tileid="62" duration="150"/>
    <frame tileid="62" duration="150"/>
    <frame tileid="62" duration="150"/>
    <frame tileid="62" duration="150"/>
    <frame tileid="62" duration="150"/>
    <frame tileid="62" duration="150"/>
    <frame tileid="62" duration="150"/>
    <frame tileid="62" duration="150"/>
    <frame tileid="170" duration="150"/>
    <frame tileid="278" duration="150"/>
    <frame tileid="386" duration="150"/>
    <frame tileid="494" duration="150"/>
    <frame tileid="602" duration="150"/>
    <frame tileid="710" duration="150"/>
    <frame tileid="818" duration="150"/>
    <frame tileid="926" duration="150"/>
    <frame tileid="1034" duration="150"/>
    <frame tileid="1142" duration="150"/>
    <frame tileid="1250" duration="150"/>
    <frame tileid="1358" duration="150"/>
    <frame tileid="1466" duration="150"/>
    <frame tileid="1574" duration="150"/>
    <frame tileid="1682" duration="150"/>
   </animation>
  </tile>
  <tile id="63">
   <animation>
    <frame tileid="171" duration="150"/>
    <frame tileid="279" duration="150"/>
    <frame tileid="387" duration="150"/>
    <frame tileid="495" duration="150"/>
    <frame tileid="603" duration="150"/>
    <frame tileid="711" duration="150"/>
    <frame tileid="819" duration="150"/>
    <frame tileid="927" duration="150"/>
    <frame tileid="1035" duration="150"/>
    <frame tileid="1143" duration="150"/>
    <frame tileid="1251" duration="150"/>
    <frame tileid="1359" duration="150"/>
    <frame tileid="1467" duration="150"/>
    <frame tileid="1575" duration="150"/>
    <frame tileid="1683" duration="150"/>
    <frame tileid="63" duration="150"/>
    <frame tileid="63" duration="150"/>
    <frame tileid="63" duration="150"/>
    <frame tileid="63" duration="150"/>
    <frame tileid="63" duration="150"/>
    <frame tileid="63" duration="150"/>
    <frame tileid="63" duration="150"/>
    <frame tileid="63" duration="150"/>
    <frame tileid="63" duration="150"/>
   </animation>
  </tile>
  <tile id="64">
   <animation>
    <frame tileid="172" duration="150"/>
    <frame tileid="280" duration="150"/>
    <frame tileid="388" duration="150"/>
    <frame tileid="496" duration="150"/>
    <frame tileid="604" duration="150"/>
    <frame tileid="712" duration="150"/>
    <frame tileid="820" duration="150"/>
    <frame tileid="928" duration="150"/>
    <frame tileid="1036" duration="150"/>
    <frame tileid="1144" duration="150"/>
    <frame tileid="1252" duration="150"/>
    <frame tileid="1360" duration="150"/>
    <frame tileid="1468" duration="150"/>
    <frame tileid="1576" duration="150"/>
    <frame tileid="1684" duration="150"/>
    <frame tileid="64" duration="150"/>
    <frame tileid="64" duration="150"/>
    <frame tileid="64" duration="150"/>
    <frame tileid="64" duration="150"/>
    <frame tileid="64" duration="150"/>
    <frame tileid="64" duration="150"/>
    <frame tileid="64" duration="150"/>
    <frame tileid="64" duration="150"/>
    <frame tileid="64" duration="150"/>
   </animation>
  </tile>
  <tile id="65">
   <animation>
    <frame tileid="173" duration="150"/>
    <frame tileid="281" duration="150"/>
    <frame tileid="389" duration="150"/>
    <frame tileid="497" duration="150"/>
    <frame tileid="605" duration="150"/>
    <frame tileid="713" duration="150"/>
    <frame tileid="821" duration="150"/>
    <frame tileid="929" duration="150"/>
    <frame tileid="1037" duration="150"/>
    <frame tileid="1145" duration="150"/>
    <frame tileid="1253" duration="150"/>
    <frame tileid="1361" duration="150"/>
    <frame tileid="1469" duration="150"/>
    <frame tileid="1577" duration="150"/>
    <frame tileid="1685" duration="150"/>
    <frame tileid="65" duration="150"/>
    <frame tileid="65" duration="150"/>
    <frame tileid="65" duration="150"/>
    <frame tileid="65" duration="150"/>
    <frame tileid="65" duration="150"/>
    <frame tileid="65" duration="150"/>
    <frame tileid="65" duration="150"/>
    <frame tileid="65" duration="150"/>
    <frame tileid="65" duration="150"/>
   </animation>
  </tile>
  <tile id="66">
   <animation>
    <frame tileid="174" duration="150"/>
    <frame tileid="282" duration="150"/>
    <frame tileid="390" duration="150"/>
    <frame tileid="498" duration="150"/>
    <frame tileid="606" duration="150"/>
    <frame tileid="714" duration="150"/>
    <frame tileid="822" duration="150"/>
    <frame tileid="930" duration="150"/>
    <frame tileid="1038" duration="150"/>
    <frame tileid="1146" duration="150"/>
    <frame tileid="1254" duration="150"/>
    <frame tileid="1362" duration="150"/>
    <frame tileid="1470" duration="150"/>
    <frame tileid="1578" duration="150"/>
    <frame tileid="1686" duration="150"/>
    <frame tileid="66" duration="150"/>
    <frame tileid="66" duration="150"/>
    <frame tileid="66" duration="150"/>
    <frame tileid="66" duration="150"/>
    <frame tileid="66" duration="150"/>
    <frame tileid="66" duration="150"/>
    <frame tileid="66" duration="150"/>
    <frame tileid="66" duration="150"/>
    <frame tileid="66" duration="150"/>
   </animation>
  </tile>
  <tile id="67">
   <animation>
    <frame tileid="175" duration="150"/>
    <frame tileid="283" duration="150"/>
    <frame tileid="391" duration="150"/>
    <frame tileid="499" duration="150"/>
    <frame tileid="607" duration="150"/>
    <frame tileid="715" duration="150"/>
    <frame tileid="823" duration="150"/>
    <frame tileid="931" duration="150"/>
    <frame tileid="1039" duration="150"/>
    <frame tileid="1147" duration="150"/>
    <frame tileid="1255" duration="150"/>
    <frame tileid="1363" duration="150"/>
    <frame tileid="1471" duration="150"/>
    <frame tileid="1579" duration="150"/>
    <frame tileid="1687" duration="150"/>
    <frame tileid="67" duration="150"/>
    <frame tileid="67" duration="150"/>
    <frame tileid="67" duration="150"/>
    <frame tileid="67" duration="150"/>
    <frame tileid="67" duration="150"/>
    <frame tileid="67" duration="150"/>
    <frame tileid="67" duration="150"/>
    <frame tileid="67" duration="150"/>
    <frame tileid="67" duration="150"/>
   </animation>
  </tile>
  <tile id="68">
   <animation>
    <frame tileid="176" duration="150"/>
    <frame tileid="284" duration="150"/>
    <frame tileid="392" duration="150"/>
    <frame tileid="500" duration="150"/>
    <frame tileid="608" duration="150"/>
    <frame tileid="716" duration="150"/>
    <frame tileid="824" duration="150"/>
    <frame tileid="932" duration="150"/>
    <frame tileid="1040" duration="150"/>
    <frame tileid="1148" duration="150"/>
    <frame tileid="1256" duration="150"/>
    <frame tileid="1364" duration="150"/>
    <frame tileid="1472" duration="150"/>
    <frame tileid="1580" duration="150"/>
    <frame tileid="1688" duration="150"/>
    <frame tileid="68" duration="150"/>
    <frame tileid="68" duration="150"/>
    <frame tileid="68" duration="150"/>
    <frame tileid="68" duration="150"/>
    <frame tileid="68" duration="150"/>
    <frame tileid="68" duration="150"/>
    <frame tileid="68" duration="150"/>
    <frame tileid="68" duration="150"/>
    <frame tileid="68" duration="150"/>
   </animation>
  </tile>
  <tile id="69">
   <animation>
    <frame tileid="177" duration="150"/>
    <frame tileid="285" duration="150"/>
    <frame tileid="393" duration="150"/>
    <frame tileid="501" duration="150"/>
    <frame tileid="609" duration="150"/>
    <frame tileid="717" duration="150"/>
    <frame tileid="825" duration="150"/>
    <frame tileid="933" duration="150"/>
    <frame tileid="1041" duration="150"/>
    <frame tileid="1149" duration="150"/>
    <frame tileid="1257" duration="150"/>
    <frame tileid="1365" duration="150"/>
    <frame tileid="1473" duration="150"/>
    <frame tileid="1581" duration="150"/>
    <frame tileid="1689" duration="150"/>
    <frame tileid="69" duration="150"/>
    <frame tileid="69" duration="150"/>
    <frame tileid="69" duration="150"/>
    <frame tileid="69" duration="150"/>
    <frame tileid="69" duration="150"/>
    <frame tileid="69" duration="150"/>
    <frame tileid="69" duration="150"/>
    <frame tileid="69" duration="150"/>
    <frame tileid="69" duration="150"/>
   </animation>
  </tile>
  <tile id="70">
   <animation>
    <frame tileid="178" duration="150"/>
    <frame tileid="286" duration="150"/>
    <frame tileid="394" duration="150"/>
    <frame tileid="502" duration="150"/>
    <frame tileid="610" duration="150"/>
    <frame tileid="718" duration="150"/>
    <frame tileid="826" duration="150"/>
    <frame tileid="934" duration="150"/>
    <frame tileid="1042" duration="150"/>
    <frame tileid="1150" duration="150"/>
    <frame tileid="1258" duration="150"/>
    <frame tileid="1366" duration="150"/>
    <frame tileid="1474" duration="150"/>
    <frame tileid="1582" duration="150"/>
    <frame tileid="1690" duration="150"/>
    <frame tileid="70" duration="150"/>
    <frame tileid="70" duration="150"/>
    <frame tileid="70" duration="150"/>
    <frame tileid="70" duration="150"/>
    <frame tileid="70" duration="150"/>
    <frame tileid="70" duration="150"/>
    <frame tileid="70" duration="150"/>
    <frame tileid="70" duration="150"/>
    <frame tileid="70" duration="150"/>
   </animation>
  </tile>
  <tile id="71">
   <animation>
    <frame tileid="179" duration="150"/>
    <frame tileid="287" duration="150"/>
    <frame tileid="395" duration="150"/>
    <frame tileid="503" duration="150"/>
    <frame tileid="611" duration="150"/>
    <frame tileid="719" duration="150"/>
    <frame tileid="827" duration="150"/>
    <frame tileid="935" duration="150"/>
    <frame tileid="1043" duration="150"/>
    <frame tileid="1151" duration="150"/>
    <frame tileid="1259" duration="150"/>
    <frame tileid="1367" duration="150"/>
    <frame tileid="1475" duration="150"/>
    <frame tileid="1583" duration="150"/>
    <frame tileid="1691" duration="150"/>
    <frame tileid="71" duration="150"/>
    <frame tileid="71" duration="150"/>
    <frame tileid="71" duration="150"/>
    <frame tileid="71" duration="150"/>
    <frame tileid="71" duration="150"/>
    <frame tileid="71" duration="150"/>
    <frame tileid="71" duration="150"/>
    <frame tileid="71" duration="150"/>
    <frame tileid="71" duration="150"/>
   </animation>
  </tile>
  <tile id="72">
   <animation>
    <frame tileid="72" duration="150"/>
    <frame tileid="72" duration="150"/>
    <frame tileid="72" duration="150"/>
    <frame tileid="72" duration="150"/>
    <frame tileid="180" duration="150"/>
    <frame tileid="288" duration="150"/>
    <frame tileid="396" duration="150"/>
    <frame tileid="504" duration="150"/>
    <frame tileid="612" duration="150"/>
    <frame tileid="720" duration="150"/>
    <frame tileid="828" duration="150"/>
    <frame tileid="936" duration="150"/>
    <frame tileid="1044" duration="150"/>
    <frame tileid="1152" duration="150"/>
    <frame tileid="1260" duration="150"/>
    <frame tileid="1368" duration="150"/>
    <frame tileid="1476" duration="150"/>
    <frame tileid="1584" duration="150"/>
    <frame tileid="1692" duration="150"/>
    <frame tileid="72" duration="150"/>
    <frame tileid="72" duration="150"/>
    <frame tileid="72" duration="150"/>
    <frame tileid="72" duration="150"/>
    <frame tileid="72" duration="150"/>
   </animation>
  </tile>
  <tile id="73">
   <animation>
    <frame tileid="73" duration="150"/>
    <frame tileid="73" duration="150"/>
    <frame tileid="73" duration="150"/>
    <frame tileid="73" duration="150"/>
    <frame tileid="181" duration="150"/>
    <frame tileid="289" duration="150"/>
    <frame tileid="397" duration="150"/>
    <frame tileid="505" duration="150"/>
    <frame tileid="613" duration="150"/>
    <frame tileid="721" duration="150"/>
    <frame tileid="829" duration="150"/>
    <frame tileid="937" duration="150"/>
    <frame tileid="1045" duration="150"/>
    <frame tileid="1153" duration="150"/>
    <frame tileid="1261" duration="150"/>
    <frame tileid="1369" duration="150"/>
    <frame tileid="1477" duration="150"/>
    <frame tileid="1585" duration="150"/>
    <frame tileid="1693" duration="150"/>
    <frame tileid="73" duration="150"/>
    <frame tileid="73" duration="150"/>
    <frame tileid="73" duration="150"/>
    <frame tileid="73" duration="150"/>
    <frame tileid="73" duration="150"/>
   </animation>
  </tile>
  <tile id="74">
   <animation>
    <frame tileid="74" duration="150"/>
    <frame tileid="74" duration="150"/>
    <frame tileid="74" duration="150"/>
    <frame tileid="74" duration="150"/>
    <frame tileid="182" duration="150"/>
    <frame tileid="290" duration="150"/>
    <frame tileid="398" duration="150"/>
    <frame tileid="506" duration="150"/>
    <frame tileid="614" duration="150"/>
    <frame tileid="722" duration="150"/>
    <frame tileid="830" duration="150"/>
    <frame tileid="938" duration="150"/>
    <frame tileid="1046" duration="150"/>
    <frame tileid="1154" duration="150"/>
    <frame tileid="1262" duration="150"/>
    <frame tileid="1370" duration="150"/>
    <frame tileid="1478" duration="150"/>
    <frame tileid="1586" duration="150"/>
    <frame tileid="1694" duration="150"/>
    <frame tileid="74" duration="150"/>
    <frame tileid="74" duration="150"/>
    <frame tileid="74" duration="150"/>
    <frame tileid="74" duration="150"/>
    <frame tileid="74" duration="150"/>
   </animation>
  </tile>
  <tile id="75">
   <animation>
    <frame tileid="75" duration="150"/>
    <frame tileid="75" duration="150"/>
    <frame tileid="75" duration="150"/>
    <frame tileid="75" duration="150"/>
    <frame tileid="183" duration="150"/>
    <frame tileid="291" duration="150"/>
    <frame tileid="399" duration="150"/>
    <frame tileid="507" duration="150"/>
    <frame tileid="615" duration="150"/>
    <frame tileid="723" duration="150"/>
    <frame tileid="831" duration="150"/>
    <frame tileid="939" duration="150"/>
    <frame tileid="1047" duration="150"/>
    <frame tileid="1155" duration="150"/>
    <frame tileid="1263" duration="150"/>
    <frame tileid="1371" duration="150"/>
    <frame tileid="1479" duration="150"/>
    <frame tileid="1587" duration="150"/>
    <frame tileid="1695" duration="150"/>
    <frame tileid="75" duration="150"/>
    <frame tileid="75" duration="150"/>
    <frame tileid="75" duration="150"/>
    <frame tileid="75" duration="150"/>
    <frame tileid="75" duration="150"/>
   </animation>
  </tile>
  <tile id="76">
   <animation>
    <frame tileid="76" duration="150"/>
    <frame tileid="76" duration="150"/>
    <frame tileid="76" duration="150"/>
    <frame tileid="76" duration="150"/>
    <frame tileid="184" duration="150"/>
    <frame tileid="292" duration="150"/>
    <frame tileid="400" duration="150"/>
    <frame tileid="508" duration="150"/>
    <frame tileid="616" duration="150"/>
    <frame tileid="724" duration="150"/>
    <frame tileid="832" duration="150"/>
    <frame tileid="940" duration="150"/>
    <frame tileid="1048" duration="150"/>
    <frame tileid="1156" duration="150"/>
    <frame tileid="1264" duration="150"/>
    <frame tileid="1372" duration="150"/>
    <frame tileid="1480" duration="150"/>
    <frame tileid="1588" duration="150"/>
    <frame tileid="1696" duration="150"/>
    <frame tileid="76" duration="150"/>
    <frame tileid="76" duration="150"/>
    <frame tileid="76" duration="150"/>
    <frame tileid="76" duration="150"/>
    <frame tileid="76" duration="150"/>
   </animation>
  </tile>
  <tile id="77">
   <animation>
    <frame tileid="77" duration="150"/>
    <frame tileid="77" duration="150"/>
    <frame tileid="77" duration="150"/>
    <frame tileid="77" duration="150"/>
    <frame tileid="185" duration="150"/>
    <frame tileid="293" duration="150"/>
    <frame tileid="401" duration="150"/>
    <frame tileid="509" duration="150"/>
    <frame tileid="617" duration="150"/>
    <frame tileid="725" duration="150"/>
    <frame tileid="833" duration="150"/>
    <frame tileid="941" duration="150"/>
    <frame tileid="1049" duration="150"/>
    <frame tileid="1157" duration="150"/>
    <frame tileid="1265" duration="150"/>
    <frame tileid="1373" duration="150"/>
    <frame tileid="1481" duration="150"/>
    <frame tileid="1589" duration="150"/>
    <frame tileid="1697" duration="150"/>
    <frame tileid="77" duration="150"/>
    <frame tileid="77" duration="150"/>
    <frame tileid="77" duration="150"/>
    <frame tileid="77" duration="150"/>
    <frame tileid="77" duration="150"/>
   </animation>
  </tile>
  <tile id="78">
   <animation>
    <frame tileid="78" duration="150"/>
    <frame tileid="78" duration="150"/>
    <frame tileid="78" duration="150"/>
    <frame tileid="78" duration="150"/>
    <frame tileid="186" duration="150"/>
    <frame tileid="294" duration="150"/>
    <frame tileid="402" duration="150"/>
    <frame tileid="510" duration="150"/>
    <frame tileid="618" duration="150"/>
    <frame tileid="726" duration="150"/>
    <frame tileid="834" duration="150"/>
    <frame tileid="942" duration="150"/>
    <frame tileid="1050" duration="150"/>
    <frame tileid="1158" duration="150"/>
    <frame tileid="1266" duration="150"/>
    <frame tileid="1374" duration="150"/>
    <frame tileid="1482" duration="150"/>
    <frame tileid="1590" duration="150"/>
    <frame tileid="1698" duration="150"/>
    <frame tileid="78" duration="150"/>
    <frame tileid="78" duration="150"/>
    <frame tileid="78" duration="150"/>
    <frame tileid="78" duration="150"/>
    <frame tileid="78" duration="150"/>
   </animation>
  </tile>
  <tile id="79">
   <animation>
    <frame tileid="79" duration="150"/>
    <frame tileid="79" duration="150"/>
    <frame tileid="79" duration="150"/>
    <frame tileid="79" duration="150"/>
    <frame tileid="187" duration="150"/>
    <frame tileid="295" duration="150"/>
    <frame tileid="403" duration="150"/>
    <frame tileid="511" duration="150"/>
    <frame tileid="619" duration="150"/>
    <frame tileid="727" duration="150"/>
    <frame tileid="835" duration="150"/>
    <frame tileid="943" duration="150"/>
    <frame tileid="1051" duration="150"/>
    <frame tileid="1159" duration="150"/>
    <frame tileid="1267" duration="150"/>
    <frame tileid="1375" duration="150"/>
    <frame tileid="1483" duration="150"/>
    <frame tileid="1591" duration="150"/>
    <frame tileid="1699" duration="150"/>
    <frame tileid="79" duration="150"/>
    <frame tileid="79" duration="150"/>
    <frame tileid="79" duration="150"/>
    <frame tileid="79" duration="150"/>
    <frame tileid="79" duration="150"/>
   </animation>
  </tile>
  <tile id="80">
   <animation>
    <frame tileid="80" duration="150"/>
    <frame tileid="80" duration="150"/>
    <frame tileid="80" duration="150"/>
    <frame tileid="80" duration="150"/>
    <frame tileid="188" duration="150"/>
    <frame tileid="296" duration="150"/>
    <frame tileid="404" duration="150"/>
    <frame tileid="512" duration="150"/>
    <frame tileid="620" duration="150"/>
    <frame tileid="728" duration="150"/>
    <frame tileid="836" duration="150"/>
    <frame tileid="944" duration="150"/>
    <frame tileid="1052" duration="150"/>
    <frame tileid="1160" duration="150"/>
    <frame tileid="1268" duration="150"/>
    <frame tileid="1376" duration="150"/>
    <frame tileid="1484" duration="150"/>
    <frame tileid="1592" duration="150"/>
    <frame tileid="1700" duration="150"/>
    <frame tileid="80" duration="150"/>
    <frame tileid="80" duration="150"/>
    <frame tileid="80" duration="150"/>
    <frame tileid="80" duration="150"/>
    <frame tileid="80" duration="150"/>
   </animation>
  </tile>
  <tile id="81">
   <animation>
    <frame tileid="81" duration="150"/>
    <frame tileid="81" duration="150"/>
    <frame tileid="81" duration="150"/>
    <frame tileid="81" duration="150"/>
    <frame tileid="81" duration="150"/>
    <frame tileid="81" duration="150"/>
    <frame tileid="81" duration="150"/>
    <frame tileid="81" duration="150"/>
    <frame tileid="81" duration="150"/>
    <frame tileid="189" duration="150"/>
    <frame tileid="297" duration="150"/>
    <frame tileid="405" duration="150"/>
    <frame tileid="513" duration="150"/>
    <frame tileid="621" duration="150"/>
    <frame tileid="729" duration="150"/>
    <frame tileid="837" duration="150"/>
    <frame tileid="945" duration="150"/>
    <frame tileid="1053" duration="150"/>
    <frame tileid="1161" duration="150"/>
    <frame tileid="1269" duration="150"/>
    <frame tileid="1377" duration="150"/>
    <frame tileid="1485" duration="150"/>
    <frame tileid="1593" duration="150"/>
    <frame tileid="1701" duration="150"/>
   </animation>
  </tile>
  <tile id="82">
   <animation>
    <frame tileid="82" duration="150"/>
    <frame tileid="82" duration="150"/>
    <frame tileid="82" duration="150"/>
    <frame tileid="82" duration="150"/>
    <frame tileid="82" duration="150"/>
    <frame tileid="82" duration="150"/>
    <frame tileid="82" duration="150"/>
    <frame tileid="82" duration="150"/>
    <frame tileid="82" duration="150"/>
    <frame tileid="190" duration="150"/>
    <frame tileid="298" duration="150"/>
    <frame tileid="406" duration="150"/>
    <frame tileid="514" duration="150"/>
    <frame tileid="622" duration="150"/>
    <frame tileid="730" duration="150"/>
    <frame tileid="838" duration="150"/>
    <frame tileid="946" duration="150"/>
    <frame tileid="1054" duration="150"/>
    <frame tileid="1162" duration="150"/>
    <frame tileid="1270" duration="150"/>
    <frame tileid="1378" duration="150"/>
    <frame tileid="1486" duration="150"/>
    <frame tileid="1594" duration="150"/>
    <frame tileid="1702" duration="150"/>
   </animation>
  </tile>
  <tile id="83">
   <animation>
    <frame tileid="83" duration="150"/>
    <frame tileid="83" duration="150"/>
    <frame tileid="83" duration="150"/>
    <frame tileid="83" duration="150"/>
    <frame tileid="83" duration="150"/>
    <frame tileid="83" duration="150"/>
    <frame tileid="83" duration="150"/>
    <frame tileid="83" duration="150"/>
    <frame tileid="83" duration="150"/>
    <frame tileid="191" duration="150"/>
    <frame tileid="299" duration="150"/>
    <frame tileid="407" duration="150"/>
    <frame tileid="515" duration="150"/>
    <frame tileid="623" duration="150"/>
    <frame tileid="731" duration="150"/>
    <frame tileid="839" duration="150"/>
    <frame tileid="947" duration="150"/>
    <frame tileid="1055" duration="150"/>
    <frame tileid="1163" duration="150"/>
    <frame tileid="1271" duration="150"/>
    <frame tileid="1379" duration="150"/>
    <frame tileid="1487" duration="150"/>
    <frame tileid="1595" duration="150"/>
    <frame tileid="1703" duration="150"/>
   </animation>
  </tile>
  <tile id="84">
   <animation>
    <frame tileid="84" duration="150"/>
    <frame tileid="84" duration="150"/>
    <frame tileid="84" duration="150"/>
    <frame tileid="84" duration="150"/>
    <frame tileid="84" duration="150"/>
    <frame tileid="84" duration="150"/>
    <frame tileid="84" duration="150"/>
    <frame tileid="84" duration="150"/>
    <frame tileid="84" duration="150"/>
    <frame tileid="192" duration="150"/>
    <frame tileid="300" duration="150"/>
    <frame tileid="408" duration="150"/>
    <frame tileid="516" duration="150"/>
    <frame tileid="624" duration="150"/>
    <frame tileid="732" duration="150"/>
    <frame tileid="840" duration="150"/>
    <frame tileid="948" duration="150"/>
    <frame tileid="1056" duration="150"/>
    <frame tileid="1164" duration="150"/>
    <frame tileid="1272" duration="150"/>
    <frame tileid="1380" duration="150"/>
    <frame tileid="1488" duration="150"/>
    <frame tileid="1596" duration="150"/>
    <frame tileid="1704" duration="150"/>
   </animation>
  </tile>
  <tile id="85">
   <animation>
    <frame tileid="85" duration="150"/>
    <frame tileid="85" duration="150"/>
    <frame tileid="85" duration="150"/>
    <frame tileid="85" duration="150"/>
    <frame tileid="85" duration="150"/>
    <frame tileid="85" duration="150"/>
    <frame tileid="85" duration="150"/>
    <frame tileid="85" duration="150"/>
    <frame tileid="85" duration="150"/>
    <frame tileid="193" duration="150"/>
    <frame tileid="301" duration="150"/>
    <frame tileid="409" duration="150"/>
    <frame tileid="517" duration="150"/>
    <frame tileid="625" duration="150"/>
    <frame tileid="733" duration="150"/>
    <frame tileid="841" duration="150"/>
    <frame tileid="949" duration="150"/>
    <frame tileid="1057" duration="150"/>
    <frame tileid="1165" duration="150"/>
    <frame tileid="1273" duration="150"/>
    <frame tileid="1381" duration="150"/>
    <frame tileid="1489" duration="150"/>
    <frame tileid="1597" duration="150"/>
    <frame tileid="1705" duration="150"/>
   </animation>
  </tile>
  <tile id="86">
   <animation>
    <frame tileid="86" duration="150"/>
    <frame tileid="86" duration="150"/>
    <frame tileid="86" duration="150"/>
    <frame tileid="86" duration="150"/>
    <frame tileid="86" duration="150"/>
    <frame tileid="86" duration="150"/>
    <frame tileid="86" duration="150"/>
    <frame tileid="86" duration="150"/>
    <frame tileid="86" duration="150"/>
    <frame tileid="194" duration="150"/>
    <frame tileid="302" duration="150"/>
    <frame tileid="410" duration="150"/>
    <frame tileid="518" duration="150"/>
    <frame tileid="626" duration="150"/>
    <frame tileid="734" duration="150"/>
    <frame tileid="842" duration="150"/>
    <frame tileid="950" duration="150"/>
    <frame tileid="1058" duration="150"/>
    <frame tileid="1166" duration="150"/>
    <frame tileid="1274" duration="150"/>
    <frame tileid="1382" duration="150"/>
    <frame tileid="1490" duration="150"/>
    <frame tileid="1598" duration="150"/>
    <frame tileid="1706" duration="150"/>
   </animation>
  </tile>
  <tile id="87">
   <animation>
    <frame tileid="87" duration="150"/>
    <frame tileid="87" duration="150"/>
    <frame tileid="87" duration="150"/>
    <frame tileid="87" duration="150"/>
    <frame tileid="87" duration="150"/>
    <frame tileid="87" duration="150"/>
    <frame tileid="87" duration="150"/>
    <frame tileid="87" duration="150"/>
    <frame tileid="87" duration="150"/>
    <frame tileid="195" duration="150"/>
    <frame tileid="303" duration="150"/>
    <frame tileid="411" duration="150"/>
    <frame tileid="519" duration="150"/>
    <frame tileid="627" duration="150"/>
    <frame tileid="735" duration="150"/>
    <frame tileid="843" duration="150"/>
    <frame tileid="951" duration="150"/>
    <frame tileid="1059" duration="150"/>
    <frame tileid="1167" duration="150"/>
    <frame tileid="1275" duration="150"/>
    <frame tileid="1383" duration="150"/>
    <frame tileid="1491" duration="150"/>
    <frame tileid="1599" duration="150"/>
    <frame tileid="1707" duration="150"/>
   </animation>
  </tile>
  <tile id="88">
   <animation>
    <frame tileid="88" duration="150"/>
    <frame tileid="88" duration="150"/>
    <frame tileid="88" duration="150"/>
    <frame tileid="88" duration="150"/>
    <frame tileid="88" duration="150"/>
    <frame tileid="88" duration="150"/>
    <frame tileid="88" duration="150"/>
    <frame tileid="88" duration="150"/>
    <frame tileid="88" duration="150"/>
    <frame tileid="196" duration="150"/>
    <frame tileid="304" duration="150"/>
    <frame tileid="412" duration="150"/>
    <frame tileid="520" duration="150"/>
    <frame tileid="628" duration="150"/>
    <frame tileid="736" duration="150"/>
    <frame tileid="844" duration="150"/>
    <frame tileid="952" duration="150"/>
    <frame tileid="1060" duration="150"/>
    <frame tileid="1168" duration="150"/>
    <frame tileid="1276" duration="150"/>
    <frame tileid="1384" duration="150"/>
    <frame tileid="1492" duration="150"/>
    <frame tileid="1600" duration="150"/>
    <frame tileid="1708" duration="150"/>
   </animation>
  </tile>
  <tile id="89">
   <animation>
    <frame tileid="89" duration="150"/>
    <frame tileid="89" duration="150"/>
    <frame tileid="89" duration="150"/>
    <frame tileid="89" duration="150"/>
    <frame tileid="89" duration="150"/>
    <frame tileid="89" duration="150"/>
    <frame tileid="89" duration="150"/>
    <frame tileid="89" duration="150"/>
    <frame tileid="89" duration="150"/>
    <frame tileid="197" duration="150"/>
    <frame tileid="305" duration="150"/>
    <frame tileid="413" duration="150"/>
    <frame tileid="521" duration="150"/>
    <frame tileid="629" duration="150"/>
    <frame tileid="737" duration="150"/>
    <frame tileid="845" duration="150"/>
    <frame tileid="953" duration="150"/>
    <frame tileid="1061" duration="150"/>
    <frame tileid="1169" duration="150"/>
    <frame tileid="1277" duration="150"/>
    <frame tileid="1385" duration="150"/>
    <frame tileid="1493" duration="150"/>
    <frame tileid="1601" duration="150"/>
    <frame tileid="1709" duration="150"/>
   </animation>
  </tile>
  <tile id="90">
   <animation>
    <frame tileid="198" duration="150"/>
    <frame tileid="306" duration="150"/>
    <frame tileid="414" duration="150"/>
    <frame tileid="522" duration="150"/>
    <frame tileid="630" duration="150"/>
    <frame tileid="738" duration="150"/>
    <frame tileid="846" duration="150"/>
    <frame tileid="954" duration="150"/>
    <frame tileid="1062" duration="150"/>
    <frame tileid="1170" duration="150"/>
    <frame tileid="1278" duration="150"/>
    <frame tileid="1386" duration="150"/>
    <frame tileid="1494" duration="150"/>
    <frame tileid="1602" duration="150"/>
    <frame tileid="1710" duration="150"/>
    <frame tileid="90" duration="150"/>
    <frame tileid="90" duration="150"/>
    <frame tileid="90" duration="150"/>
    <frame tileid="90" duration="150"/>
    <frame tileid="90" duration="150"/>
    <frame tileid="90" duration="150"/>
    <frame tileid="90" duration="150"/>
    <frame tileid="90" duration="150"/>
    <frame tileid="90" duration="150"/>
   </animation>
  </tile>
  <tile id="91">
   <animation>
    <frame tileid="199" duration="150"/>
    <frame tileid="307" duration="150"/>
    <frame tileid="415" duration="150"/>
    <frame tileid="523" duration="150"/>
    <frame tileid="631" duration="150"/>
    <frame tileid="739" duration="150"/>
    <frame tileid="847" duration="150"/>
    <frame tileid="955" duration="150"/>
    <frame tileid="1063" duration="150"/>
    <frame tileid="1171" duration="150"/>
    <frame tileid="1279" duration="150"/>
    <frame tileid="1387" duration="150"/>
    <frame tileid="1495" duration="150"/>
    <frame tileid="1603" duration="150"/>
    <frame tileid="1711" duration="150"/>
    <frame tileid="91" duration="150"/>
    <frame tileid="91" duration="150"/>
    <frame tileid="91" duration="150"/>
    <frame tileid="91" duration="150"/>
    <frame tileid="91" duration="150"/>
    <frame tileid="91" duration="150"/>
    <frame tileid="91" duration="150"/>
    <frame tileid="91" duration="150"/>
    <frame tileid="91" duration="150"/>
   </animation>
  </tile>
  <tile id="92">
   <animation>
    <frame tileid="200" duration="150"/>
    <frame tileid="308" duration="150"/>
    <frame tileid="416" duration="150"/>
    <frame tileid="524" duration="150"/>
    <frame tileid="632" duration="150"/>
    <frame tileid="740" duration="150"/>
    <frame tileid="848" duration="150"/>
    <frame tileid="956" duration="150"/>
    <frame tileid="1064" duration="150"/>
    <frame tileid="1172" duration="150"/>
    <frame tileid="1280" duration="150"/>
    <frame tileid="1388" duration="150"/>
    <frame tileid="1496" duration="150"/>
    <frame tileid="1604" duration="150"/>
    <frame tileid="1712" duration="150"/>
    <frame tileid="92" duration="150"/>
    <frame tileid="92" duration="150"/>
    <frame tileid="92" duration="150"/>
    <frame tileid="92" duration="150"/>
    <frame tileid="92" duration="150"/>
    <frame tileid="92" duration="150"/>
    <frame tileid="92" duration="150"/>
    <frame tileid="92" duration="150"/>
    <frame tileid="92" duration="150"/>
   </animation>
  </tile>
  <tile id="93">
   <animation>
    <frame tileid="201" duration="150"/>
    <frame tileid="309" duration="150"/>
    <frame tileid="417" duration="150"/>
    <frame tileid="525" duration="150"/>
    <frame tileid="633" duration="150"/>
    <frame tileid="741" duration="150"/>
    <frame tileid="849" duration="150"/>
    <frame tileid="957" duration="150"/>
    <frame tileid="1065" duration="150"/>
    <frame tileid="1173" duration="150"/>
    <frame tileid="1281" duration="150"/>
    <frame tileid="1389" duration="150"/>
    <frame tileid="1497" duration="150"/>
    <frame tileid="1605" duration="150"/>
    <frame tileid="1713" duration="150"/>
    <frame tileid="93" duration="150"/>
    <frame tileid="93" duration="150"/>
    <frame tileid="93" duration="150"/>
    <frame tileid="93" duration="150"/>
    <frame tileid="93" duration="150"/>
    <frame tileid="93" duration="150"/>
    <frame tileid="93" duration="150"/>
    <frame tileid="93" duration="150"/>
    <frame tileid="93" duration="150"/>
   </animation>
  </tile>
  <tile id="94">
   <animation>
    <frame tileid="202" duration="150"/>
    <frame tileid="310" duration="150"/>
    <frame tileid="418" duration="150"/>
    <frame tileid="526" duration="150"/>
    <frame tileid="634" duration="150"/>
    <frame tileid="742" duration="150"/>
    <frame tileid="850" duration="150"/>
    <frame tileid="958" duration="150"/>
    <frame tileid="1066" duration="150"/>
    <frame tileid="1174" duration="150"/>
    <frame tileid="1282" duration="150"/>
    <frame tileid="1390" duration="150"/>
    <frame tileid="1498" duration="150"/>
    <frame tileid="1606" duration="150"/>
    <frame tileid="1714" duration="150"/>
    <frame tileid="94" duration="150"/>
    <frame tileid="94" duration="150"/>
    <frame tileid="94" duration="150"/>
    <frame tileid="94" duration="150"/>
    <frame tileid="94" duration="150"/>
    <frame tileid="94" duration="150"/>
    <frame tileid="94" duration="150"/>
    <frame tileid="94" duration="150"/>
    <frame tileid="94" duration="150"/>
   </animation>
  </tile>
  <tile id="95">
   <animation>
    <frame tileid="203" duration="150"/>
    <frame tileid="311" duration="150"/>
    <frame tileid="419" duration="150"/>
    <frame tileid="527" duration="150"/>
    <frame tileid="635" duration="150"/>
    <frame tileid="743" duration="150"/>
    <frame tileid="851" duration="150"/>
    <frame tileid="959" duration="150"/>
    <frame tileid="1067" duration="150"/>
    <frame tileid="1175" duration="150"/>
    <frame tileid="1283" duration="150"/>
    <frame tileid="1391" duration="150"/>
    <frame tileid="1499" duration="150"/>
    <frame tileid="1607" duration="150"/>
    <frame tileid="1715" duration="150"/>
    <frame tileid="95" duration="150"/>
    <frame tileid="95" duration="150"/>
    <frame tileid="95" duration="150"/>
    <frame tileid="95" duration="150"/>
    <frame tileid="95" duration="150"/>
    <frame tileid="95" duration="150"/>
    <frame tileid="95" duration="150"/>
    <frame tileid="95" duration="150"/>
    <frame tileid="95" duration="150"/>
   </animation>
  </tile>
  <tile id="96">
   <animation>
    <frame tileid="204" duration="150"/>
    <frame tileid="312" duration="150"/>
    <frame tileid="420" duration="150"/>
    <frame tileid="528" duration="150"/>
    <frame tileid="636" duration="150"/>
    <frame tileid="744" duration="150"/>
    <frame tileid="852" duration="150"/>
    <frame tileid="960" duration="150"/>
    <frame tileid="1068" duration="150"/>
    <frame tileid="1176" duration="150"/>
    <frame tileid="1284" duration="150"/>
    <frame tileid="1392" duration="150"/>
    <frame tileid="1500" duration="150"/>
    <frame tileid="1608" duration="150"/>
    <frame tileid="1716" duration="150"/>
    <frame tileid="96" duration="150"/>
    <frame tileid="96" duration="150"/>
    <frame tileid="96" duration="150"/>
    <frame tileid="96" duration="150"/>
    <frame tileid="96" duration="150"/>
    <frame tileid="96" duration="150"/>
    <frame tileid="96" duration="150"/>
    <frame tileid="96" duration="150"/>
    <frame tileid="96" duration="150"/>
   </animation>
  </tile>
  <tile id="97">
   <animation>
    <frame tileid="205" duration="150"/>
    <frame tileid="313" duration="150"/>
    <frame tileid="421" duration="150"/>
    <frame tileid="529" duration="150"/>
    <frame tileid="637" duration="150"/>
    <frame tileid="745" duration="150"/>
    <frame tileid="853" duration="150"/>
    <frame tileid="961" duration="150"/>
    <frame tileid="1069" duration="150"/>
    <frame tileid="1177" duration="150"/>
    <frame tileid="1285" duration="150"/>
    <frame tileid="1393" duration="150"/>
    <frame tileid="1501" duration="150"/>
    <frame tileid="1609" duration="150"/>
    <frame tileid="1717" duration="150"/>
    <frame tileid="97" duration="150"/>
    <frame tileid="97" duration="150"/>
    <frame tileid="97" duration="150"/>
    <frame tileid="97" duration="150"/>
    <frame tileid="97" duration="150"/>
    <frame tileid="97" duration="150"/>
    <frame tileid="97" duration="150"/>
    <frame tileid="97" duration="150"/>
    <frame tileid="97" duration="150"/>
   </animation>
  </tile>
  <tile id="98">
   <animation>
    <frame tileid="206" duration="150"/>
    <frame tileid="314" duration="150"/>
    <frame tileid="422" duration="150"/>
    <frame tileid="530" duration="150"/>
    <frame tileid="638" duration="150"/>
    <frame tileid="746" duration="150"/>
    <frame tileid="854" duration="150"/>
    <frame tileid="962" duration="150"/>
    <frame tileid="1070" duration="150"/>
    <frame tileid="1178" duration="150"/>
    <frame tileid="1286" duration="150"/>
    <frame tileid="1394" duration="150"/>
    <frame tileid="1502" duration="150"/>
    <frame tileid="1610" duration="150"/>
    <frame tileid="1718" duration="150"/>
    <frame tileid="98" duration="150"/>
    <frame tileid="98" duration="150"/>
    <frame tileid="98" duration="150"/>
    <frame tileid="98" duration="150"/>
    <frame tileid="98" duration="150"/>
    <frame tileid="98" duration="150"/>
    <frame tileid="98" duration="150"/>
    <frame tileid="98" duration="150"/>
    <frame tileid="98" duration="150"/>
   </animation>
  </tile>
  <tile id="99">
   <animation>
    <frame tileid="99" duration="150"/>
    <frame tileid="99" duration="150"/>
    <frame tileid="99" duration="150"/>
    <frame tileid="99" duration="150"/>
    <frame tileid="207" duration="150"/>
    <frame tileid="315" duration="150"/>
    <frame tileid="423" duration="150"/>
    <frame tileid="531" duration="150"/>
    <frame tileid="639" duration="150"/>
    <frame tileid="747" duration="150"/>
    <frame tileid="855" duration="150"/>
    <frame tileid="963" duration="150"/>
    <frame tileid="1071" duration="150"/>
    <frame tileid="1179" duration="150"/>
    <frame tileid="1287" duration="150"/>
    <frame tileid="1395" duration="150"/>
    <frame tileid="1503" duration="150"/>
    <frame tileid="1611" duration="150"/>
    <frame tileid="1719" duration="150"/>
    <frame tileid="99" duration="150"/>
    <frame tileid="99" duration="150"/>
    <frame tileid="99" duration="150"/>
    <frame tileid="99" duration="150"/>
    <frame tileid="99" duration="150"/>
   </animation>
  </tile>
  <tile id="100">
   <animation>
    <frame tileid="100" duration="150"/>
    <frame tileid="100" duration="150"/>
    <frame tileid="100" duration="150"/>
    <frame tileid="100" duration="150"/>
    <frame tileid="208" duration="150"/>
    <frame tileid="316" duration="150"/>
    <frame tileid="424" duration="150"/>
    <frame tileid="532" duration="150"/>
    <frame tileid="640" duration="150"/>
    <frame tileid="748" duration="150"/>
    <frame tileid="856" duration="150"/>
    <frame tileid="964" duration="150"/>
    <frame tileid="1072" duration="150"/>
    <frame tileid="1180" duration="150"/>
    <frame tileid="1288" duration="150"/>
    <frame tileid="1396" duration="150"/>
    <frame tileid="1504" duration="150"/>
    <frame tileid="1612" duration="150"/>
    <frame tileid="1720" duration="150"/>
    <frame tileid="100" duration="150"/>
    <frame tileid="100" duration="150"/>
    <frame tileid="100" duration="150"/>
    <frame tileid="100" duration="150"/>
    <frame tileid="100" duration="150"/>
   </animation>
  </tile>
  <tile id="101">
   <animation>
    <frame tileid="101" duration="150"/>
    <frame tileid="101" duration="150"/>
    <frame tileid="101" duration="150"/>
    <frame tileid="101" duration="150"/>
    <frame tileid="209" duration="150"/>
    <frame tileid="317" duration="150"/>
    <frame tileid="425" duration="150"/>
    <frame tileid="533" duration="150"/>
    <frame tileid="641" duration="150"/>
    <frame tileid="749" duration="150"/>
    <frame tileid="857" duration="150"/>
    <frame tileid="965" duration="150"/>
    <frame tileid="1073" duration="150"/>
    <frame tileid="1181" duration="150"/>
    <frame tileid="1289" duration="150"/>
    <frame tileid="1397" duration="150"/>
    <frame tileid="1505" duration="150"/>
    <frame tileid="1613" duration="150"/>
    <frame tileid="1721" duration="150"/>
    <frame tileid="101" duration="150"/>
    <frame tileid="101" duration="150"/>
    <frame tileid="101" duration="150"/>
    <frame tileid="101" duration="150"/>
    <frame tileid="101" duration="150"/>
   </animation>
  </tile>
  <tile id="102">
   <animation>
    <frame tileid="102" duration="150"/>
    <frame tileid="102" duration="150"/>
    <frame tileid="102" duration="150"/>
    <frame tileid="102" duration="150"/>
    <frame tileid="210" duration="150"/>
    <frame tileid="318" duration="150"/>
    <frame tileid="426" duration="150"/>
    <frame tileid="534" duration="150"/>
    <frame tileid="642" duration="150"/>
    <frame tileid="750" duration="150"/>
    <frame tileid="858" duration="150"/>
    <frame tileid="966" duration="150"/>
    <frame tileid="1074" duration="150"/>
    <frame tileid="1182" duration="150"/>
    <frame tileid="1290" duration="150"/>
    <frame tileid="1398" duration="150"/>
    <frame tileid="1506" duration="150"/>
    <frame tileid="1614" duration="150"/>
    <frame tileid="1722" duration="150"/>
    <frame tileid="102" duration="150"/>
    <frame tileid="102" duration="150"/>
    <frame tileid="102" duration="150"/>
    <frame tileid="102" duration="150"/>
    <frame tileid="102" duration="150"/>
   </animation>
  </tile>
  <tile id="103">
   <animation>
    <frame tileid="103" duration="150"/>
    <frame tileid="103" duration="150"/>
    <frame tileid="103" duration="150"/>
    <frame tileid="103" duration="150"/>
    <frame tileid="211" duration="150"/>
    <frame tileid="319" duration="150"/>
    <frame tileid="427" duration="150"/>
    <frame tileid="535" duration="150"/>
    <frame tileid="643" duration="150"/>
    <frame tileid="751" duration="150"/>
    <frame tileid="859" duration="150"/>
    <frame tileid="967" duration="150"/>
    <frame tileid="1075" duration="150"/>
    <frame tileid="1183" duration="150"/>
    <frame tileid="1291" duration="150"/>
    <frame tileid="1399" duration="150"/>
    <frame tileid="1507" duration="150"/>
    <frame tileid="1615" duration="150"/>
    <frame tileid="1723" duration="150"/>
    <frame tileid="103" duration="150"/>
    <frame tileid="103" duration="150"/>
    <frame tileid="103" duration="150"/>
    <frame tileid="103" duration="150"/>
    <frame tileid="103" duration="150"/>
   </animation>
  </tile>
  <tile id="104">
   <animation>
    <frame tileid="104" duration="150"/>
    <frame tileid="104" duration="150"/>
    <frame tileid="104" duration="150"/>
    <frame tileid="104" duration="150"/>
    <frame tileid="212" duration="150"/>
    <frame tileid="320" duration="150"/>
    <frame tileid="428" duration="150"/>
    <frame tileid="536" duration="150"/>
    <frame tileid="644" duration="150"/>
    <frame tileid="752" duration="150"/>
    <frame tileid="860" duration="150"/>
    <frame tileid="968" duration="150"/>
    <frame tileid="1076" duration="150"/>
    <frame tileid="1184" duration="150"/>
    <frame tileid="1292" duration="150"/>
    <frame tileid="1400" duration="150"/>
    <frame tileid="1508" duration="150"/>
    <frame tileid="1616" duration="150"/>
    <frame tileid="1724" duration="150"/>
    <frame tileid="104" duration="150"/>
    <frame tileid="104" duration="150"/>
    <frame tileid="104" duration="150"/>
    <frame tileid="104" duration="150"/>
    <frame tileid="104" duration="150"/>
   </animation>
  </tile>
  <tile id="105">
   <animation>
    <frame tileid="105" duration="150"/>
    <frame tileid="105" duration="150"/>
    <frame tileid="105" duration="150"/>
    <frame tileid="105" duration="150"/>
    <frame tileid="213" duration="150"/>
    <frame tileid="321" duration="150"/>
    <frame tileid="429" duration="150"/>
    <frame tileid="537" duration="150"/>
    <frame tileid="645" duration="150"/>
    <frame tileid="753" duration="150"/>
    <frame tileid="861" duration="150"/>
    <frame tileid="969" duration="150"/>
    <frame tileid="1077" duration="150"/>
    <frame tileid="1185" duration="150"/>
    <frame tileid="1293" duration="150"/>
    <frame tileid="1401" duration="150"/>
    <frame tileid="1509" duration="150"/>
    <frame tileid="1617" duration="150"/>
    <frame tileid="1725" duration="150"/>
    <frame tileid="105" duration="150"/>
    <frame tileid="105" duration="150"/>
    <frame tileid="105" duration="150"/>
    <frame tileid="105" duration="150"/>
    <frame tileid="105" duration="150"/>
   </animation>
  </tile>
  <tile id="106">
   <animation>
    <frame tileid="106" duration="150"/>
    <frame tileid="106" duration="150"/>
    <frame tileid="106" duration="150"/>
    <frame tileid="106" duration="150"/>
    <frame tileid="214" duration="150"/>
    <frame tileid="322" duration="150"/>
    <frame tileid="430" duration="150"/>
    <frame tileid="538" duration="150"/>
    <frame tileid="646" duration="150"/>
    <frame tileid="754" duration="150"/>
    <frame tileid="862" duration="150"/>
    <frame tileid="970" duration="150"/>
    <frame tileid="1078" duration="150"/>
    <frame tileid="1186" duration="150"/>
    <frame tileid="1294" duration="150"/>
    <frame tileid="1402" duration="150"/>
    <frame tileid="1510" duration="150"/>
    <frame tileid="1618" duration="150"/>
    <frame tileid="1726" duration="150"/>
    <frame tileid="106" duration="150"/>
    <frame tileid="106" duration="150"/>
    <frame tileid="106" duration="150"/>
    <frame tileid="106" duration="150"/>
    <frame tileid="106" duration="150"/>
   </animation>
  </tile>
  <tile id="107">
   <animation>
    <frame tileid="107" duration="150"/>
    <frame tileid="107" duration="150"/>
    <frame tileid="107" duration="150"/>
    <frame tileid="107" duration="150"/>
    <frame tileid="215" duration="150"/>
    <frame tileid="323" duration="150"/>
    <frame tileid="431" duration="150"/>
    <frame tileid="539" duration="150"/>
    <frame tileid="647" duration="150"/>
    <frame tileid="755" duration="150"/>
    <frame tileid="863" duration="150"/>
    <frame tileid="971" duration="150"/>
    <frame tileid="1079" duration="150"/>
    <frame tileid="1187" duration="150"/>
    <frame tileid="1295" duration="150"/>
    <frame tileid="1403" duration="150"/>
    <frame tileid="1511" duration="150"/>
    <frame tileid="1619" duration="150"/>
    <frame tileid="1727" duration="150"/>
    <frame tileid="107" duration="150"/>
    <frame tileid="107" duration="150"/>
    <frame tileid="107" duration="150"/>
    <frame tileid="107" duration="150"/>
    <frame tileid="107" duration="150"/>
   </animation>
  </tile>
 </tileset>
 <tileset firstgid="4186" name="bird_jump_animation" tilewidth="16" tileheight="16" tilecount="88" columns="40">
  <image source="bird_jump_animation.png" width="640" height="32"/>
  <tile id="0">
   <animation>
    <frame tileid="0" duration="150"/>
    <frame tileid="0" duration="150"/>
    <frame tileid="0" duration="150"/>
    <frame tileid="2" duration="150"/>
    <frame tileid="4" duration="150"/>
    <frame tileid="6" duration="150"/>
    <frame tileid="8" duration="150"/>
    <frame tileid="10" duration="150"/>
    <frame tileid="12" duration="150"/>
    <frame tileid="14" duration="150"/>
    <frame tileid="16" duration="150"/>
    <frame tileid="18" duration="150"/>
    <frame tileid="20" duration="150"/>
    <frame tileid="20" duration="150"/>
    <frame tileid="20" duration="150"/>
    <frame tileid="22" duration="150"/>
    <frame tileid="24" duration="150"/>
    <frame tileid="26" duration="150"/>
    <frame tileid="28" duration="150"/>
    <frame tileid="30" duration="150"/>
    <frame tileid="32" duration="150"/>
    <frame tileid="34" duration="150"/>
    <frame tileid="36" duration="150"/>
    <frame tileid="38" duration="150"/>
   </animation>
  </tile>
  <tile id="1">
   <animation>
    <frame tileid="1" duration="150"/>
    <frame tileid="1" duration="150"/>
    <frame tileid="1" duration="150"/>
    <frame tileid="3" duration="150"/>
    <frame tileid="5" duration="150"/>
    <frame tileid="7" duration="150"/>
    <frame tileid="9" duration="150"/>
    <frame tileid="11" duration="150"/>
    <frame tileid="13" duration="150"/>
    <frame tileid="15" duration="150"/>
    <frame tileid="17" duration="150"/>
    <frame tileid="19" duration="150"/>
    <frame tileid="21" duration="150"/>
    <frame tileid="21" duration="150"/>
    <frame tileid="21" duration="150"/>
    <frame tileid="23" duration="150"/>
    <frame tileid="25" duration="150"/>
    <frame tileid="27" duration="150"/>
    <frame tileid="29" duration="150"/>
    <frame tileid="31" duration="150"/>
    <frame tileid="33" duration="150"/>
    <frame tileid="35" duration="150"/>
    <frame tileid="37" duration="150"/>
    <frame tileid="39" duration="150"/>
   </animation>
  </tile>
  <tile id="2"/>
  <tile id="3"/>
  <tile id="4"/>
  <tile id="5"/>
  <tile id="6"/>
  <tile id="7"/>
  <tile id="8"/>
  <tile id="9"/>
  <tile id="10"/>
  <tile id="11"/>
  <tile id="12"/>
  <tile id="13"/>
  <tile id="14"/>
  <tile id="15"/>
  <tile id="16"/>
  <tile id="17"/>
  <tile id="18"/>
  <tile id="19"/>
  <tile id="20"/>
  <tile id="21"/>
  <tile id="22"/>
  <tile id="23"/>
  <tile id="24"/>
  <tile id="25"/>
  <tile id="26"/>
  <tile id="27"/>
  <tile id="28"/>
  <tile id="29"/>
  <tile id="30"/>
  <tile id="31"/>
  <tile id="32"/>
  <tile id="33"/>
  <tile id="34"/>
  <tile id="35"/>
  <tile id="36"/>
  <tile id="37"/>
  <tile id="38"/>
  <tile id="39"/>
  <tile id="40">
   <animation>
    <frame tileid="40" duration="150"/>
    <frame tileid="40" duration="150"/>
    <frame tileid="40" duration="150"/>
    <frame tileid="42" duration="150"/>
    <frame tileid="44" duration="150"/>
    <frame tileid="46" duration="150"/>
    <frame tileid="48" duration="150"/>
    <frame tileid="50" duration="150"/>
    <frame tileid="52" duration="150"/>
    <frame tileid="54" duration="150"/>
    <frame tileid="56" duration="150"/>
    <frame tileid="58" duration="150"/>
    <frame tileid="60" duration="150"/>
    <frame tileid="60" duration="150"/>
    <frame tileid="60" duration="150"/>
    <frame tileid="62" duration="150"/>
    <frame tileid="64" duration="150"/>
    <frame tileid="66" duration="150"/>
    <frame tileid="68" duration="150"/>
    <frame tileid="70" duration="150"/>
    <frame tileid="72" duration="150"/>
    <frame tileid="74" duration="150"/>
    <frame tileid="76" duration="150"/>
    <frame tileid="78" duration="150"/>
   </animation>
  </tile>
  <tile id="41">
   <animation>
    <frame tileid="41" duration="150"/>
    <frame tileid="41" duration="150"/>
    <frame tileid="41" duration="150"/>
    <frame tileid="43" duration="150"/>
    <frame tileid="45" duration="150"/>
    <frame tileid="47" duration="150"/>
    <frame tileid="49" duration="150"/>
    <frame tileid="51" duration="150"/>
    <frame tileid="53" duration="150"/>
    <frame tileid="55" duration="150"/>
    <frame tileid="57" duration="150"/>
    <frame tileid="59" duration="150"/>
    <frame tileid="61" duration="150"/>
    <frame tileid="61" duration="150"/>
    <frame tileid="61" duration="150"/>
    <frame tileid="63" duration="150"/>
    <frame tileid="65" duration="150"/>
    <frame tileid="67" duration="150"/>
    <frame tileid="69" duration="150"/>
    <frame tileid="71" duration="150"/>
    <frame tileid="73" duration="150"/>
    <frame tileid="75" duration="150"/>
    <frame tileid="77" duration="150"/>
    <frame tileid="79" duration="150"/>
   </animation>
  </tile>
  <tile id="42"/>
  <tile id="43"/>
  <tile id="44"/>
  <tile id="45"/>
  <tile id="46"/>
  <tile id="47"/>
  <tile id="48"/>
  <tile id="49"/>
  <tile id="50"/>
  <tile id="51"/>
  <tile id="52"/>
  <tile id="53"/>
  <tile id="54"/>
  <tile id="55"/>
  <tile id="56"/>
  <tile id="57"/>
  <tile id="58"/>
  <tile id="59"/>
  <tile id="60"/>
  <tile id="61"/>
  <tile id="62"/>
  <tile id="63"/>
  <tile id="64"/>
  <tile id="65"/>
  <tile id="66"/>
  <tile id="67"/>
  <tile id="68"/>
  <tile id="69"/>
  <tile id="70"/>
  <tile id="71"/>
  <tile id="72"/>
  <tile id="73"/>
  <tile id="74"/>
  <tile id="75"/>
  <tile id="76"/>
  <tile id="77"/>
  <tile id="78"/>
  <tile id="79"/>
  <tile id="80"/>
  <tile id="81"/>
  <tile id="120"/>
  <tile id="121"/>
  <tile id="160"/>
  <tile id="161"/>
  <tile id="200"/>
  <tile id="201"/>
 </tileset>
 <tileset firstgid="4388" name="fountain" tilewidth="16" tileheight="16" tilecount="180" columns="6">
  <image source="fountain.png" width="96" height="480"/>
  <tile id="0">
   <animation>
    <frame tileid="0" duration="150"/>
    <frame tileid="30" duration="150"/>
    <frame tileid="60" duration="150"/>
    <frame tileid="90" duration="150"/>
    <frame tileid="120" duration="150"/>
    <frame tileid="150" duration="150"/>
   </animation>
  </tile>
  <tile id="1">
   <animation>
    <frame tileid="1" duration="150"/>
    <frame tileid="31" duration="150"/>
    <frame tileid="61" duration="150"/>
    <frame tileid="91" duration="150"/>
    <frame tileid="121" duration="150"/>
    <frame tileid="151" duration="150"/>
   </animation>
  </tile>
  <tile id="2">
   <animation>
    <frame tileid="2" duration="150"/>
    <frame tileid="32" duration="150"/>
    <frame tileid="62" duration="150"/>
    <frame tileid="92" duration="150"/>
    <frame tileid="122" duration="150"/>
    <frame tileid="152" duration="150"/>
   </animation>
  </tile>
  <tile id="3">
   <animation>
    <frame tileid="3" duration="150"/>
    <frame tileid="33" duration="150"/>
    <frame tileid="63" duration="150"/>
    <frame tileid="93" duration="150"/>
    <frame tileid="123" duration="150"/>
    <frame tileid="153" duration="150"/>
   </animation>
  </tile>
  <tile id="4">
   <animation>
    <frame tileid="4" duration="150"/>
    <frame tileid="34" duration="150"/>
    <frame tileid="64" duration="150"/>
    <frame tileid="94" duration="150"/>
    <frame tileid="124" duration="150"/>
    <frame tileid="154" duration="150"/>
   </animation>
  </tile>
  <tile id="5">
   <animation>
    <frame tileid="5" duration="150"/>
    <frame tileid="35" duration="150"/>
    <frame tileid="65" duration="150"/>
    <frame tileid="95" duration="150"/>
    <frame tileid="125" duration="150"/>
    <frame tileid="155" duration="150"/>
   </animation>
  </tile>
  <tile id="6">
   <animation>
    <frame tileid="6" duration="150"/>
    <frame tileid="36" duration="150"/>
    <frame tileid="66" duration="150"/>
    <frame tileid="96" duration="150"/>
    <frame tileid="126" duration="150"/>
    <frame tileid="156" duration="150"/>
   </animation>
  </tile>
  <tile id="7">
   <animation>
    <frame tileid="7" duration="150"/>
    <frame tileid="37" duration="150"/>
    <frame tileid="67" duration="150"/>
    <frame tileid="97" duration="150"/>
    <frame tileid="127" duration="150"/>
    <frame tileid="157" duration="150"/>
   </animation>
  </tile>
  <tile id="8">
   <animation>
    <frame tileid="8" duration="150"/>
    <frame tileid="38" duration="150"/>
    <frame tileid="68" duration="150"/>
    <frame tileid="98" duration="150"/>
    <frame tileid="128" duration="150"/>
    <frame tileid="158" duration="150"/>
   </animation>
  </tile>
  <tile id="9">
   <animation>
    <frame tileid="9" duration="150"/>
    <frame tileid="39" duration="150"/>
    <frame tileid="69" duration="150"/>
    <frame tileid="99" duration="150"/>
    <frame tileid="129" duration="150"/>
    <frame tileid="159" duration="150"/>
   </animation>
  </tile>
  <tile id="10">
   <animation>
    <frame tileid="10" duration="150"/>
    <frame tileid="40" duration="150"/>
    <frame tileid="70" duration="150"/>
    <frame tileid="100" duration="150"/>
    <frame tileid="130" duration="150"/>
    <frame tileid="160" duration="150"/>
   </animation>
  </tile>
  <tile id="11">
   <animation>
    <frame tileid="11" duration="150"/>
    <frame tileid="41" duration="150"/>
    <frame tileid="71" duration="150"/>
    <frame tileid="101" duration="150"/>
    <frame tileid="131" duration="150"/>
    <frame tileid="161" duration="150"/>
   </animation>
  </tile>
  <tile id="12">
   <animation>
    <frame tileid="12" duration="150"/>
    <frame tileid="42" duration="150"/>
    <frame tileid="72" duration="150"/>
    <frame tileid="102" duration="150"/>
    <frame tileid="132" duration="150"/>
    <frame tileid="162" duration="150"/>
   </animation>
  </tile>
  <tile id="13">
   <animation>
    <frame tileid="13" duration="150"/>
    <frame tileid="43" duration="150"/>
    <frame tileid="73" duration="150"/>
    <frame tileid="103" duration="150"/>
    <frame tileid="133" duration="150"/>
    <frame tileid="163" duration="150"/>
   </animation>
  </tile>
  <tile id="14">
   <animation>
    <frame tileid="14" duration="150"/>
    <frame tileid="44" duration="150"/>
    <frame tileid="74" duration="150"/>
    <frame tileid="104" duration="150"/>
    <frame tileid="134" duration="150"/>
    <frame tileid="164" duration="150"/>
   </animation>
  </tile>
  <tile id="15">
   <animation>
    <frame tileid="15" duration="150"/>
    <frame tileid="45" duration="150"/>
    <frame tileid="75" duration="150"/>
    <frame tileid="105" duration="150"/>
    <frame tileid="135" duration="150"/>
    <frame tileid="165" duration="150"/>
   </animation>
  </tile>
  <tile id="16">
   <animation>
    <frame tileid="16" duration="150"/>
    <frame tileid="46" duration="150"/>
    <frame tileid="76" duration="150"/>
    <frame tileid="106" duration="150"/>
    <frame tileid="136" duration="150"/>
    <frame tileid="166" duration="150"/>
   </animation>
  </tile>
  <tile id="17">
   <animation>
    <frame tileid="17" duration="150"/>
    <frame tileid="47" duration="150"/>
    <frame tileid="77" duration="150"/>
    <frame tileid="107" duration="150"/>
    <frame tileid="137" duration="150"/>
    <frame tileid="167" duration="150"/>
   </animation>
  </tile>
  <tile id="18">
   <animation>
    <frame tileid="18" duration="150"/>
    <frame tileid="48" duration="150"/>
    <frame tileid="78" duration="150"/>
    <frame tileid="108" duration="150"/>
    <frame tileid="138" duration="150"/>
    <frame tileid="168" duration="150"/>
   </animation>
  </tile>
  <tile id="19">
   <animation>
    <frame tileid="19" duration="150"/>
    <frame tileid="49" duration="150"/>
    <frame tileid="79" duration="150"/>
    <frame tileid="109" duration="150"/>
    <frame tileid="139" duration="150"/>
    <frame tileid="169" duration="150"/>
   </animation>
  </tile>
  <tile id="20">
   <animation>
    <frame tileid="20" duration="150"/>
    <frame tileid="50" duration="150"/>
    <frame tileid="80" duration="150"/>
    <frame tileid="110" duration="150"/>
    <frame tileid="140" duration="150"/>
    <frame tileid="170" duration="150"/>
   </animation>
  </tile>
  <tile id="21">
   <animation>
    <frame tileid="21" duration="150"/>
    <frame tileid="51" duration="150"/>
    <frame tileid="81" duration="150"/>
    <frame tileid="111" duration="150"/>
    <frame tileid="141" duration="150"/>
    <frame tileid="171" duration="150"/>
   </animation>
  </tile>
  <tile id="22">
   <animation>
    <frame tileid="22" duration="150"/>
    <frame tileid="52" duration="150"/>
    <frame tileid="82" duration="150"/>
    <frame tileid="112" duration="150"/>
    <frame tileid="142" duration="150"/>
    <frame tileid="172" duration="150"/>
   </animation>
  </tile>
  <tile id="23">
   <animation>
    <frame tileid="23" duration="150"/>
    <frame tileid="53" duration="150"/>
    <frame tileid="83" duration="150"/>
    <frame tileid="113" duration="150"/>
    <frame tileid="143" duration="150"/>
    <frame tileid="173" duration="150"/>
   </animation>
  </tile>
  <tile id="24">
   <animation>
    <frame tileid="24" duration="150"/>
    <frame tileid="54" duration="150"/>
    <frame tileid="84" duration="150"/>
    <frame tileid="114" duration="150"/>
    <frame tileid="144" duration="150"/>
    <frame tileid="174" duration="150"/>
   </animation>
  </tile>
  <tile id="25">
   <animation>
    <frame tileid="25" duration="150"/>
    <frame tileid="55" duration="150"/>
    <frame tileid="85" duration="150"/>
    <frame tileid="115" duration="150"/>
    <frame tileid="145" duration="150"/>
    <frame tileid="175" duration="150"/>
   </animation>
  </tile>
  <tile id="26">
   <animation>
    <frame tileid="26" duration="150"/>
    <frame tileid="56" duration="150"/>
    <frame tileid="86" duration="150"/>
    <frame tileid="116" duration="150"/>
    <frame tileid="146" duration="150"/>
    <frame tileid="176" duration="150"/>
   </animation>
  </tile>
  <tile id="27">
   <animation>
    <frame tileid="27" duration="150"/>
    <frame tileid="57" duration="150"/>
    <frame tileid="87" duration="150"/>
    <frame tileid="117" duration="150"/>
    <frame tileid="147" duration="150"/>
    <frame tileid="177" duration="150"/>
   </animation>
  </tile>
  <tile id="28">
   <animation>
    <frame tileid="28" duration="150"/>
    <frame tileid="58" duration="150"/>
    <frame tileid="88" duration="150"/>
    <frame tileid="118" duration="150"/>
    <frame tileid="148" duration="150"/>
    <frame tileid="178" duration="150"/>
   </animation>
  </tile>
  <tile id="29">
   <animation>
    <frame tileid="29" duration="150"/>
    <frame tileid="59" duration="150"/>
    <frame tileid="89" duration="150"/>
    <frame tileid="119" duration="150"/>
    <frame tileid="149" duration="150"/>
    <frame tileid="179" duration="150"/>
   </animation>
  </tile>
 </tileset>
 <tileset firstgid="4568" name="doors_windows" tilewidth="16" tileheight="16" tilecount="648" columns="18">
  <image source="doors_windows.png" width="288" height="576"/>
  <tile id="0">
   <animation>
    <frame tileid="0" duration="150"/>
    <frame tileid="0" duration="150"/>
    <frame tileid="0" duration="150"/>
    <frame tileid="0" duration="150"/>
    <frame tileid="108" duration="150"/>
    <frame tileid="216" duration="150"/>
    <frame tileid="324" duration="150"/>
    <frame tileid="324" duration="150"/>
    <frame tileid="324" duration="150"/>
    <frame tileid="324" duration="150"/>
    <frame tileid="432" duration="150"/>
    <frame tileid="540" duration="150"/>
   </animation>
  </tile>
  <tile id="1">
   <animation>
    <frame tileid="1" duration="150"/>
    <frame tileid="1" duration="150"/>
    <frame tileid="1" duration="150"/>
    <frame tileid="1" duration="150"/>
    <frame tileid="109" duration="150"/>
    <frame tileid="217" duration="150"/>
    <frame tileid="325" duration="150"/>
    <frame tileid="325" duration="150"/>
    <frame tileid="325" duration="150"/>
    <frame tileid="325" duration="150"/>
    <frame tileid="433" duration="150"/>
    <frame tileid="541" duration="150"/>
   </animation>
  </tile>
  <tile id="2">
   <animation>
    <frame tileid="2" duration="150"/>
    <frame tileid="2" duration="150"/>
    <frame tileid="2" duration="150"/>
    <frame tileid="2" duration="150"/>
    <frame tileid="110" duration="150"/>
    <frame tileid="218" duration="150"/>
    <frame tileid="326" duration="150"/>
    <frame tileid="326" duration="150"/>
    <frame tileid="326" duration="150"/>
    <frame tileid="326" duration="150"/>
    <frame tileid="434" duration="150"/>
    <frame tileid="542" duration="150"/>
   </animation>
  </tile>
  <tile id="3">
   <animation>
    <frame tileid="3" duration="150"/>
    <frame tileid="3" duration="150"/>
    <frame tileid="3" duration="150"/>
    <frame tileid="3" duration="150"/>
    <frame tileid="111" duration="150"/>
    <frame tileid="219" duration="150"/>
    <frame tileid="327" duration="150"/>
    <frame tileid="327" duration="150"/>
    <frame tileid="327" duration="150"/>
    <frame tileid="327" duration="150"/>
    <frame tileid="435" duration="150"/>
    <frame tileid="543" duration="150"/>
   </animation>
  </tile>
  <tile id="4">
   <animation>
    <frame tileid="4" duration="150"/>
    <frame tileid="4" duration="150"/>
    <frame tileid="4" duration="150"/>
    <frame tileid="4" duration="150"/>
    <frame tileid="112" duration="150"/>
    <frame tileid="220" duration="150"/>
    <frame tileid="328" duration="150"/>
    <frame tileid="328" duration="150"/>
    <frame tileid="328" duration="150"/>
    <frame tileid="328" duration="150"/>
    <frame tileid="436" duration="150"/>
    <frame tileid="544" duration="150"/>
   </animation>
  </tile>
  <tile id="5">
   <animation>
    <frame tileid="5" duration="150"/>
    <frame tileid="5" duration="150"/>
    <frame tileid="5" duration="150"/>
    <frame tileid="5" duration="150"/>
    <frame tileid="113" duration="150"/>
    <frame tileid="221" duration="150"/>
    <frame tileid="329" duration="150"/>
    <frame tileid="329" duration="150"/>
    <frame tileid="329" duration="150"/>
    <frame tileid="329" duration="150"/>
    <frame tileid="437" duration="150"/>
    <frame tileid="545" duration="150"/>
   </animation>
  </tile>
  <tile id="6">
   <animation>
    <frame tileid="6" duration="150"/>
    <frame tileid="6" duration="150"/>
    <frame tileid="6" duration="150"/>
    <frame tileid="6" duration="150"/>
    <frame tileid="114" duration="150"/>
    <frame tileid="222" duration="150"/>
    <frame tileid="330" duration="150"/>
    <frame tileid="330" duration="150"/>
    <frame tileid="330" duration="150"/>
    <frame tileid="330" duration="150"/>
    <frame tileid="438" duration="150"/>
    <frame tileid="546" duration="150"/>
   </animation>
  </tile>
  <tile id="7">
   <animation>
    <frame tileid="7" duration="150"/>
    <frame tileid="7" duration="150"/>
    <frame tileid="7" duration="150"/>
    <frame tileid="7" duration="150"/>
    <frame tileid="115" duration="150"/>
    <frame tileid="223" duration="150"/>
    <frame tileid="331" duration="150"/>
    <frame tileid="331" duration="150"/>
    <frame tileid="331" duration="150"/>
    <frame tileid="331" duration="150"/>
    <frame tileid="439" duration="150"/>
    <frame tileid="547" duration="150"/>
   </animation>
  </tile>
  <tile id="8">
   <animation>
    <frame tileid="8" duration="150"/>
    <frame tileid="8" duration="150"/>
    <frame tileid="8" duration="150"/>
    <frame tileid="8" duration="150"/>
    <frame tileid="116" duration="150"/>
    <frame tileid="224" duration="150"/>
    <frame tileid="332" duration="150"/>
    <frame tileid="332" duration="150"/>
    <frame tileid="332" duration="150"/>
    <frame tileid="332" duration="150"/>
    <frame tileid="440" duration="150"/>
    <frame tileid="548" duration="150"/>
   </animation>
  </tile>
  <tile id="9">
   <animation>
    <frame tileid="9" duration="150"/>
    <frame tileid="9" duration="150"/>
    <frame tileid="9" duration="150"/>
    <frame tileid="9" duration="150"/>
    <frame tileid="117" duration="150"/>
    <frame tileid="225" duration="150"/>
    <frame tileid="333" duration="150"/>
    <frame tileid="333" duration="150"/>
    <frame tileid="333" duration="150"/>
    <frame tileid="333" duration="150"/>
    <frame tileid="441" duration="150"/>
    <frame tileid="549" duration="150"/>
   </animation>
  </tile>
  <tile id="10">
   <animation>
    <frame tileid="10" duration="150"/>
    <frame tileid="10" duration="150"/>
    <frame tileid="10" duration="150"/>
    <frame tileid="10" duration="150"/>
    <frame tileid="118" duration="150"/>
    <frame tileid="226" duration="150"/>
    <frame tileid="334" duration="150"/>
    <frame tileid="334" duration="150"/>
    <frame tileid="334" duration="150"/>
    <frame tileid="334" duration="150"/>
    <frame tileid="442" duration="150"/>
    <frame tileid="550" duration="150"/>
   </animation>
  </tile>
  <tile id="11">
   <animation>
    <frame tileid="11" duration="150"/>
    <frame tileid="11" duration="150"/>
    <frame tileid="11" duration="150"/>
    <frame tileid="11" duration="150"/>
    <frame tileid="119" duration="150"/>
    <frame tileid="227" duration="150"/>
    <frame tileid="335" duration="150"/>
    <frame tileid="335" duration="150"/>
    <frame tileid="335" duration="150"/>
    <frame tileid="335" duration="150"/>
    <frame tileid="443" duration="150"/>
    <frame tileid="551" duration="150"/>
   </animation>
  </tile>
  <tile id="12">
   <animation>
    <frame tileid="12" duration="150"/>
    <frame tileid="12" duration="150"/>
    <frame tileid="12" duration="150"/>
    <frame tileid="12" duration="150"/>
    <frame tileid="120" duration="150"/>
    <frame tileid="228" duration="150"/>
    <frame tileid="336" duration="150"/>
    <frame tileid="336" duration="150"/>
    <frame tileid="336" duration="150"/>
    <frame tileid="336" duration="150"/>
    <frame tileid="444" duration="150"/>
    <frame tileid="552" duration="150"/>
   </animation>
  </tile>
  <tile id="13">
   <animation>
    <frame tileid="13" duration="150"/>
    <frame tileid="13" duration="150"/>
    <frame tileid="13" duration="150"/>
    <frame tileid="13" duration="150"/>
    <frame tileid="121" duration="150"/>
    <frame tileid="229" duration="150"/>
    <frame tileid="337" duration="150"/>
    <frame tileid="337" duration="150"/>
    <frame tileid="337" duration="150"/>
    <frame tileid="337" duration="150"/>
    <frame tileid="445" duration="150"/>
    <frame tileid="553" duration="150"/>
   </animation>
  </tile>
  <tile id="14">
   <animation>
    <frame tileid="14" duration="150"/>
    <frame tileid="14" duration="150"/>
    <frame tileid="14" duration="150"/>
    <frame tileid="14" duration="150"/>
    <frame tileid="122" duration="150"/>
    <frame tileid="230" duration="150"/>
    <frame tileid="338" duration="150"/>
    <frame tileid="338" duration="150"/>
    <frame tileid="338" duration="150"/>
    <frame tileid="338" duration="150"/>
    <frame tileid="446" duration="150"/>
    <frame tileid="554" duration="150"/>
   </animation>
  </tile>
  <tile id="15">
   <animation>
    <frame tileid="15" duration="150"/>
    <frame tileid="15" duration="150"/>
    <frame tileid="15" duration="150"/>
    <frame tileid="15" duration="150"/>
    <frame tileid="123" duration="150"/>
    <frame tileid="231" duration="150"/>
    <frame tileid="339" duration="150"/>
    <frame tileid="339" duration="150"/>
    <frame tileid="339" duration="150"/>
    <frame tileid="339" duration="150"/>
    <frame tileid="447" duration="150"/>
    <frame tileid="555" duration="150"/>
   </animation>
  </tile>
  <tile id="16">
   <animation>
    <frame tileid="16" duration="150"/>
    <frame tileid="16" duration="150"/>
    <frame tileid="16" duration="150"/>
    <frame tileid="16" duration="150"/>
    <frame tileid="124" duration="150"/>
    <frame tileid="232" duration="150"/>
    <frame tileid="340" duration="150"/>
    <frame tileid="340" duration="150"/>
    <frame tileid="340" duration="150"/>
    <frame tileid="340" duration="150"/>
    <frame tileid="448" duration="150"/>
    <frame tileid="556" duration="150"/>
   </animation>
  </tile>
  <tile id="17">
   <animation>
    <frame tileid="17" duration="150"/>
    <frame tileid="17" duration="150"/>
    <frame tileid="17" duration="150"/>
    <frame tileid="17" duration="150"/>
    <frame tileid="125" duration="150"/>
    <frame tileid="233" duration="150"/>
    <frame tileid="341" duration="150"/>
    <frame tileid="341" duration="150"/>
    <frame tileid="341" duration="150"/>
    <frame tileid="341" duration="150"/>
    <frame tileid="449" duration="150"/>
    <frame tileid="557" duration="150"/>
   </animation>
  </tile>
  <tile id="18">
   <animation>
    <frame tileid="18" duration="150"/>
    <frame tileid="18" duration="150"/>
    <frame tileid="18" duration="150"/>
    <frame tileid="18" duration="150"/>
    <frame tileid="126" duration="150"/>
    <frame tileid="234" duration="150"/>
    <frame tileid="342" duration="150"/>
    <frame tileid="342" duration="150"/>
    <frame tileid="342" duration="150"/>
    <frame tileid="342" duration="150"/>
    <frame tileid="450" duration="150"/>
    <frame tileid="558" duration="150"/>
   </animation>
  </tile>
  <tile id="19">
   <animation>
    <frame tileid="19" duration="150"/>
    <frame tileid="19" duration="150"/>
    <frame tileid="19" duration="150"/>
    <frame tileid="19" duration="150"/>
    <frame tileid="127" duration="150"/>
    <frame tileid="235" duration="150"/>
    <frame tileid="343" duration="150"/>
    <frame tileid="343" duration="150"/>
    <frame tileid="343" duration="150"/>
    <frame tileid="343" duration="150"/>
    <frame tileid="451" duration="150"/>
    <frame tileid="559" duration="150"/>
   </animation>
  </tile>
  <tile id="20">
   <animation>
    <frame tileid="20" duration="150"/>
    <frame tileid="20" duration="150"/>
    <frame tileid="20" duration="150"/>
    <frame tileid="20" duration="150"/>
    <frame tileid="128" duration="150"/>
    <frame tileid="236" duration="150"/>
    <frame tileid="344" duration="150"/>
    <frame tileid="344" duration="150"/>
    <frame tileid="344" duration="150"/>
    <frame tileid="344" duration="150"/>
    <frame tileid="452" duration="150"/>
    <frame tileid="560" duration="150"/>
   </animation>
  </tile>
  <tile id="21">
   <animation>
    <frame tileid="21" duration="150"/>
    <frame tileid="21" duration="150"/>
    <frame tileid="21" duration="150"/>
    <frame tileid="21" duration="150"/>
    <frame tileid="129" duration="150"/>
    <frame tileid="237" duration="150"/>
    <frame tileid="345" duration="150"/>
    <frame tileid="345" duration="150"/>
    <frame tileid="345" duration="150"/>
    <frame tileid="345" duration="150"/>
    <frame tileid="453" duration="150"/>
    <frame tileid="561" duration="150"/>
   </animation>
  </tile>
  <tile id="22">
   <animation>
    <frame tileid="22" duration="150"/>
    <frame tileid="22" duration="150"/>
    <frame tileid="22" duration="150"/>
    <frame tileid="22" duration="150"/>
    <frame tileid="130" duration="150"/>
    <frame tileid="238" duration="150"/>
    <frame tileid="346" duration="150"/>
    <frame tileid="346" duration="150"/>
    <frame tileid="346" duration="150"/>
    <frame tileid="346" duration="150"/>
    <frame tileid="454" duration="150"/>
    <frame tileid="562" duration="150"/>
   </animation>
  </tile>
  <tile id="23">
   <animation>
    <frame tileid="23" duration="150"/>
    <frame tileid="23" duration="150"/>
    <frame tileid="23" duration="150"/>
    <frame tileid="23" duration="150"/>
    <frame tileid="131" duration="150"/>
    <frame tileid="239" duration="150"/>
    <frame tileid="347" duration="150"/>
    <frame tileid="347" duration="150"/>
    <frame tileid="347" duration="150"/>
    <frame tileid="347" duration="150"/>
    <frame tileid="455" duration="150"/>
    <frame tileid="563" duration="150"/>
   </animation>
  </tile>
  <tile id="24">
   <animation>
    <frame tileid="24" duration="150"/>
    <frame tileid="24" duration="150"/>
    <frame tileid="24" duration="150"/>
    <frame tileid="24" duration="150"/>
    <frame tileid="132" duration="150"/>
    <frame tileid="240" duration="150"/>
    <frame tileid="348" duration="150"/>
    <frame tileid="348" duration="150"/>
    <frame tileid="348" duration="150"/>
    <frame tileid="348" duration="150"/>
    <frame tileid="456" duration="150"/>
    <frame tileid="564" duration="150"/>
   </animation>
  </tile>
  <tile id="25">
   <animation>
    <frame tileid="25" duration="150"/>
    <frame tileid="25" duration="150"/>
    <frame tileid="25" duration="150"/>
    <frame tileid="25" duration="150"/>
    <frame tileid="133" duration="150"/>
    <frame tileid="241" duration="150"/>
    <frame tileid="349" duration="150"/>
    <frame tileid="349" duration="150"/>
    <frame tileid="349" duration="150"/>
    <frame tileid="349" duration="150"/>
    <frame tileid="457" duration="150"/>
    <frame tileid="565" duration="150"/>
   </animation>
  </tile>
  <tile id="26">
   <animation>
    <frame tileid="26" duration="150"/>
    <frame tileid="26" duration="150"/>
    <frame tileid="26" duration="150"/>
    <frame tileid="26" duration="150"/>
    <frame tileid="134" duration="150"/>
    <frame tileid="242" duration="150"/>
    <frame tileid="350" duration="150"/>
    <frame tileid="350" duration="150"/>
    <frame tileid="350" duration="150"/>
    <frame tileid="350" duration="150"/>
    <frame tileid="458" duration="150"/>
    <frame tileid="566" duration="150"/>
   </animation>
  </tile>
  <tile id="27">
   <animation>
    <frame tileid="27" duration="150"/>
    <frame tileid="27" duration="150"/>
    <frame tileid="27" duration="150"/>
    <frame tileid="27" duration="150"/>
    <frame tileid="135" duration="150"/>
    <frame tileid="243" duration="150"/>
    <frame tileid="351" duration="150"/>
    <frame tileid="351" duration="150"/>
    <frame tileid="351" duration="150"/>
    <frame tileid="351" duration="150"/>
    <frame tileid="459" duration="150"/>
    <frame tileid="567" duration="150"/>
   </animation>
  </tile>
  <tile id="28">
   <animation>
    <frame tileid="28" duration="150"/>
    <frame tileid="28" duration="150"/>
    <frame tileid="28" duration="150"/>
    <frame tileid="28" duration="150"/>
    <frame tileid="136" duration="150"/>
    <frame tileid="244" duration="150"/>
    <frame tileid="352" duration="150"/>
    <frame tileid="352" duration="150"/>
    <frame tileid="352" duration="150"/>
    <frame tileid="352" duration="150"/>
    <frame tileid="460" duration="150"/>
    <frame tileid="568" duration="150"/>
   </animation>
  </tile>
  <tile id="29">
   <animation>
    <frame tileid="29" duration="150"/>
    <frame tileid="29" duration="150"/>
    <frame tileid="29" duration="150"/>
    <frame tileid="29" duration="150"/>
    <frame tileid="137" duration="150"/>
    <frame tileid="245" duration="150"/>
    <frame tileid="353" duration="150"/>
    <frame tileid="353" duration="150"/>
    <frame tileid="353" duration="150"/>
    <frame tileid="353" duration="150"/>
    <frame tileid="461" duration="150"/>
    <frame tileid="569" duration="150"/>
   </animation>
  </tile>
  <tile id="30">
   <animation>
    <frame tileid="30" duration="150"/>
    <frame tileid="30" duration="150"/>
    <frame tileid="30" duration="150"/>
    <frame tileid="30" duration="150"/>
    <frame tileid="138" duration="150"/>
    <frame tileid="246" duration="150"/>
    <frame tileid="354" duration="150"/>
    <frame tileid="354" duration="150"/>
    <frame tileid="354" duration="150"/>
    <frame tileid="354" duration="150"/>
    <frame tileid="462" duration="150"/>
    <frame tileid="570" duration="150"/>
   </animation>
  </tile>
  <tile id="31">
   <animation>
    <frame tileid="31" duration="150"/>
    <frame tileid="31" duration="150"/>
    <frame tileid="31" duration="150"/>
    <frame tileid="31" duration="150"/>
    <frame tileid="139" duration="150"/>
    <frame tileid="247" duration="150"/>
    <frame tileid="355" duration="150"/>
    <frame tileid="355" duration="150"/>
    <frame tileid="355" duration="150"/>
    <frame tileid="355" duration="150"/>
    <frame tileid="463" duration="150"/>
    <frame tileid="571" duration="150"/>
   </animation>
  </tile>
  <tile id="32">
   <animation>
    <frame tileid="32" duration="150"/>
    <frame tileid="32" duration="150"/>
    <frame tileid="32" duration="150"/>
    <frame tileid="32" duration="150"/>
    <frame tileid="140" duration="150"/>
    <frame tileid="248" duration="150"/>
    <frame tileid="356" duration="150"/>
    <frame tileid="356" duration="150"/>
    <frame tileid="356" duration="150"/>
    <frame tileid="356" duration="150"/>
    <frame tileid="464" duration="150"/>
    <frame tileid="572" duration="150"/>
   </animation>
  </tile>
  <tile id="33">
   <animation>
    <frame tileid="33" duration="150"/>
    <frame tileid="33" duration="150"/>
    <frame tileid="33" duration="150"/>
    <frame tileid="33" duration="150"/>
    <frame tileid="141" duration="150"/>
    <frame tileid="249" duration="150"/>
    <frame tileid="357" duration="150"/>
    <frame tileid="357" duration="150"/>
    <frame tileid="357" duration="150"/>
    <frame tileid="357" duration="150"/>
    <frame tileid="465" duration="150"/>
    <frame tileid="573" duration="150"/>
   </animation>
  </tile>
  <tile id="34">
   <animation>
    <frame tileid="34" duration="150"/>
    <frame tileid="34" duration="150"/>
    <frame tileid="34" duration="150"/>
    <frame tileid="34" duration="150"/>
    <frame tileid="142" duration="150"/>
    <frame tileid="250" duration="150"/>
    <frame tileid="358" duration="150"/>
    <frame tileid="358" duration="150"/>
    <frame tileid="358" duration="150"/>
    <frame tileid="358" duration="150"/>
    <frame tileid="466" duration="150"/>
    <frame tileid="574" duration="150"/>
   </animation>
  </tile>
  <tile id="35">
   <animation>
    <frame tileid="35" duration="150"/>
    <frame tileid="35" duration="150"/>
    <frame tileid="35" duration="150"/>
    <frame tileid="35" duration="150"/>
    <frame tileid="143" duration="150"/>
    <frame tileid="251" duration="150"/>
    <frame tileid="359" duration="150"/>
    <frame tileid="359" duration="150"/>
    <frame tileid="359" duration="150"/>
    <frame tileid="359" duration="150"/>
    <frame tileid="467" duration="150"/>
    <frame tileid="575" duration="150"/>
   </animation>
  </tile>
  <tile id="36">
   <animation>
    <frame tileid="36" duration="150"/>
    <frame tileid="36" duration="150"/>
    <frame tileid="36" duration="150"/>
    <frame tileid="36" duration="150"/>
    <frame tileid="144" duration="150"/>
    <frame tileid="252" duration="150"/>
    <frame tileid="360" duration="150"/>
    <frame tileid="360" duration="150"/>
    <frame tileid="360" duration="150"/>
    <frame tileid="360" duration="150"/>
    <frame tileid="468" duration="150"/>
    <frame tileid="576" duration="150"/>
   </animation>
  </tile>
  <tile id="37">
   <animation>
    <frame tileid="37" duration="150"/>
    <frame tileid="37" duration="150"/>
    <frame tileid="37" duration="150"/>
    <frame tileid="37" duration="150"/>
    <frame tileid="145" duration="150"/>
    <frame tileid="253" duration="150"/>
    <frame tileid="361" duration="150"/>
    <frame tileid="361" duration="150"/>
    <frame tileid="361" duration="150"/>
    <frame tileid="361" duration="150"/>
    <frame tileid="469" duration="150"/>
    <frame tileid="577" duration="150"/>
   </animation>
  </tile>
  <tile id="38">
   <animation>
    <frame tileid="38" duration="150"/>
    <frame tileid="38" duration="150"/>
    <frame tileid="38" duration="150"/>
    <frame tileid="38" duration="150"/>
    <frame tileid="146" duration="150"/>
    <frame tileid="254" duration="150"/>
    <frame tileid="362" duration="150"/>
    <frame tileid="362" duration="150"/>
    <frame tileid="362" duration="150"/>
    <frame tileid="362" duration="150"/>
    <frame tileid="470" duration="150"/>
    <frame tileid="578" duration="150"/>
   </animation>
  </tile>
  <tile id="39">
   <animation>
    <frame tileid="39" duration="150"/>
    <frame tileid="39" duration="150"/>
    <frame tileid="39" duration="150"/>
    <frame tileid="39" duration="150"/>
    <frame tileid="147" duration="150"/>
    <frame tileid="255" duration="150"/>
    <frame tileid="363" duration="150"/>
    <frame tileid="363" duration="150"/>
    <frame tileid="363" duration="150"/>
    <frame tileid="363" duration="150"/>
    <frame tileid="471" duration="150"/>
    <frame tileid="579" duration="150"/>
   </animation>
  </tile>
  <tile id="40">
   <animation>
    <frame tileid="40" duration="150"/>
    <frame tileid="40" duration="150"/>
    <frame tileid="40" duration="150"/>
    <frame tileid="40" duration="150"/>
    <frame tileid="148" duration="150"/>
    <frame tileid="256" duration="150"/>
    <frame tileid="364" duration="150"/>
    <frame tileid="364" duration="150"/>
    <frame tileid="364" duration="150"/>
    <frame tileid="364" duration="150"/>
    <frame tileid="472" duration="150"/>
    <frame tileid="580" duration="150"/>
   </animation>
  </tile>
  <tile id="41">
   <animation>
    <frame tileid="41" duration="150"/>
    <frame tileid="41" duration="150"/>
    <frame tileid="41" duration="150"/>
    <frame tileid="41" duration="150"/>
    <frame tileid="149" duration="150"/>
    <frame tileid="257" duration="150"/>
    <frame tileid="365" duration="150"/>
    <frame tileid="365" duration="150"/>
    <frame tileid="365" duration="150"/>
    <frame tileid="365" duration="150"/>
    <frame tileid="473" duration="150"/>
    <frame tileid="581" duration="150"/>
   </animation>
  </tile>
  <tile id="42">
   <animation>
    <frame tileid="42" duration="150"/>
    <frame tileid="42" duration="150"/>
    <frame tileid="42" duration="150"/>
    <frame tileid="42" duration="150"/>
    <frame tileid="150" duration="150"/>
    <frame tileid="258" duration="150"/>
    <frame tileid="366" duration="150"/>
    <frame tileid="366" duration="150"/>
    <frame tileid="366" duration="150"/>
    <frame tileid="366" duration="150"/>
    <frame tileid="474" duration="150"/>
    <frame tileid="582" duration="150"/>
   </animation>
  </tile>
  <tile id="43">
   <animation>
    <frame tileid="43" duration="150"/>
    <frame tileid="43" duration="150"/>
    <frame tileid="43" duration="150"/>
    <frame tileid="43" duration="150"/>
    <frame tileid="151" duration="150"/>
    <frame tileid="259" duration="150"/>
    <frame tileid="367" duration="150"/>
    <frame tileid="367" duration="150"/>
    <frame tileid="367" duration="150"/>
    <frame tileid="367" duration="150"/>
    <frame tileid="475" duration="150"/>
    <frame tileid="583" duration="150"/>
   </animation>
  </tile>
  <tile id="44">
   <animation>
    <frame tileid="44" duration="150"/>
    <frame tileid="44" duration="150"/>
    <frame tileid="44" duration="150"/>
    <frame tileid="44" duration="150"/>
    <frame tileid="152" duration="150"/>
    <frame tileid="260" duration="150"/>
    <frame tileid="368" duration="150"/>
    <frame tileid="368" duration="150"/>
    <frame tileid="368" duration="150"/>
    <frame tileid="368" duration="150"/>
    <frame tileid="476" duration="150"/>
    <frame tileid="584" duration="150"/>
   </animation>
  </tile>
  <tile id="45">
   <animation>
    <frame tileid="45" duration="150"/>
    <frame tileid="45" duration="150"/>
    <frame tileid="45" duration="150"/>
    <frame tileid="45" duration="150"/>
    <frame tileid="153" duration="150"/>
    <frame tileid="261" duration="150"/>
    <frame tileid="369" duration="150"/>
    <frame tileid="369" duration="150"/>
    <frame tileid="369" duration="150"/>
    <frame tileid="369" duration="150"/>
    <frame tileid="477" duration="150"/>
    <frame tileid="585" duration="150"/>
   </animation>
  </tile>
  <tile id="46">
   <animation>
    <frame tileid="46" duration="150"/>
    <frame tileid="46" duration="150"/>
    <frame tileid="46" duration="150"/>
    <frame tileid="46" duration="150"/>
    <frame tileid="154" duration="150"/>
    <frame tileid="262" duration="150"/>
    <frame tileid="370" duration="150"/>
    <frame tileid="370" duration="150"/>
    <frame tileid="370" duration="150"/>
    <frame tileid="370" duration="150"/>
    <frame tileid="478" duration="150"/>
    <frame tileid="586" duration="150"/>
   </animation>
  </tile>
  <tile id="47">
   <animation>
    <frame tileid="47" duration="150"/>
    <frame tileid="47" duration="150"/>
    <frame tileid="47" duration="150"/>
    <frame tileid="47" duration="150"/>
    <frame tileid="155" duration="150"/>
    <frame tileid="263" duration="150"/>
    <frame tileid="371" duration="150"/>
    <frame tileid="371" duration="150"/>
    <frame tileid="371" duration="150"/>
    <frame tileid="371" duration="150"/>
    <frame tileid="479" duration="150"/>
    <frame tileid="587" duration="150"/>
   </animation>
  </tile>
  <tile id="48">
   <animation>
    <frame tileid="48" duration="150"/>
    <frame tileid="48" duration="150"/>
    <frame tileid="48" duration="150"/>
    <frame tileid="48" duration="150"/>
    <frame tileid="156" duration="150"/>
    <frame tileid="264" duration="150"/>
    <frame tileid="372" duration="150"/>
    <frame tileid="372" duration="150"/>
    <frame tileid="372" duration="150"/>
    <frame tileid="372" duration="150"/>
    <frame tileid="480" duration="150"/>
    <frame tileid="588" duration="150"/>
   </animation>
  </tile>
  <tile id="49">
   <animation>
    <frame tileid="49" duration="150"/>
    <frame tileid="49" duration="150"/>
    <frame tileid="49" duration="150"/>
    <frame tileid="49" duration="150"/>
    <frame tileid="157" duration="150"/>
    <frame tileid="265" duration="150"/>
    <frame tileid="373" duration="150"/>
    <frame tileid="373" duration="150"/>
    <frame tileid="373" duration="150"/>
    <frame tileid="373" duration="150"/>
    <frame tileid="481" duration="150"/>
    <frame tileid="589" duration="150"/>
   </animation>
  </tile>
  <tile id="50">
   <animation>
    <frame tileid="50" duration="150"/>
    <frame tileid="50" duration="150"/>
    <frame tileid="50" duration="150"/>
    <frame tileid="50" duration="150"/>
    <frame tileid="158" duration="150"/>
    <frame tileid="266" duration="150"/>
    <frame tileid="374" duration="150"/>
    <frame tileid="374" duration="150"/>
    <frame tileid="374" duration="150"/>
    <frame tileid="374" duration="150"/>
    <frame tileid="482" duration="150"/>
    <frame tileid="590" duration="150"/>
   </animation>
  </tile>
  <tile id="51">
   <animation>
    <frame tileid="51" duration="150"/>
    <frame tileid="51" duration="150"/>
    <frame tileid="51" duration="150"/>
    <frame tileid="51" duration="150"/>
    <frame tileid="159" duration="150"/>
    <frame tileid="267" duration="150"/>
    <frame tileid="375" duration="150"/>
    <frame tileid="375" duration="150"/>
    <frame tileid="375" duration="150"/>
    <frame tileid="375" duration="150"/>
    <frame tileid="483" duration="150"/>
    <frame tileid="591" duration="150"/>
   </animation>
  </tile>
  <tile id="52">
   <animation>
    <frame tileid="52" duration="150"/>
    <frame tileid="52" duration="150"/>
    <frame tileid="52" duration="150"/>
    <frame tileid="52" duration="150"/>
    <frame tileid="160" duration="150"/>
    <frame tileid="268" duration="150"/>
    <frame tileid="376" duration="150"/>
    <frame tileid="376" duration="150"/>
    <frame tileid="376" duration="150"/>
    <frame tileid="376" duration="150"/>
    <frame tileid="484" duration="150"/>
    <frame tileid="592" duration="150"/>
   </animation>
  </tile>
  <tile id="53">
   <animation>
    <frame tileid="53" duration="150"/>
    <frame tileid="53" duration="150"/>
    <frame tileid="53" duration="150"/>
    <frame tileid="53" duration="150"/>
    <frame tileid="161" duration="150"/>
    <frame tileid="269" duration="150"/>
    <frame tileid="377" duration="150"/>
    <frame tileid="377" duration="150"/>
    <frame tileid="377" duration="150"/>
    <frame tileid="377" duration="150"/>
    <frame tileid="485" duration="150"/>
    <frame tileid="593" duration="150"/>
   </animation>
  </tile>
  <tile id="54">
   <animation>
    <frame tileid="54" duration="150"/>
    <frame tileid="54" duration="150"/>
    <frame tileid="54" duration="150"/>
    <frame tileid="54" duration="150"/>
    <frame tileid="162" duration="150"/>
    <frame tileid="270" duration="150"/>
    <frame tileid="378" duration="150"/>
    <frame tileid="378" duration="150"/>
    <frame tileid="378" duration="150"/>
    <frame tileid="378" duration="150"/>
    <frame tileid="486" duration="150"/>
    <frame tileid="594" duration="150"/>
   </animation>
  </tile>
  <tile id="55">
   <animation>
    <frame tileid="55" duration="150"/>
    <frame tileid="55" duration="150"/>
    <frame tileid="55" duration="150"/>
    <frame tileid="55" duration="150"/>
    <frame tileid="163" duration="150"/>
    <frame tileid="271" duration="150"/>
    <frame tileid="379" duration="150"/>
    <frame tileid="379" duration="150"/>
    <frame tileid="379" duration="150"/>
    <frame tileid="379" duration="150"/>
    <frame tileid="487" duration="150"/>
    <frame tileid="595" duration="150"/>
   </animation>
  </tile>
  <tile id="56">
   <animation>
    <frame tileid="56" duration="150"/>
    <frame tileid="56" duration="150"/>
    <frame tileid="56" duration="150"/>
    <frame tileid="56" duration="150"/>
    <frame tileid="164" duration="150"/>
    <frame tileid="272" duration="150"/>
    <frame tileid="380" duration="150"/>
    <frame tileid="380" duration="150"/>
    <frame tileid="380" duration="150"/>
    <frame tileid="380" duration="150"/>
    <frame tileid="488" duration="150"/>
    <frame tileid="596" duration="150"/>
   </animation>
  </tile>
  <tile id="57">
   <animation>
    <frame tileid="57" duration="150"/>
    <frame tileid="57" duration="150"/>
    <frame tileid="57" duration="150"/>
    <frame tileid="57" duration="150"/>
    <frame tileid="165" duration="150"/>
    <frame tileid="273" duration="150"/>
    <frame tileid="381" duration="150"/>
    <frame tileid="381" duration="150"/>
    <frame tileid="381" duration="150"/>
    <frame tileid="381" duration="150"/>
    <frame tileid="489" duration="150"/>
    <frame tileid="597" duration="150"/>
   </animation>
  </tile>
  <tile id="58">
   <animation>
    <frame tileid="58" duration="150"/>
    <frame tileid="58" duration="150"/>
    <frame tileid="58" duration="150"/>
    <frame tileid="58" duration="150"/>
    <frame tileid="166" duration="150"/>
    <frame tileid="274" duration="150"/>
    <frame tileid="382" duration="150"/>
    <frame tileid="382" duration="150"/>
    <frame tileid="382" duration="150"/>
    <frame tileid="382" duration="150"/>
    <frame tileid="490" duration="150"/>
    <frame tileid="598" duration="150"/>
   </animation>
  </tile>
  <tile id="59">
   <animation>
    <frame tileid="59" duration="150"/>
    <frame tileid="59" duration="150"/>
    <frame tileid="59" duration="150"/>
    <frame tileid="59" duration="150"/>
    <frame tileid="167" duration="150"/>
    <frame tileid="275" duration="150"/>
    <frame tileid="383" duration="150"/>
    <frame tileid="383" duration="150"/>
    <frame tileid="383" duration="150"/>
    <frame tileid="383" duration="150"/>
    <frame tileid="491" duration="150"/>
    <frame tileid="599" duration="150"/>
   </animation>
  </tile>
  <tile id="60">
   <animation>
    <frame tileid="60" duration="150"/>
    <frame tileid="60" duration="150"/>
    <frame tileid="60" duration="150"/>
    <frame tileid="60" duration="150"/>
    <frame tileid="168" duration="150"/>
    <frame tileid="276" duration="150"/>
    <frame tileid="384" duration="150"/>
    <frame tileid="384" duration="150"/>
    <frame tileid="384" duration="150"/>
    <frame tileid="384" duration="150"/>
    <frame tileid="492" duration="150"/>
    <frame tileid="600" duration="150"/>
   </animation>
  </tile>
  <tile id="61">
   <animation>
    <frame tileid="61" duration="150"/>
    <frame tileid="61" duration="150"/>
    <frame tileid="61" duration="150"/>
    <frame tileid="61" duration="150"/>
    <frame tileid="169" duration="150"/>
    <frame tileid="277" duration="150"/>
    <frame tileid="385" duration="150"/>
    <frame tileid="385" duration="150"/>
    <frame tileid="385" duration="150"/>
    <frame tileid="385" duration="150"/>
    <frame tileid="493" duration="150"/>
    <frame tileid="601" duration="150"/>
   </animation>
  </tile>
  <tile id="62">
   <animation>
    <frame tileid="62" duration="150"/>
    <frame tileid="62" duration="150"/>
    <frame tileid="62" duration="150"/>
    <frame tileid="62" duration="150"/>
    <frame tileid="170" duration="150"/>
    <frame tileid="278" duration="150"/>
    <frame tileid="386" duration="150"/>
    <frame tileid="386" duration="150"/>
    <frame tileid="386" duration="150"/>
    <frame tileid="386" duration="150"/>
    <frame tileid="494" duration="150"/>
    <frame tileid="602" duration="150"/>
   </animation>
  </tile>
  <tile id="63">
   <animation>
    <frame tileid="63" duration="150"/>
    <frame tileid="63" duration="150"/>
    <frame tileid="63" duration="150"/>
    <frame tileid="63" duration="150"/>
    <frame tileid="171" duration="150"/>
    <frame tileid="279" duration="150"/>
    <frame tileid="387" duration="150"/>
    <frame tileid="387" duration="150"/>
    <frame tileid="387" duration="150"/>
    <frame tileid="387" duration="150"/>
    <frame tileid="495" duration="150"/>
    <frame tileid="603" duration="150"/>
   </animation>
  </tile>
  <tile id="64">
   <animation>
    <frame tileid="64" duration="150"/>
    <frame tileid="64" duration="150"/>
    <frame tileid="64" duration="150"/>
    <frame tileid="64" duration="150"/>
    <frame tileid="172" duration="150"/>
    <frame tileid="280" duration="150"/>
    <frame tileid="388" duration="150"/>
    <frame tileid="388" duration="150"/>
    <frame tileid="388" duration="150"/>
    <frame tileid="388" duration="150"/>
    <frame tileid="496" duration="150"/>
    <frame tileid="604" duration="150"/>
   </animation>
  </tile>
  <tile id="65">
   <animation>
    <frame tileid="65" duration="150"/>
    <frame tileid="65" duration="150"/>
    <frame tileid="65" duration="150"/>
    <frame tileid="65" duration="150"/>
    <frame tileid="173" duration="150"/>
    <frame tileid="281" duration="150"/>
    <frame tileid="389" duration="150"/>
    <frame tileid="389" duration="150"/>
    <frame tileid="389" duration="150"/>
    <frame tileid="389" duration="150"/>
    <frame tileid="497" duration="150"/>
    <frame tileid="605" duration="150"/>
   </animation>
  </tile>
  <tile id="66">
   <animation>
    <frame tileid="66" duration="150"/>
    <frame tileid="66" duration="150"/>
    <frame tileid="66" duration="150"/>
    <frame tileid="66" duration="150"/>
    <frame tileid="174" duration="150"/>
    <frame tileid="282" duration="150"/>
    <frame tileid="390" duration="150"/>
    <frame tileid="390" duration="150"/>
    <frame tileid="390" duration="150"/>
    <frame tileid="390" duration="150"/>
    <frame tileid="498" duration="150"/>
    <frame tileid="606" duration="150"/>
   </animation>
  </tile>
  <tile id="67">
   <animation>
    <frame tileid="67" duration="150"/>
    <frame tileid="67" duration="150"/>
    <frame tileid="67" duration="150"/>
    <frame tileid="67" duration="150"/>
    <frame tileid="175" duration="150"/>
    <frame tileid="283" duration="150"/>
    <frame tileid="391" duration="150"/>
    <frame tileid="391" duration="150"/>
    <frame tileid="391" duration="150"/>
    <frame tileid="391" duration="150"/>
    <frame tileid="499" duration="150"/>
    <frame tileid="607" duration="150"/>
   </animation>
  </tile>
  <tile id="68">
   <animation>
    <frame tileid="68" duration="150"/>
    <frame tileid="68" duration="150"/>
    <frame tileid="68" duration="150"/>
    <frame tileid="68" duration="150"/>
    <frame tileid="176" duration="150"/>
    <frame tileid="284" duration="150"/>
    <frame tileid="392" duration="150"/>
    <frame tileid="392" duration="150"/>
    <frame tileid="392" duration="150"/>
    <frame tileid="392" duration="150"/>
    <frame tileid="500" duration="150"/>
    <frame tileid="608" duration="150"/>
   </animation>
  </tile>
  <tile id="69">
   <animation>
    <frame tileid="69" duration="150"/>
    <frame tileid="69" duration="150"/>
    <frame tileid="69" duration="150"/>
    <frame tileid="69" duration="150"/>
    <frame tileid="177" duration="150"/>
    <frame tileid="285" duration="150"/>
    <frame tileid="393" duration="150"/>
    <frame tileid="393" duration="150"/>
    <frame tileid="393" duration="150"/>
    <frame tileid="393" duration="150"/>
    <frame tileid="501" duration="150"/>
    <frame tileid="609" duration="150"/>
   </animation>
  </tile>
  <tile id="72">
   <animation>
    <frame tileid="72" duration="150"/>
    <frame tileid="72" duration="150"/>
    <frame tileid="72" duration="150"/>
    <frame tileid="72" duration="150"/>
    <frame tileid="180" duration="150"/>
    <frame tileid="288" duration="150"/>
    <frame tileid="396" duration="150"/>
    <frame tileid="396" duration="150"/>
    <frame tileid="396" duration="150"/>
    <frame tileid="396" duration="150"/>
    <frame tileid="504" duration="150"/>
    <frame tileid="612" duration="150"/>
   </animation>
  </tile>
  <tile id="73">
   <animation>
    <frame tileid="73" duration="150"/>
    <frame tileid="73" duration="150"/>
    <frame tileid="73" duration="150"/>
    <frame tileid="73" duration="150"/>
    <frame tileid="181" duration="150"/>
    <frame tileid="289" duration="150"/>
    <frame tileid="397" duration="150"/>
    <frame tileid="397" duration="150"/>
    <frame tileid="397" duration="150"/>
    <frame tileid="397" duration="150"/>
    <frame tileid="505" duration="150"/>
    <frame tileid="613" duration="150"/>
   </animation>
  </tile>
  <tile id="74">
   <animation>
    <frame tileid="74" duration="150"/>
    <frame tileid="74" duration="150"/>
    <frame tileid="74" duration="150"/>
    <frame tileid="74" duration="150"/>
    <frame tileid="182" duration="150"/>
    <frame tileid="290" duration="150"/>
    <frame tileid="398" duration="150"/>
    <frame tileid="398" duration="150"/>
    <frame tileid="398" duration="150"/>
    <frame tileid="398" duration="150"/>
    <frame tileid="506" duration="150"/>
    <frame tileid="614" duration="150"/>
   </animation>
  </tile>
  <tile id="75">
   <animation>
    <frame tileid="75" duration="150"/>
    <frame tileid="75" duration="150"/>
    <frame tileid="75" duration="150"/>
    <frame tileid="75" duration="150"/>
    <frame tileid="183" duration="150"/>
    <frame tileid="291" duration="150"/>
    <frame tileid="399" duration="150"/>
    <frame tileid="399" duration="150"/>
    <frame tileid="399" duration="150"/>
    <frame tileid="399" duration="150"/>
    <frame tileid="507" duration="150"/>
    <frame tileid="615" duration="150"/>
   </animation>
  </tile>
  <tile id="76">
   <animation>
    <frame tileid="76" duration="150"/>
    <frame tileid="76" duration="150"/>
    <frame tileid="76" duration="150"/>
    <frame tileid="76" duration="150"/>
    <frame tileid="184" duration="150"/>
    <frame tileid="292" duration="150"/>
    <frame tileid="400" duration="150"/>
    <frame tileid="400" duration="150"/>
    <frame tileid="400" duration="150"/>
    <frame tileid="400" duration="150"/>
    <frame tileid="508" duration="150"/>
    <frame tileid="616" duration="150"/>
   </animation>
  </tile>
  <tile id="77">
   <animation>
    <frame tileid="77" duration="150"/>
    <frame tileid="77" duration="150"/>
    <frame tileid="77" duration="150"/>
    <frame tileid="77" duration="150"/>
    <frame tileid="185" duration="150"/>
    <frame tileid="293" duration="150"/>
    <frame tileid="401" duration="150"/>
    <frame tileid="401" duration="150"/>
    <frame tileid="401" duration="150"/>
    <frame tileid="401" duration="150"/>
    <frame tileid="509" duration="150"/>
    <frame tileid="617" duration="150"/>
   </animation>
  </tile>
  <tile id="78">
   <animation>
    <frame tileid="78" duration="150"/>
    <frame tileid="78" duration="150"/>
    <frame tileid="78" duration="150"/>
    <frame tileid="78" duration="150"/>
    <frame tileid="186" duration="150"/>
    <frame tileid="294" duration="150"/>
    <frame tileid="402" duration="150"/>
    <frame tileid="402" duration="150"/>
    <frame tileid="402" duration="150"/>
    <frame tileid="402" duration="150"/>
    <frame tileid="510" duration="150"/>
    <frame tileid="618" duration="150"/>
   </animation>
  </tile>
  <tile id="79">
   <animation>
    <frame tileid="79" duration="150"/>
    <frame tileid="79" duration="150"/>
    <frame tileid="79" duration="150"/>
    <frame tileid="79" duration="150"/>
    <frame tileid="187" duration="150"/>
    <frame tileid="295" duration="150"/>
    <frame tileid="403" duration="150"/>
    <frame tileid="403" duration="150"/>
    <frame tileid="403" duration="150"/>
    <frame tileid="403" duration="150"/>
    <frame tileid="511" duration="150"/>
    <frame tileid="619" duration="150"/>
   </animation>
  </tile>
  <tile id="80">
   <animation>
    <frame tileid="80" duration="150"/>
    <frame tileid="80" duration="150"/>
    <frame tileid="80" duration="150"/>
    <frame tileid="80" duration="150"/>
    <frame tileid="188" duration="150"/>
    <frame tileid="296" duration="150"/>
    <frame tileid="404" duration="150"/>
    <frame tileid="404" duration="150"/>
    <frame tileid="404" duration="150"/>
    <frame tileid="404" duration="150"/>
    <frame tileid="512" duration="150"/>
    <frame tileid="620" duration="150"/>
   </animation>
  </tile>
  <tile id="81">
   <animation>
    <frame tileid="81" duration="150"/>
    <frame tileid="81" duration="150"/>
    <frame tileid="81" duration="150"/>
    <frame tileid="81" duration="150"/>
    <frame tileid="189" duration="150"/>
    <frame tileid="297" duration="150"/>
    <frame tileid="405" duration="150"/>
    <frame tileid="405" duration="150"/>
    <frame tileid="405" duration="150"/>
    <frame tileid="405" duration="150"/>
    <frame tileid="513" duration="150"/>
    <frame tileid="621" duration="150"/>
   </animation>
  </tile>
  <tile id="82">
   <animation>
    <frame tileid="82" duration="150"/>
    <frame tileid="82" duration="150"/>
    <frame tileid="82" duration="150"/>
    <frame tileid="82" duration="150"/>
    <frame tileid="190" duration="150"/>
    <frame tileid="298" duration="150"/>
    <frame tileid="406" duration="150"/>
    <frame tileid="406" duration="150"/>
    <frame tileid="406" duration="150"/>
    <frame tileid="406" duration="150"/>
    <frame tileid="514" duration="150"/>
    <frame tileid="622" duration="150"/>
   </animation>
  </tile>
  <tile id="83">
   <animation>
    <frame tileid="83" duration="150"/>
    <frame tileid="83" duration="150"/>
    <frame tileid="83" duration="150"/>
    <frame tileid="83" duration="150"/>
    <frame tileid="191" duration="150"/>
    <frame tileid="299" duration="150"/>
    <frame tileid="407" duration="150"/>
    <frame tileid="407" duration="150"/>
    <frame tileid="407" duration="150"/>
    <frame tileid="407" duration="150"/>
    <frame tileid="515" duration="150"/>
    <frame tileid="623" duration="150"/>
   </animation>
  </tile>
  <tile id="84">
   <animation>
    <frame tileid="84" duration="150"/>
    <frame tileid="84" duration="150"/>
    <frame tileid="84" duration="150"/>
    <frame tileid="84" duration="150"/>
    <frame tileid="192" duration="150"/>
    <frame tileid="300" duration="150"/>
    <frame tileid="408" duration="150"/>
    <frame tileid="408" duration="150"/>
    <frame tileid="408" duration="150"/>
    <frame tileid="408" duration="150"/>
    <frame tileid="516" duration="150"/>
    <frame tileid="624" duration="150"/>
   </animation>
  </tile>
  <tile id="85">
   <animation>
    <frame tileid="85" duration="150"/>
    <frame tileid="85" duration="150"/>
    <frame tileid="85" duration="150"/>
    <frame tileid="85" duration="150"/>
    <frame tileid="193" duration="150"/>
    <frame tileid="301" duration="150"/>
    <frame tileid="409" duration="150"/>
    <frame tileid="409" duration="150"/>
    <frame tileid="409" duration="150"/>
    <frame tileid="409" duration="150"/>
    <frame tileid="517" duration="150"/>
    <frame tileid="625" duration="150"/>
   </animation>
  </tile>
  <tile id="86">
   <animation>
    <frame tileid="86" duration="150"/>
    <frame tileid="86" duration="150"/>
    <frame tileid="86" duration="150"/>
    <frame tileid="86" duration="150"/>
    <frame tileid="194" duration="150"/>
    <frame tileid="302" duration="150"/>
    <frame tileid="410" duration="150"/>
    <frame tileid="410" duration="150"/>
    <frame tileid="410" duration="150"/>
    <frame tileid="410" duration="150"/>
    <frame tileid="518" duration="150"/>
    <frame tileid="626" duration="150"/>
   </animation>
  </tile>
  <tile id="87">
   <animation>
    <frame tileid="87" duration="150"/>
    <frame tileid="87" duration="150"/>
    <frame tileid="87" duration="150"/>
    <frame tileid="87" duration="150"/>
    <frame tileid="195" duration="150"/>
    <frame tileid="303" duration="150"/>
    <frame tileid="411" duration="150"/>
    <frame tileid="411" duration="150"/>
    <frame tileid="411" duration="150"/>
    <frame tileid="411" duration="150"/>
    <frame tileid="519" duration="150"/>
    <frame tileid="627" duration="150"/>
   </animation>
  </tile>
  <tile id="90">
   <animation>
    <frame tileid="90" duration="150"/>
    <frame tileid="90" duration="150"/>
    <frame tileid="90" duration="150"/>
    <frame tileid="90" duration="150"/>
    <frame tileid="198" duration="150"/>
    <frame tileid="306" duration="150"/>
    <frame tileid="414" duration="150"/>
    <frame tileid="414" duration="150"/>
    <frame tileid="414" duration="150"/>
    <frame tileid="414" duration="150"/>
    <frame tileid="522" duration="150"/>
    <frame tileid="630" duration="150"/>
   </animation>
  </tile>
  <tile id="91">
   <animation>
    <frame tileid="91" duration="150"/>
    <frame tileid="91" duration="150"/>
    <frame tileid="91" duration="150"/>
    <frame tileid="91" duration="150"/>
    <frame tileid="199" duration="150"/>
    <frame tileid="307" duration="150"/>
    <frame tileid="415" duration="150"/>
    <frame tileid="415" duration="150"/>
    <frame tileid="415" duration="150"/>
    <frame tileid="415" duration="150"/>
    <frame tileid="523" duration="150"/>
    <frame tileid="631" duration="150"/>
   </animation>
  </tile>
  <tile id="92">
   <animation>
    <frame tileid="92" duration="150"/>
    <frame tileid="92" duration="150"/>
    <frame tileid="92" duration="150"/>
    <frame tileid="92" duration="150"/>
    <frame tileid="200" duration="150"/>
    <frame tileid="308" duration="150"/>
    <frame tileid="416" duration="150"/>
    <frame tileid="416" duration="150"/>
    <frame tileid="416" duration="150"/>
    <frame tileid="416" duration="150"/>
    <frame tileid="524" duration="150"/>
    <frame tileid="632" duration="150"/>
   </animation>
  </tile>
  <tile id="93">
   <animation>
    <frame tileid="93" duration="150"/>
    <frame tileid="93" duration="150"/>
    <frame tileid="93" duration="150"/>
    <frame tileid="93" duration="150"/>
    <frame tileid="201" duration="150"/>
    <frame tileid="309" duration="150"/>
    <frame tileid="417" duration="150"/>
    <frame tileid="417" duration="150"/>
    <frame tileid="417" duration="150"/>
    <frame tileid="417" duration="150"/>
    <frame tileid="525" duration="150"/>
    <frame tileid="633" duration="150"/>
   </animation>
  </tile>
  <tile id="94">
   <animation>
    <frame tileid="94" duration="150"/>
    <frame tileid="94" duration="150"/>
    <frame tileid="94" duration="150"/>
    <frame tileid="94" duration="150"/>
    <frame tileid="202" duration="150"/>
    <frame tileid="310" duration="150"/>
    <frame tileid="418" duration="150"/>
    <frame tileid="418" duration="150"/>
    <frame tileid="418" duration="150"/>
    <frame tileid="418" duration="150"/>
    <frame tileid="526" duration="150"/>
    <frame tileid="634" duration="150"/>
   </animation>
  </tile>
  <tile id="95">
   <animation>
    <frame tileid="95" duration="150"/>
    <frame tileid="95" duration="150"/>
    <frame tileid="95" duration="150"/>
    <frame tileid="95" duration="150"/>
    <frame tileid="203" duration="150"/>
    <frame tileid="311" duration="150"/>
    <frame tileid="419" duration="150"/>
    <frame tileid="419" duration="150"/>
    <frame tileid="419" duration="150"/>
    <frame tileid="419" duration="150"/>
    <frame tileid="527" duration="150"/>
    <frame tileid="635" duration="150"/>
   </animation>
  </tile>
  <tile id="96">
   <animation>
    <frame tileid="96" duration="150"/>
    <frame tileid="96" duration="150"/>
    <frame tileid="96" duration="150"/>
    <frame tileid="96" duration="150"/>
    <frame tileid="204" duration="150"/>
    <frame tileid="312" duration="150"/>
    <frame tileid="420" duration="150"/>
    <frame tileid="420" duration="150"/>
    <frame tileid="420" duration="150"/>
    <frame tileid="420" duration="150"/>
    <frame tileid="528" duration="150"/>
    <frame tileid="636" duration="150"/>
   </animation>
  </tile>
  <tile id="97">
   <animation>
    <frame tileid="97" duration="150"/>
    <frame tileid="97" duration="150"/>
    <frame tileid="97" duration="150"/>
    <frame tileid="97" duration="150"/>
    <frame tileid="205" duration="150"/>
    <frame tileid="313" duration="150"/>
    <frame tileid="421" duration="150"/>
    <frame tileid="421" duration="150"/>
    <frame tileid="421" duration="150"/>
    <frame tileid="421" duration="150"/>
    <frame tileid="529" duration="150"/>
    <frame tileid="637" duration="150"/>
   </animation>
  </tile>
  <tile id="98">
   <animation>
    <frame tileid="98" duration="150"/>
    <frame tileid="98" duration="150"/>
    <frame tileid="98" duration="150"/>
    <frame tileid="98" duration="150"/>
    <frame tileid="206" duration="150"/>
    <frame tileid="314" duration="150"/>
    <frame tileid="422" duration="150"/>
    <frame tileid="422" duration="150"/>
    <frame tileid="422" duration="150"/>
    <frame tileid="422" duration="150"/>
    <frame tileid="530" duration="150"/>
    <frame tileid="638" duration="150"/>
   </animation>
  </tile>
  <tile id="99">
   <animation>
    <frame tileid="99" duration="150"/>
    <frame tileid="99" duration="150"/>
    <frame tileid="99" duration="150"/>
    <frame tileid="99" duration="150"/>
    <frame tileid="207" duration="150"/>
    <frame tileid="315" duration="150"/>
    <frame tileid="423" duration="150"/>
    <frame tileid="423" duration="150"/>
    <frame tileid="423" duration="150"/>
    <frame tileid="423" duration="150"/>
    <frame tileid="531" duration="150"/>
    <frame tileid="639" duration="150"/>
   </animation>
  </tile>
 </tileset>
 <layer id="4" name="ground" width="16" height="24">
  <data encoding="csv">
   <chunk x="-16" y="-16" width="16" height="16">
0,0,0,0,0,0,0,0,0,0,0,0,0,0,0,0,
0,0,0,0,0,0,0,0,0,0,0,0,0,0,0,0,
0,0,0,0,0,0,0,0,0,0,0,0,0,0,0,0,
0,0,0,0,0,0,0,0,0,0,0,0,0,0,0,0,
0,0,0,0,0,0,0,0,0,0,0,0,0,0,0,0,
0,0,0,0,0,0,0,0,0,0,0,0,0,0,0,0,
0,0,0,0,0,0,0,0,0,0,0,0,0,0,0,0,
0,0,0,0,0,0,0,0,0,0,0,0,0,0,0,0,
0,0,0,0,0,0,0,0,0,0,0,0,0,0,0,0,
327,327,327,327,327,327,327,327,327,327,327,327,327,327,327,327,
327,327,327,327,327,327,327,327,327,327,327,327,327,327,327,327,
327,327,327,327,327,327,327,327,327,327,327,327,327,327,327,327,
327,327,327,327,327,327,327,327,327,327,327,327,327,327,327,327,
327,327,327,327,327,327,327,327,327,327,327,327,327,327,327,327,
327,327,327,327,311,312,288,291,312,362,365,359,362,291,365,365,
327,327,327,327,332,333,242,243,244,242,243,244,242,243,244,242
</chunk>
   <chunk x="0" y="-16" width="16" height="16">
0,0,0,0,0,0,0,0,0,0,0,0,0,0,0,0,
0,0,0,0,0,0,0,0,0,0,0,0,0,0,0,0,
0,0,0,0,0,0,0,0,0,0,0,0,0,0,0,0,
0,0,0,0,0,0,0,0,0,0,0,0,0,0,0,0,
0,0,0,0,0,0,0,0,0,0,0,0,0,0,0,0,
0,0,0,0,0,0,0,0,0,0,0,0,0,0,0,0,
0,0,0,0,0,0,0,0,0,0,0,0,0,0,0,0,
0,0,0,0,0,0,0,0,0,0,0,0,0,0,0,0,
0,0,0,0,0,0,0,0,0,0,0,0,0,0,0,0,
327,327,327,327,327,327,327,327,327,327,327,327,327,327,327,327,
327,327,327,327,327,327,327,327,327,327,327,327,327,327,327,327,
327,327,327,327,327,327,327,327,327,327,327,327,327,327,327,327,
327,327,327,327,327,327,327,327,327,327,327,327,327,327,327,327,
327,327,327,327,327,327,327,327,327,327,327,327,327,327,327,327,
359,362,351,348,312,351,348,288,291,312,351,359,365,366,327,327,
243,244,242,243,242,243,244,242,243,242,243,244,365,366,327,327
</chunk>
   <chunk x="16" y="-16" width="16" height="16">
0,0,0,0,0,0,0,0,0,0,0,0,0,0,0,0,
0,0,0,0,0,0,0,0,0,0,0,0,0,0,0,0,
0,0,0,0,0,0,0,0,0,0,0,0,0,0,0,0,
0,0,0,0,0,0,0,0,0,0,0,0,0,0,0,0,
0,0,0,0,0,0,0,0,0,0,0,0,0,0,0,0,
0,0,0,0,0,0,0,0,0,0,0,0,0,0,0,0,
0,0,0,0,0,0,0,0,0,0,0,0,0,0,0,0,
0,0,0,0,0,0,0,0,0,0,0,0,0,0,0,0,
0,0,0,0,0,0,0,0,0,0,0,0,0,0,0,0,
327,327,0,0,0,0,0,0,0,0,0,0,0,0,0,0,
327,327,0,0,0,0,0,0,0,0,0,0,0,0,0,0,
327,327,0,0,0,0,0,0,0,0,0,0,0,0,0,0,
327,327,0,0,0,0,0,0,0,0,0,0,0,0,0,0,
327,327,0,0,0,0,0,0,0,0,0,0,0,0,0,0,
327,327,0,0,0,0,0,0,0,0,0,0,0,0,0,0,
327,327,0,0,0,0,0,0,0,0,0,0,0,0,0,0
</chunk>
   <chunk x="-16" y="0" width="16" height="16">
327,327,327,327,328,242,263,264,265,263,264,265,263,264,265,263,
327,327,327,327,385,263,284,285,286,284,285,286,284,285,286,284,
327,327,327,327,382,284,285,286,0,0,284,285,286,242,243,244,
327,327,327,327,379,242,243,244,0,0,242,243,244,263,264,265,
327,327,327,327,331,263,264,265,0,0,263,264,265,284,285,286,
327,327,327,327,328,284,285,286,0,0,284,285,286,0,0,249,
327,327,327,327,385,242,243,244,0,0,0,0,0,284,386,387,
327,327,327,327,382,242,243,244,0,0,0,0,245,246,407,408,
327,327,327,327,379,263,264,265,243,244,264,265,266,267,327,327,
327,327,327,327,328,284,285,286,264,265,264,245,327,327,327,327,
327,327,327,327,382,242,243,244,242,243,242,243,244,327,327,327,
327,327,327,327,403,263,264,265,263,264,263,264,265,327,327,327,
327,327,327,327,327,284,285,286,284,285,284,285,286,263,264,408,
327,327,327,327,403,404,401,401,404,249,401,402,246,249,327,327,
0,0,0,0,0,0,0,0,0,0,0,0,0,0,0,0,
0,0,0,0,0,0,0,0,0,0,0,0,0,0,0,0
</chunk>
   <chunk x="0" y="0" width="16" height="16">
264,265,263,264,263,264,265,263,264,263,264,265,386,387,327,327,
285,286,284,285,284,285,286,284,285,284,285,286,244,387,327,327,
242,243,244,242,243,244,284,285,286,0,263,264,265,326,327,327,
263,264,265,263,264,265,284,285,286,0,284,285,286,329,327,327,
284,285,286,284,285,286,0,0,0,0,242,243,244,334,327,327,
246,309,249,0,0,0,0,0,0,0,263,264,265,266,327,327,
327,327,382,383,285,0,0,0,0,0,284,285,286,269,327,327,
327,327,403,404,249,250,0,0,0,0,242,243,244,266,327,327,
327,327,327,327,270,271,265,264,242,242,263,264,265,384,327,327,
327,327,327,327,327,327,247,264,263,263,284,285,286,334,327,327,
327,327,327,327,327,242,243,244,243,244,242,243,244,387,327,327,
327,327,327,327,327,263,264,265,264,265,263,264,265,408,327,327,
327,327,332,263,264,284,285,286,285,286,284,285,286,327,327,327,
327,327,327,353,354,327,406,407,306,246,404,401,407,408,327,327,
0,0,0,0,0,0,0,0,0,0,0,0,0,0,0,0,
0,0,0,0,0,0,0,0,0,0,0,0,0,0,0,0
</chunk>
   <chunk x="16" y="0" width="16" height="16">
327,327,0,0,0,0,0,0,0,0,0,0,0,0,0,0,
327,327,0,0,0,0,0,0,0,0,0,0,0,0,0,0,
327,327,0,0,0,0,0,0,0,0,0,0,0,0,0,0,
327,327,0,0,0,0,0,0,0,0,0,0,0,0,0,0,
327,327,0,0,0,0,0,0,0,0,0,0,0,0,0,0,
327,327,0,0,0,0,0,0,0,0,0,0,0,0,0,0,
327,327,0,0,0,0,0,0,0,0,0,0,0,0,0,0,
327,327,0,0,0,0,0,0,0,0,0,0,0,0,0,0,
327,327,0,0,0,0,0,0,0,0,0,0,0,0,0,0,
327,327,0,0,0,0,0,0,0,0,0,0,0,0,0,0,
327,327,0,0,0,0,0,0,0,0,0,0,0,0,0,0,
327,327,0,0,0,0,0,0,0,0,0,0,0,0,0,0,
327,327,0,0,0,0,0,0,0,0,0,0,0,0,0,0,
327,327,0,0,0,0,0,0,0,0,0,0,0,0,0,0,
0,0,0,0,0,0,0,0,0,0,0,0,0,0,0,0,
0,0,0,0,0,0,0,0,0,0,0,0,0,0,0,0
</chunk>
  </data>
 </layer>
 <layer id="6" name="ground_details" width="16" height="24">
  <data encoding="csv">
   <chunk x="-16" y="-16" width="16" height="16">
0,0,0,0,0,0,0,0,0,0,0,0,0,0,0,0,
0,0,0,0,0,0,0,0,0,0,0,0,0,0,0,0,
0,0,0,0,0,0,0,0,0,0,0,0,0,0,0,0,
0,0,0,0,0,0,0,0,0,0,0,0,0,0,0,0,
0,0,0,0,0,0,0,0,0,0,0,0,0,0,0,0,
0,0,0,0,0,0,0,0,0,0,0,0,0,0,0,0,
0,0,0,0,0,0,0,0,0,0,0,0,0,0,0,0,
0,0,0,0,0,0,0,0,0,0,0,0,0,0,0,0,
0,0,0,0,0,0,0,0,0,0,0,0,0,0,0,0,
0,0,0,0,0,0,0,0,0,0,0,0,0,0,0,0,
0,0,0,0,0,0,0,0,0,0,0,0,336,0,0,373,
0,0,0,0,0,0,0,0,0,0,251,252,0,0,0,0,
0,0,0,0,251,252,0,251,252,0,272,273,0,0,0,0,
0,0,0,0,272,273,374,272,273,0,0,0,0,0,0,0,
0,0,0,0,0,0,0,0,0,0,0,0,0,0,0,0,
0,0,0,0,0,0,0,0,0,0,0,0,0,0,0,0
</chunk>
   <chunk x="0" y="-16" width="16" height="16">
0,0,0,0,0,0,0,0,0,0,0,0,0,0,0,0,
0,0,0,0,0,0,0,0,0,0,0,0,0,0,0,0,
0,0,0,0,0,0,0,0,0,0,0,0,0,0,0,0,
0,0,0,0,0,0,0,0,0,0,0,0,0,0,0,0,
0,0,0,0,0,0,0,0,0,0,0,0,0,0,0,0,
0,0,0,0,0,0,0,0,0,0,0,0,0,0,0,0,
0,0,0,0,0,0,0,0,0,0,0,0,0,0,0,0,
0,0,0,0,0,0,0,0,0,0,0,0,0,0,0,0,
0,0,0,0,0,0,0,0,0,0,0,0,0,0,0,0,
0,0,0,0,0,0,0,0,0,0,0,0,0,0,0,0,
375,0,357,0,0,0,0,0,0,0,0,0,0,0,0,0,
0,0,0,0,293,294,377,378,0,0,0,0,0,0,0,0,
0,0,0,0,0,0,251,252,335,0,0,0,0,0,0,0,
0,0,0,0,0,0,376,273,373,374,0,0,377,378,0,0,
0,0,0,0,0,0,0,0,0,0,0,0,0,0,0,0,
0,0,0,0,0,0,0,0,0,0,0,0,0,0,0,0
</chunk>
   <chunk x="-16" y="0" width="16" height="16">
0,0,377,378,0,0,0,0,0,0,0,0,0,0,0,0,
0,0,0,335,0,0,0,0,0,0,0,0,0,0,0,0,
0,0,0,356,0,0,0,0,0,0,0,0,0,0,0,0,
0,0,0,0,0,0,0,0,0,0,0,0,0,0,0,0,
0,0,0,0,0,0,0,0,0,0,0,0,0,0,0,0,
0,0,0,374,0,0,0,0,0,0,0,0,0,0,0,0,
0,0,0,0,0,0,0,0,0,0,0,0,0,0,0,0,
0,0,0,0,0,0,0,0,0,0,0,0,0,0,0,0,
0,0,0,0,0,0,0,0,0,0,0,0,0,335,373,0,
0,0,0,0,0,0,0,0,0,0,0,0,373,293,294,0,
0,0,0,0,0,0,0,0,0,0,0,0,0,314,315,0,
0,0,0,0,0,0,0,0,0,0,0,0,0,0,0,336,
0,0,0,0,0,0,0,0,0,0,0,0,0,0,0,0,
0,0,0,0,0,0,0,0,0,0,0,0,0,0,356,374,
0,0,0,0,0,0,0,0,0,0,0,0,0,0,0,0,
0,0,0,0,0,0,0,0,0,0,0,0,0,0,0,0
</chunk>
   <chunk x="0" y="0" width="16" height="16">
0,0,0,0,0,0,0,0,0,0,0,0,0,0,251,252,
0,0,0,0,0,0,0,0,0,0,0,0,0,0,272,273,
0,0,0,0,0,0,0,0,0,0,0,0,0,0,335,0,
0,0,0,0,0,0,0,0,0,0,0,0,0,0,293,294,
0,0,0,0,0,0,0,0,0,0,0,0,0,0,0,0,
0,0,0,0,0,0,0,0,0,0,0,0,0,0,356,0,
335,373,0,0,0,0,0,0,0,0,0,0,0,0,0,0,
0,0,0,0,0,0,0,0,0,0,0,0,0,0,373,0,
0,0,0,377,378,0,0,0,0,0,0,0,0,0,0,0,
0,0,0,0,0,375,0,0,0,0,0,0,0,0,0,0,
0,0,0,251,252,0,0,0,0,0,0,0,0,0,0,0,
0,0,0,272,273,0,0,0,0,0,0,0,0,0,0,0,
0,0,0,0,0,0,0,0,0,0,0,0,0,0,0,0,
0,0,373,0,0,0,0,0,0,0,0,0,0,0,0,0,
0,0,0,0,0,0,0,0,0,0,0,0,0,0,0,0,
0,0,0,0,0,0,0,0,0,0,0,0,0,0,0,0
</chunk>
  </data>
 </layer>
 <layer id="5" name="Walls" width="16" height="24">
  <data encoding="csv">
   <chunk x="-16" y="-16" width="16" height="16">
0,0,0,0,0,0,0,0,0,0,0,0,0,0,0,0,
0,0,0,0,0,0,0,0,0,0,0,0,0,0,0,0,
0,0,0,0,0,0,0,0,0,0,0,0,0,0,0,0,
0,0,0,0,0,0,0,0,0,0,0,0,0,0,0,0,
0,0,0,0,0,0,0,0,0,0,0,0,0,0,0,0,
0,0,0,0,0,0,0,0,0,0,0,0,0,0,0,0,
0,0,0,0,0,0,0,0,0,0,0,0,0,0,0,0,
0,0,0,0,0,0,0,0,0,0,0,0,0,0,0,0,
0,0,0,0,0,0,0,0,0,0,0,0,0,0,0,0,
204,204,204,204,205,204,204,204,7,44,45,0,0,0,0,0,
44,16,204,15,44,229,44,44,28,65,66,0,0,0,0,0,
65,37,204,36,65,65,422,65,49,86,87,0,0,0,0,0,
86,58,204,57,86,86,86,86,70,0,0,0,0,0,0,0,
0,54,44,55,0,0,0,0,0,0,0,0,0,0,0,0,
0,75,479,76,0,0,0,0,0,0,0,0,0,0,0,0,
0,96,86,97,0,0,0,0,0,0,0,0,0,0,0,0
</chunk>
   <chunk x="0" y="-16" width="16" height="16">
0,0,0,0,0,0,0,0,0,0,0,0,0,0,0,0,
0,0,0,0,0,0,0,0,0,0,0,0,0,0,0,0,
0,0,0,0,0,0,0,0,0,0,0,0,0,0,0,0,
0,0,0,0,0,0,0,0,0,0,0,0,0,0,0,0,
0,0,0,0,0,0,0,0,0,0,0,0,0,0,0,0,
0,0,0,0,0,0,0,0,0,0,0,0,0,0,0,0,
0,0,0,0,0,0,0,0,0,0,0,0,0,0,0,0,
0,0,0,0,0,0,0,0,0,0,0,0,0,0,0,0,
0,0,0,0,0,0,0,0,0,0,0,0,0,0,0,0,
0,0,0,0,0,0,0,43,44,8,205,204,204,204,204,204,
0,0,0,0,0,0,0,64,479,29,44,44,44,44,16,204,
0,0,0,0,0,0,0,85,86,50,65,593,65,65,37,204,
0,0,0,0,0,0,0,0,0,71,86,86,86,86,58,204,
0,0,0,0,0,0,0,0,0,0,0,0,0,0,54,44,
0,0,0,0,0,0,0,0,0,0,0,0,0,0,75,422,
0,0,0,0,0,0,0,0,0,0,0,0,0,0,96,86
</chunk>
   <chunk x="16" y="-16" width="16" height="16">
0,0,0,0,0,0,0,0,0,0,0,0,0,0,0,0,
0,0,0,0,0,0,0,0,0,0,0,0,0,0,0,0,
0,0,0,0,0,0,0,0,0,0,0,0,0,0,0,0,
0,0,0,0,0,0,0,0,0,0,0,0,0,0,0,0,
0,0,0,0,0,0,0,0,0,0,0,0,0,0,0,0,
0,0,0,0,0,0,0,0,0,0,0,0,0,0,0,0,
0,0,0,0,0,0,0,0,0,0,0,0,0,0,0,0,
0,0,0,0,0,0,0,0,0,0,0,0,0,0,0,0,
0,0,0,0,0,0,0,0,0,0,0,0,0,0,0,0,
204,204,0,0,0,0,0,0,0,0,0,0,0,0,0,0,
15,44,0,0,0,0,0,0,0,0,0,0,0,0,0,0,
36,65,0,0,0,0,0,0,0,0,0,0,0,0,0,0,
57,86,0,0,0,0,0,0,0,0,0,0,0,0,0,0,
55,0,0,0,0,0,0,0,0,0,0,0,0,0,0,0,
76,0,0,0,0,0,0,0,0,0,0,0,0,0,0,0,
97,0,0,0,0,0,0,0,0,0,0,0,0,0,0,0
</chunk>
   <chunk x="0" y="0" width="16" height="16">
0,0,0,0,0,0,0,0,0,0,0,0,0,0,0,107,
0,0,0,0,0,0,0,0,0,0,0,0,0,0,0,0,
0,0,0,0,0,0,0,0,0,0,0,0,0,0,0,0,
0,0,0,0,0,0,0,0,0,0,0,0,0,0,0,0,
0,0,0,0,0,0,0,0,0,0,0,0,0,0,0,0,
0,0,0,0,0,0,0,0,0,0,0,0,0,0,0,0,
0,0,0,0,0,0,0,0,0,0,0,0,0,0,0,0,
0,0,0,0,0,0,0,0,0,0,0,0,0,0,0,0,
0,0,0,0,0,0,0,0,0,0,0,0,0,0,0,0,
0,0,0,0,0,0,0,0,0,0,0,0,0,0,0,0,
0,0,0,0,0,0,0,0,0,0,0,0,0,0,0,0,
0,0,0,0,0,0,0,0,0,0,0,0,0,0,0,0,
0,0,0,0,0,0,0,0,0,0,0,0,0,0,0,0,
0,0,0,0,0,0,0,0,0,0,0,0,0,0,0,0,
0,0,0,0,0,0,0,0,0,0,0,0,0,0,0,0,
0,0,0,0,0,0,0,0,0,0,0,0,0,0,0,0
</chunk>
  </data>
 </layer>
 <layer id="2" name="grass" width="16" height="24">
  <data encoding="csv">
   <chunk x="-16" y="-16" width="16" height="16">
0,0,0,0,0,0,0,0,0,0,0,0,0,0,0,0,
0,0,0,0,0,0,0,0,0,0,0,0,0,0,0,0,
0,0,0,0,0,0,0,0,0,0,0,0,0,0,0,0,
0,0,0,0,0,0,0,0,0,0,0,0,0,0,0,0,
0,0,0,0,0,0,0,0,0,0,0,0,0,0,0,0,
0,0,0,0,0,0,0,0,0,0,0,0,0,0,0,0,
0,0,0,0,0,0,0,0,0,0,0,0,0,0,0,0,
0,0,0,0,0,0,0,0,0,0,0,0,0,0,0,0,
0,0,0,0,0,0,0,0,0,0,0,0,0,0,0,0,
0,0,0,0,0,0,0,0,0,0,0,0,0,0,0,0,
0,0,0,0,0,0,0,0,0,0,0,0,0,0,0,0,
0,0,0,0,0,0,0,0,0,0,0,0,0,0,0,0,
0,0,0,0,0,0,0,0,0,0,0,0,0,0,0,0,
0,0,0,0,0,0,0,0,0,0,0,0,0,0,0,0,
0,0,0,0,0,0,0,0,0,0,0,0,0,0,0,0,
0,0,0,0,0,171,198,199,200,172,198,199,200,198,199,198
</chunk>
   <chunk x="0" y="-16" width="16" height="16">
0,0,0,0,0,0,0,0,0,0,0,0,0,0,0,0,
0,0,0,0,0,0,0,0,0,0,0,0,0,0,0,0,
0,0,0,0,0,0,0,0,0,0,0,0,0,0,0,0,
0,0,0,0,0,0,0,0,0,0,0,0,0,0,0,0,
0,0,0,0,0,0,0,0,0,0,0,0,0,0,0,0,
0,0,0,0,0,0,0,0,0,0,0,0,0,0,0,0,
0,0,0,0,0,0,0,0,0,0,0,0,0,0,0,0,
0,0,0,0,0,0,0,0,0,0,0,0,0,0,0,0,
0,0,0,0,0,0,0,0,0,0,0,0,0,0,0,0,
0,0,0,0,0,0,0,0,0,0,0,0,0,0,0,0,
0,0,0,0,0,0,0,0,0,0,0,0,0,0,0,0,
0,0,0,0,0,0,0,0,0,0,0,0,0,0,0,0,
0,0,0,0,0,0,0,0,0,0,0,0,0,0,0,0,
0,0,0,0,0,0,0,0,0,0,0,0,0,0,0,0,
0,0,0,0,0,0,0,0,0,0,0,0,0,0,0,0,
199,200,198,199,200,198,199,200,198,199,200,172,173,0,0,0
</chunk>
   <chunk x="-16" y="0" width="16" height="16">
0,0,0,0,0,192,193,193,193,193,195,219,220,221,219,220,
0,0,0,0,0,192,346,346,346,346,191,0,0,0,0,0,
0,0,0,0,0,169,346,346,346,346,212,0,0,0,0,0,
0,0,0,0,0,190,346,346,346,346,216,200,173,0,0,0,
0,0,0,0,0,211,346,346,346,346,346,346,216,172,200,173,
0,0,0,0,0,192,346,346,346,346,346,346,346,346,193,194,
0,0,0,0,0,169,346,346,346,346,346,193,232,233,234,257,
0,0,0,0,0,192,193,346,193,346,346,193,253,254,255,0,
0,0,0,0,0,190,193,193,193,193,193,193,274,275,276,0,
0,0,0,0,0,211,193,193,193,193,193,193,295,296,0,0,
0,0,0,0,0,192,193,193,193,193,193,193,316,317,318,319,
0,0,0,0,0,211,193,193,193,193,193,193,337,338,339,320,
0,0,0,0,0,213,214,219,220,221,214,214,219,220,221,215,
0,0,0,0,0,0,0,0,0,0,0,0,0,0,0,0,
0,0,0,0,0,0,0,0,0,0,0,0,0,0,0,0,
0,0,0,0,0,0,0,0,0,0,0,0,0,0,0,0
</chunk>
   <chunk x="0" y="0" width="16" height="16">
221,219,220,221,219,220,221,196,193,193,193,193,194,0,0,0,
0,0,0,0,0,0,0,169,346,346,346,346,170,0,0,0,
0,0,0,0,0,0,0,190,346,346,346,346,194,0,0,0,
0,0,0,0,0,171,172,217,346,346,346,346,212,0,0,0,
0,0,171,199,172,217,346,346,346,346,346,346,170,0,0,0,
0,0,192,346,193,346,193,346,346,346,346,346,194,0,0,0,
0,0,258,239,240,241,193,346,346,346,346,346,212,0,0,0,
0,0,259,260,261,262,193,346,346,346,346,346,170,0,0,0,
0,0,0,281,282,283,193,193,193,193,193,193,170,0,0,0,
0,0,0,302,303,304,193,193,193,193,193,193,191,0,0,0,
0,0,0,323,324,325,193,193,193,193,193,346,212,0,0,0,
0,0,321,344,345,345,346,193,193,193,193,346,170,0,0,0,
0,0,213,219,214,221,214,219,220,221,214,214,215,0,0,0,
0,0,0,0,0,0,0,0,0,0,0,0,0,0,0,0,
0,0,0,0,0,0,0,0,0,0,0,0,0,0,0,0,
0,0,0,0,0,0,0,0,0,0,0,0,0,0,0,0
</chunk>
  </data>
 </layer>
 <layer id="21" name="grass_details" width="16" height="24">
  <data encoding="csv">
   <chunk x="-16" y="0" width="16" height="16">
0,0,0,0,0,0,0,0,0,0,0,0,0,0,0,0,
0,0,0,0,0,0,0,0,0,0,0,0,0,0,0,0,
0,0,0,0,0,0,0,367,368,369,0,0,0,0,0,0,
0,0,0,0,0,0,0,0,398,399,0,0,0,0,0,0,
0,0,0,0,0,0,0,0,0,0,0,0,0,0,0,0,
0,0,0,0,0,393,394,395,0,371,372,388,389,0,0,0,
0,0,0,0,0,0,414,0,0,0,0,419,416,419,0,0,
0,0,0,0,0,0,0,0,0,0,0,0,0,0,0,0,
0,0,0,0,0,0,0,0,0,0,0,0,0,0,0,0,
0,0,0,0,0,0,0,0,0,0,0,0,0,0,0,0,
0,0,0,0,0,0,0,0,0,0,0,0,414,0,0,0,
0,0,0,0,0,0,0,0,0,0,0,393,394,395,0,0,
0,0,0,0,0,0,0,0,0,0,0,0,0,0,0,0,
0,0,0,0,0,0,0,0,0,0,0,0,0,0,0,0,
0,0,0,0,0,0,0,0,0,0,0,0,0,0,0,0,
0,0,0,0,0,0,0,0,0,0,0,0,0,0,0,0
</chunk>
   <chunk x="0" y="0" width="16" height="16">
0,0,0,0,0,0,0,0,0,0,0,0,0,0,0,0,
0,0,0,0,0,0,0,0,0,0,0,0,0,0,0,0,
0,0,0,0,0,0,0,0,0,398,399,0,0,0,0,0,
0,0,0,0,0,0,0,0,0,367,368,369,0,0,0,0,
0,0,0,0,0,0,0,0,0,414,0,0,0,0,0,0,
0,0,0,0,0,0,414,388,389,0,371,372,0,0,0,0,
0,0,0,0,393,394,415,415,0,0,0,0,0,0,0,0,
0,0,0,0,0,0,0,0,0,0,0,0,0,0,0,0,
0,0,0,0,0,0,0,0,0,0,0,0,0,0,0,0,
0,0,0,0,0,0,0,0,0,0,0,0,0,0,0,0,
0,0,0,0,0,414,0,0,0,0,0,0,0,0,0,0,
0,0,0,0,0,414,416,0,0,0,0,0,0,0,0,0,
0,0,0,0,0,0,0,0,0,0,0,0,0,0,0,0,
0,0,0,0,0,0,0,0,0,0,0,0,0,0,0,0,
0,0,0,0,0,0,0,0,0,0,0,0,0,0,0,0,
0,0,0,0,0,0,0,0,0,0,0,0,0,0,0,0
</chunk>
  </data>
 </layer>
 <layer id="7" name="plates" width="16" height="24">
  <data encoding="csv">
   <chunk x="-16" y="0" width="16" height="16">
0,0,0,0,0,0,0,0,0,0,0,0,0,0,0,0,
0,0,0,0,0,0,0,0,0,0,0,0,0,0,0,0,
0,0,0,0,0,0,0,0,0,0,0,0,0,0,0,0,
0,0,0,0,0,0,0,0,0,0,0,0,0,0,0,0,
0,0,0,0,0,0,0,0,0,0,0,0,0,0,0,0,
0,0,0,0,0,0,0,0,0,0,0,0,0,0,0,0,
0,0,0,0,0,0,0,0,0,0,0,0,0,0,0,0,
0,0,0,0,0,0,0,0,0,0,0,0,0,0,0,0,
0,0,0,0,0,830,835,831,832,833,834,835,836,0,0,0,
0,0,0,0,0,852,857,853,854,855,856,857,858,0,0,0,
0,0,0,0,0,0,0,0,0,0,0,0,0,0,0,0,
0,0,0,0,0,0,0,0,0,0,0,0,0,0,0,0,
0,0,0,0,0,0,0,0,0,0,0,0,0,0,0,0,
0,0,0,0,0,0,0,0,0,0,0,0,0,0,0,0,
0,0,0,0,0,0,0,0,0,0,0,0,0,0,0,0,
0,0,0,0,0,0,0,0,0,0,0,0,0,0,0,0
</chunk>
   <chunk x="0" y="0" width="16" height="16">
0,0,0,0,0,0,0,0,0,0,0,0,0,0,0,0,
0,0,0,0,0,0,0,0,0,0,0,0,0,0,0,0,
0,0,0,0,0,0,0,0,0,0,0,0,0,0,0,0,
0,0,0,0,0,0,0,0,0,0,0,0,0,0,0,0,
0,0,0,0,0,0,0,0,0,0,0,0,0,0,0,0,
0,0,0,0,0,0,0,0,0,0,0,0,0,0,0,0,
0,0,0,0,0,0,0,0,0,0,0,0,0,0,0,0,
0,0,0,0,0,0,0,0,0,0,0,0,0,0,0,0,
0,0,0,0,0,830,831,832,833,834,835,832,836,0,0,0,
0,0,0,0,0,852,853,854,855,856,857,854,858,0,0,0,
0,0,0,0,0,0,0,0,0,0,0,0,0,0,0,0,
0,0,0,0,0,0,0,0,0,0,0,0,0,0,0,0,
0,0,0,0,0,0,0,0,0,0,0,0,0,0,0,0,
0,0,0,0,0,0,0,0,0,0,0,0,0,0,0,0,
0,0,0,0,0,0,0,0,0,0,0,0,0,0,0,0,
0,0,0,0,0,0,0,0,0,0,0,0,0,0,0,0
</chunk>
  </data>
 </layer>
 <layer id="9" name="Fence_back" width="16" height="24">
  <data encoding="csv">
   <chunk x="-16" y="-16" width="16" height="16">
0,0,0,0,0,0,0,0,0,0,0,0,0,0,0,0,
0,0,0,0,0,0,0,0,0,0,0,0,0,0,0,0,
0,0,0,0,0,0,0,0,0,0,0,0,0,0,0,0,
0,0,0,0,0,0,0,0,0,0,0,0,0,0,0,0,
0,0,0,0,0,0,0,0,0,0,0,0,0,0,0,0,
0,0,0,0,0,0,0,0,0,0,0,0,0,0,0,0,
0,0,0,0,0,0,0,0,0,0,0,0,0,0,0,0,
0,0,0,0,0,0,0,0,0,0,0,0,0,0,0,0,
0,0,0,0,0,0,0,0,0,0,0,0,0,0,0,0,
0,0,0,0,0,0,0,0,0,0,0,0,0,0,0,0,
0,0,0,0,0,0,0,0,0,0,0,0,0,0,0,0,
0,0,0,0,0,0,0,0,0,0,0,0,0,0,0,0,
0,0,0,0,0,0,0,0,0,0,0,0,0,0,0,0,
0,0,0,0,718,792,791,792,791,791,791,791,791,791,791,791,
0,0,0,0,740,814,813,814,813,813,813,813,813,813,813,813,
0,0,0,0,762,0,0,0,0,0,0,0,0,0,0,0
</chunk>
   <chunk x="0" y="-16" width="16" height="16">
0,0,0,0,0,0,0,0,0,0,0,0,0,0,0,0,
0,0,0,0,0,0,0,0,0,0,0,0,0,0,0,0,
0,0,0,0,0,0,0,0,0,0,0,0,0,0,0,0,
0,0,0,0,0,0,0,0,0,0,0,0,0,0,0,0,
0,0,0,0,0,0,0,0,0,0,0,0,0,0,0,0,
0,0,0,0,0,0,0,0,0,0,0,0,0,0,0,0,
0,0,0,0,0,0,0,0,0,0,0,0,0,0,0,0,
0,0,0,0,0,0,0,0,0,0,0,0,0,0,0,0,
0,0,0,0,0,0,0,0,0,0,0,0,0,0,0,0,
0,0,0,0,0,0,0,0,0,0,0,0,0,0,0,0,
0,0,0,0,0,0,0,0,0,0,0,0,0,0,0,0,
0,0,0,0,0,0,0,0,0,0,0,0,0,0,0,0,
0,0,0,0,0,0,0,0,0,0,0,0,0,0,0,0,
791,791,791,791,791,791,791,791,791,791,791,791,792,720,0,0,
813,813,813,813,813,813,813,813,813,813,813,813,814,742,0,0,
0,0,0,0,0,0,0,0,0,0,0,0,0,764,0,0
</chunk>
   <chunk x="-16" y="0" width="16" height="16">
0,0,0,0,762,0,0,0,0,0,0,0,0,0,0,0,
0,0,0,0,762,0,0,0,0,0,0,0,0,0,0,0,
0,0,0,0,762,0,0,0,0,0,0,0,0,0,0,0,
0,0,0,0,762,0,0,0,0,0,0,0,0,0,0,0,
0,0,0,0,762,0,0,0,0,0,0,0,0,0,0,0,
0,0,0,0,762,0,0,0,0,0,0,0,0,0,0,0,
0,0,0,0,762,0,0,0,0,0,0,0,0,0,0,0,
0,0,0,0,0,0,0,0,0,0,0,0,0,0,0,0,
0,0,0,0,0,0,0,0,0,0,0,0,0,0,0,0,
0,0,0,0,0,0,0,0,0,0,0,0,0,0,0,0,
0,0,0,0,0,0,0,0,0,0,0,0,0,0,0,0,
0,0,0,0,0,0,0,0,0,0,0,0,0,0,0,0,
0,0,0,0,0,0,0,0,0,0,0,0,0,0,0,0,
0,0,0,0,0,0,0,0,0,0,0,0,0,0,0,0,
0,0,0,0,0,0,0,0,0,0,0,0,0,0,0,0,
0,0,0,0,0,0,0,0,0,0,0,0,0,0,0,0
</chunk>
   <chunk x="0" y="0" width="16" height="16">
0,0,0,0,0,0,0,0,0,0,0,0,0,764,0,0,
0,0,0,0,0,0,0,0,0,0,0,0,0,764,0,0,
0,0,0,0,0,0,0,0,0,0,0,0,0,764,0,0,
0,0,0,0,0,0,0,0,0,0,0,0,0,764,0,0,
0,0,0,0,0,0,0,0,0,0,0,0,0,764,0,0,
0,0,0,0,0,0,0,0,0,0,0,0,0,764,0,0,
0,0,0,0,0,0,0,0,0,0,0,0,0,764,0,0,
0,0,0,0,0,0,0,0,0,0,0,0,0,0,0,0,
0,0,0,0,0,0,0,0,0,0,0,0,0,0,0,0,
0,0,0,0,0,0,0,0,0,0,0,0,0,0,0,0,
0,0,0,0,0,0,0,0,0,0,0,0,0,0,0,0,
0,0,0,0,0,0,0,0,0,0,0,0,0,0,0,0,
0,0,0,0,0,0,0,0,0,0,0,0,0,0,0,0,
0,0,0,0,0,0,0,0,0,0,0,0,0,0,0,0,
0,0,0,0,0,0,0,0,0,0,0,0,0,0,0,0,
0,0,0,0,0,0,0,0,0,0,0,0,0,0,0,0
</chunk>
  </data>
 </layer>
 <layer id="8" name="House" width="16" height="24">
  <data encoding="csv">
   <chunk x="-16" y="-16" width="16" height="16">
0,0,0,0,0,0,0,0,0,0,0,0,0,0,0,0,
0,0,0,0,0,0,0,0,0,0,0,0,0,0,0,0,
0,0,0,0,0,0,0,0,0,0,0,0,0,0,0,0,
0,0,0,0,0,0,0,0,0,0,0,0,0,0,0,0,
0,0,0,0,0,0,0,0,0,0,0,0,0,0,0,0,
0,0,0,0,0,0,0,0,0,0,0,0,0,0,0,0,
0,0,0,0,0,0,0,0,0,0,0,0,0,0,0,0,
0,0,0,0,0,0,0,0,0,0,0,0,0,0,0,0,
0,0,0,0,0,0,0,0,0,0,0,0,0,0,0,0,
0,0,0,0,0,0,0,0,0,0,0,0,0,0,0,0,
0,0,0,0,0,0,0,0,0,0,0,0,0,0,0,0,
0,0,0,0,0,0,0,0,0,0,0,706,707,708,709,710,
0,0,0,0,0,0,0,0,0,0,0,728,729,730,731,732,
0,0,0,0,0,0,0,0,0,0,0,750,751,752,753,754,
0,0,0,0,0,0,0,0,0,0,0,772,4632,4633,775,776,
0,0,0,0,0,0,0,0,0,0,0,794,4650,4651,797,798
</chunk>
   <chunk x="0" y="-16" width="16" height="16">
0,0,0,0,0,0,0,0,0,0,0,0,0,0,0,0,
0,0,0,0,0,0,0,0,0,0,0,0,0,0,0,0,
0,0,0,0,0,0,0,0,0,0,0,0,0,0,0,0,
0,0,0,0,0,0,0,0,0,0,0,0,0,0,0,0,
0,0,0,0,0,0,0,0,0,0,0,0,0,0,0,0,
0,0,0,0,0,0,0,0,0,0,0,0,0,0,0,0,
0,0,0,0,0,0,0,0,0,0,0,0,0,0,0,0,
0,0,0,0,0,0,0,0,0,0,0,0,0,0,0,0,
0,0,0,0,0,0,0,0,0,0,0,0,0,0,0,0,
0,0,0,0,0,0,0,0,0,0,0,0,0,0,0,0,
0,0,0,0,0,0,0,0,0,0,0,0,0,0,0,0,
711,712,713,714,715,716,717,0,0,0,0,0,0,0,0,0,
733,734,735,736,737,738,739,0,0,0,0,0,0,0,0,0,
755,756,757,758,759,760,761,0,0,0,0,0,0,0,0,0,
777,778,779,780,4634,4635,783,0,0,0,0,0,0,0,0,0,
4636,4637,801,802,4652,4653,805,0,0,0,0,0,0,0,0,0
</chunk>
   <chunk x="-16" y="0" width="16" height="16">
0,0,0,0,0,0,0,0,0,0,0,816,4582,4583,819,820,
0,0,0,0,0,0,0,0,0,0,0,838,4600,4601,841,842,
0,0,0,0,0,0,0,0,0,0,0,860,4618,4619,863,864,
0,0,0,0,0,0,0,0,0,0,0,882,883,884,885,886,
0,0,0,0,0,0,0,0,0,0,0,904,905,906,907,908,
0,0,0,0,0,0,0,0,0,0,0,0,0,0,0,0,
0,0,0,0,0,0,0,0,0,0,0,0,0,0,0,0,
0,0,0,0,0,0,0,0,0,0,0,0,0,0,0,0,
0,0,0,0,0,0,0,0,0,0,0,0,0,0,0,0,
0,0,0,0,0,0,0,0,0,0,0,0,0,0,0,0,
0,0,0,0,0,0,0,0,0,0,0,0,0,0,0,0,
0,0,0,0,0,0,0,0,0,0,0,0,0,0,0,0,
0,0,0,0,0,0,0,0,0,0,0,0,0,0,0,0,
0,0,0,0,0,0,0,0,0,0,0,0,0,0,0,0,
0,0,0,0,0,0,0,0,0,0,0,0,0,0,0,0,
0,0,0,0,0,0,0,0,0,0,0,0,0,0,0,0
</chunk>
   <chunk x="0" y="0" width="16" height="16">
4654,4655,823,824,4584,4585,827,0,0,0,0,0,0,0,0,0,
4626,4627,845,846,4602,4603,849,0,0,0,0,0,0,0,0,0,
4644,4645,867,868,4620,4621,871,0,0,0,0,0,0,0,0,0,
4662,4663,889,890,891,892,893,0,0,0,0,0,0,0,0,0,
909,910,911,912,913,914,915,0,0,0,0,0,0,0,0,0,
0,0,0,0,0,0,0,0,0,0,0,0,0,0,0,0,
0,0,0,0,0,0,0,0,0,0,0,0,0,0,0,0,
0,0,0,0,0,0,0,0,0,0,0,0,0,0,0,0,
0,0,0,0,0,0,0,0,0,0,0,0,0,0,0,0,
0,0,0,0,0,0,0,0,0,0,0,0,0,0,0,0,
0,0,0,0,0,0,0,0,0,0,0,0,0,0,0,0,
0,0,0,0,0,0,0,0,0,0,0,0,0,0,0,0,
0,0,0,0,0,0,0,0,0,0,0,0,0,0,0,0,
0,0,0,0,0,0,0,0,0,0,0,0,0,0,0,0,
0,0,0,0,0,0,0,0,0,0,0,0,0,0,0,0,
0,0,0,0,0,0,0,0,0,0,0,0,0,0,0,0
</chunk>
  </data>
 </layer>
 <layer id="11" name="Objects1" width="16" height="24">
  <data encoding="csv">
   <chunk x="-16" y="-16" width="16" height="16">
0,0,0,0,0,0,0,0,0,0,0,0,0,0,0,0,
0,0,0,0,0,0,0,0,0,0,0,0,0,0,0,0,
0,0,0,0,0,0,0,0,0,0,0,0,0,0,0,0,
0,0,0,0,0,0,0,0,0,0,0,0,0,0,0,0,
0,0,0,0,0,0,0,0,0,0,0,0,0,0,0,0,
0,0,0,0,0,0,0,0,0,0,0,0,0,0,0,0,
0,0,0,0,0,0,0,0,0,0,0,0,0,0,0,0,
0,0,0,0,0,0,0,0,0,0,0,0,0,0,0,0,
0,0,0,0,0,0,0,0,0,0,0,0,0,0,0,0,
0,0,0,0,0,0,0,0,0,0,0,0,0,0,0,0,
0,0,0,0,0,0,0,0,0,0,0,0,0,0,0,0,
0,0,0,0,0,0,0,0,0,0,0,0,0,0,0,0,
0,0,0,0,0,0,0,0,0,0,0,0,0,0,0,0,
0,0,0,0,0,0,0,0,0,0,0,0,0,0,0,0,
0,0,0,0,0,0,0,0,0,2382,2383,0,0,0,0,0,
0,0,0,0,0,0,0,0,0,2394,2395,0,0,0,0,0
</chunk>
   <chunk x="0" y="-16" width="16" height="16">
0,0,0,0,0,0,0,0,0,0,0,0,0,0,0,0,
0,0,0,0,0,0,0,0,0,0,0,0,0,0,0,0,
0,0,0,0,0,0,0,0,0,0,0,0,0,0,0,0,
0,0,0,0,0,0,0,0,0,0,0,0,0,0,0,0,
0,0,0,0,0,0,0,0,0,0,0,0,0,0,0,0,
0,0,0,0,0,0,0,0,0,0,0,0,0,0,0,0,
0,0,0,0,0,0,0,0,0,0,0,0,0,0,0,0,
0,0,0,0,0,0,0,0,0,0,0,0,0,0,0,0,
0,0,0,0,0,0,0,0,0,0,0,0,0,0,0,0,
0,0,0,0,0,0,0,0,0,0,0,0,0,0,0,0,
0,0,0,0,0,0,0,0,0,0,0,0,0,0,0,0,
0,0,0,0,0,0,0,0,0,0,0,0,0,0,0,0,
0,0,0,0,0,0,0,0,0,0,0,0,0,0,0,0,
0,0,0,0,0,0,0,0,0,0,0,0,0,0,0,0,
0,0,0,0,0,0,0,0,0,0,0,0,0,0,0,0,
0,0,0,0,0,0,0,2418,0,0,0,0,0,0,0,0
</chunk>
   <chunk x="-16" y="0" width="16" height="16">
0,0,0,0,0,0,0,0,0,2406,2407,0,0,0,0,0,
0,0,0,0,0,0,0,0,0,0,0,0,0,0,0,0,
0,0,0,0,0,0,0,0,0,0,0,0,0,0,0,0,
0,0,0,0,0,0,0,0,0,0,0,0,0,0,0,0,
0,0,0,0,0,0,0,0,0,0,0,0,0,0,0,0,
0,0,0,0,0,0,0,2162,2163,2164,2165,0,0,0,0,0,
0,0,0,0,0,0,0,2174,2175,2176,2177,0,0,0,0,0,
0,0,0,0,0,0,0,2186,2187,2188,2189,0,0,0,0,0,
0,0,0,0,0,0,0,2198,2199,2200,2201,0,0,0,0,0,
0,0,0,0,0,0,0,1920,1921,1922,1923,0,0,0,0,0,
0,0,0,0,0,0,0,1942,1943,1944,1945,0,0,0,0,0,
0,0,0,0,0,0,0,1964,1965,1966,1967,0,0,0,0,0,
0,0,0,0,0,0,0,0,0,0,0,0,0,0,0,0,
0,0,0,0,0,0,0,0,0,0,0,0,0,0,0,0,
0,0,0,0,0,0,0,0,0,0,0,0,0,0,0,0,
0,0,0,0,0,0,0,0,0,0,0,0,0,0,0,0
</chunk>
   <chunk x="0" y="0" width="16" height="16">
0,0,0,0,0,0,0,2430,0,0,0,0,0,0,0,0,
0,0,0,0,0,0,0,0,0,0,0,0,0,0,0,0,
0,0,0,0,0,0,0,0,0,0,0,0,0,0,0,0,
0,0,0,0,0,0,0,0,0,0,0,0,0,0,0,0,
0,0,0,0,0,0,0,0,0,0,0,0,0,0,0,0,
0,0,0,0,0,0,0,2162,2163,2164,2165,0,0,0,0,0,
0,0,0,0,0,0,0,2174,2175,2176,2177,0,0,0,0,0,
0,0,0,0,0,0,0,2186,2187,2188,2189,0,0,0,0,0,
0,0,0,0,0,0,0,2198,2199,2200,2201,0,0,0,0,0,
0,0,0,0,0,0,0,1920,1921,1922,1923,0,0,0,0,0,
0,0,0,0,0,0,0,1942,1943,1944,1945,0,0,0,0,0,
0,0,0,0,0,0,0,1964,1965,1966,1967,0,0,0,0,0,
0,0,0,0,0,0,0,0,0,0,0,0,0,0,0,0,
0,0,0,0,0,0,0,0,0,0,0,0,0,0,0,0,
0,0,0,0,0,0,0,0,0,0,0,0,0,0,0,0,
0,0,0,0,0,0,0,0,0,0,0,0,0,0,0,0
</chunk>
  </data>
 </layer>
 <layer id="13" name="Objects2" width="16" height="24">
  <data encoding="csv">
   <chunk x="-16" y="-16" width="16" height="16">
0,0,0,0,0,0,0,0,0,0,0,0,0,0,0,0,
0,0,0,0,0,0,0,0,0,0,0,0,0,0,0,0,
0,0,0,0,0,0,0,0,0,0,0,0,0,0,0,0,
0,0,0,0,0,0,0,0,0,0,0,0,0,0,0,0,
0,0,0,0,0,0,0,0,0,0,0,0,0,0,0,0,
0,0,0,0,0,0,0,0,0,0,0,0,0,0,0,0,
0,0,0,0,0,0,0,0,0,0,0,0,0,0,0,0,
0,0,0,0,0,0,0,0,0,0,0,0,0,0,0,0,
0,0,0,0,0,0,0,0,0,0,0,0,0,0,0,0,
0,0,0,0,0,0,0,0,0,0,0,0,0,0,0,0,
0,0,0,0,0,0,0,0,0,0,0,0,0,0,0,0,
0,0,0,0,0,0,0,0,0,0,0,0,0,0,0,0,
0,0,0,0,0,0,0,0,0,0,0,0,0,0,0,0,
0,0,0,0,0,2386,2387,2388,2389,2390,0,0,0,0,0,0,
0,0,0,0,0,2398,2399,2400,2401,2402,0,0,0,0,0,0,
0,0,0,0,0,2410,2411,2412,2413,2414,0,0,0,0,0,0
</chunk>
   <chunk x="0" y="-16" width="16" height="16">
0,0,0,0,0,0,0,0,0,0,0,0,0,0,0,0,
0,0,0,0,0,0,0,0,0,0,0,0,0,0,0,0,
0,0,0,0,0,0,0,0,0,0,0,0,0,0,0,0,
0,0,0,0,0,0,0,0,0,0,0,0,0,0,0,0,
0,0,0,0,0,0,0,0,0,0,0,0,0,0,0,0,
0,0,0,0,0,0,0,0,0,0,0,0,0,0,0,0,
0,0,0,0,0,0,0,0,0,0,0,0,0,0,0,0,
0,0,0,0,0,0,0,0,0,0,0,0,0,0,0,0,
0,0,0,0,0,0,0,0,0,0,0,0,0,0,0,0,
0,0,0,0,0,0,0,0,0,0,0,0,0,0,0,0,
0,0,0,0,0,0,0,0,0,0,0,0,0,0,0,0,
0,0,0,0,0,0,0,0,0,0,0,0,0,0,0,0,
0,0,0,0,0,0,0,0,0,0,0,0,0,0,0,0,
0,0,0,0,0,0,0,0,2326,2327,2328,2329,0,0,0,0,
0,0,0,0,0,0,0,0,2338,2339,2340,2341,0,0,0,0,
0,0,0,0,0,0,0,0,2350,2351,2352,2353,0,0,0,0
</chunk>
   <chunk x="-16" y="0" width="16" height="16">
0,0,0,0,0,2422,2423,2424,2425,2426,0,0,0,0,0,0,
0,0,0,0,0,2434,2435,2436,2437,2438,0,0,0,0,0,0,
0,0,0,0,0,2446,2447,2448,2449,2450,0,0,0,0,0,0,
0,0,0,0,0,0,0,0,0,0,0,0,0,0,0,0,
0,0,0,0,0,0,0,0,0,0,0,0,0,0,0,0,
0,0,0,0,0,0,0,0,0,0,0,0,0,0,0,0,
0,0,0,0,0,0,0,0,0,0,0,0,0,0,0,0,
0,0,0,0,0,0,0,0,0,0,0,0,0,0,0,0,
0,0,0,0,0,0,0,0,0,0,0,0,0,0,0,0,
0,0,0,0,0,0,0,0,0,0,0,0,0,0,0,0,
0,0,0,0,0,0,0,0,0,0,0,0,0,0,0,0,
0,0,0,0,0,0,0,0,0,0,0,0,0,0,0,0,
0,0,0,0,0,0,0,0,0,0,0,0,0,0,0,0,
0,0,0,0,0,0,0,0,0,0,0,0,0,0,0,0,
0,0,0,0,0,0,0,0,0,0,0,0,0,0,0,0,
0,0,0,0,0,0,0,0,0,0,0,0,0,0,0,0
</chunk>
   <chunk x="0" y="0" width="16" height="16">
0,0,0,0,0,0,0,0,2362,2363,2364,2365,0,0,0,0,
0,0,0,0,0,0,0,0,2374,2375,2376,2377,0,0,0,0,
0,0,0,0,0,0,0,0,0,0,0,0,0,0,0,0,
0,0,0,0,0,0,0,0,0,0,0,0,0,0,0,0,
0,0,0,0,0,0,0,0,0,0,0,0,0,0,0,0,
0,0,0,0,0,0,0,0,0,0,0,0,0,0,0,0,
0,0,0,0,0,0,0,0,0,0,0,0,0,0,0,0,
0,0,0,0,0,0,0,0,0,0,0,0,0,0,0,0,
0,0,0,0,0,0,0,0,0,0,0,0,0,0,0,0,
0,0,0,0,0,0,0,0,0,0,0,0,0,0,0,0,
0,0,0,0,0,0,0,0,0,0,0,0,0,0,0,0,
0,0,0,0,0,0,0,0,0,0,0,0,0,0,0,0,
0,0,0,0,0,0,0,0,0,0,0,0,0,0,0,0,
0,0,0,0,0,0,0,0,0,0,0,0,0,0,0,0,
0,0,0,0,0,0,0,0,0,0,0,0,0,0,0,0,
0,0,0,0,0,0,0,0,0,0,0,0,0,0,0,0
</chunk>
  </data>
 </layer>
 <layer id="14" name="Objects3" width="16" height="24">
  <data encoding="csv">
   <chunk x="-16" y="0" width="16" height="16">
0,0,0,0,0,0,0,0,0,0,0,0,0,0,0,0,
0,0,0,0,0,2334,2335,2336,0,0,0,0,0,0,0,0,
0,0,0,0,0,2346,2347,2348,0,0,0,0,0,0,0,0,
0,0,0,0,0,2358,2359,2360,0,0,0,0,0,0,0,0,
0,0,0,0,0,2370,2371,2372,0,0,0,0,0,0,0,0,
0,0,0,0,0,0,0,0,0,0,0,0,0,0,0,0,
0,0,0,0,0,2266,2267,2268,0,0,2269,2270,2271,0,0,0,
0,0,0,0,0,2278,2279,2280,0,0,2281,2282,2283,0,0,0,
0,0,0,0,0,2290,2291,2292,0,0,2293,2294,2295,0,0,0,
0,0,0,0,0,2302,2303,2304,0,0,2305,2306,2307,0,0,0,
0,0,0,0,0,2314,2315,2316,0,0,2317,2318,2319,0,0,0,
0,0,0,0,0,0,0,0,0,0,0,0,0,0,0,0,
0,0,0,0,0,0,0,0,0,0,0,0,0,0,0,0,
0,0,0,0,0,0,0,0,0,0,0,0,0,0,0,0,
0,0,0,0,0,0,0,0,0,0,0,0,0,0,0,0,
0,0,0,0,0,0,0,0,0,0,0,0,0,0,0,0
</chunk>
   <chunk x="0" y="0" width="16" height="16">
0,0,0,0,0,0,2330,2331,2332,2333,0,0,0,0,0,0,
0,0,0,0,0,0,2342,2343,2344,2345,0,0,0,0,0,0,
0,0,0,0,0,0,2354,2355,2356,2357,0,0,0,0,0,0,
0,0,0,0,0,0,2366,2367,2368,2369,0,0,0,0,0,0,
0,0,0,0,0,0,2378,2379,2380,2381,0,0,0,0,0,0,
0,0,0,0,0,0,0,0,0,0,0,0,0,0,0,0,
0,0,0,0,0,2275,2276,2277,0,0,2272,2273,2274,0,0,0,
0,0,0,0,0,2287,2288,2289,0,0,2284,2285,2286,0,0,0,
0,0,0,0,0,2299,2300,2301,0,0,2296,2297,2298,0,0,0,
0,0,0,0,0,2311,2312,2313,0,0,2308,2309,2310,0,0,0,
0,0,0,0,0,2323,2324,2325,0,0,2320,2321,2322,0,0,0,
0,0,0,0,0,0,0,0,0,0,0,0,0,0,0,0,
0,0,0,0,0,0,0,0,0,0,0,0,0,0,0,0,
0,0,0,0,0,0,0,0,0,0,0,0,0,0,0,0,
0,0,0,0,0,0,0,0,0,0,0,0,0,0,0,0,
0,0,0,0,0,0,0,0,0,0,0,0,0,0,0,0
</chunk>
  </data>
 </layer>
 <layer id="15" name="Objects4" width="16" height="24">
  <data encoding="csv">
   <chunk x="-16" y="0" width="16" height="16">
0,0,0,0,0,0,0,0,2052,2053,2054,2055,0,0,0,0,
0,0,0,0,0,0,0,0,2074,2075,2076,2077,0,0,0,0,
0,0,0,0,0,0,0,0,2096,2097,2098,2099,0,0,0,0,
0,0,0,0,0,0,0,0,2118,2119,2120,2121,0,0,0,0,
0,0,0,0,0,0,0,0,2140,2141,2142,2143,0,0,0,0,
0,0,0,0,0,0,0,0,0,0,0,0,0,0,0,0,
0,0,0,0,0,0,0,0,0,0,0,0,0,0,0,0,
0,0,0,0,0,0,0,0,0,0,0,0,0,0,0,0,
0,0,0,0,0,0,0,0,0,0,0,0,0,0,0,0,
0,0,0,0,0,0,0,0,0,0,0,0,0,0,0,0,
0,0,0,0,0,0,0,0,0,0,0,0,0,0,0,0,
0,0,0,0,0,0,0,0,0,0,0,0,0,0,0,0,
0,0,0,0,0,0,0,0,0,0,0,0,0,0,0,0,
0,0,0,0,0,0,0,0,0,0,0,0,0,0,0,0,
0,0,0,0,0,0,0,0,0,0,0,0,0,0,0,0,
0,0,0,0,0,0,0,0,0,0,0,0,0,0,0,0
</chunk>
   <chunk x="0" y="0" width="16" height="16">
0,0,0,0,0,0,0,0,0,0,2056,2057,2058,0,0,0,
0,0,0,0,0,0,0,0,0,0,2078,2079,2080,0,0,0,
0,0,0,0,0,0,0,0,0,0,2100,2101,2102,0,0,0,
0,0,0,0,0,0,0,0,0,0,2122,2123,2124,0,0,0,
0,0,0,0,0,0,0,0,0,0,0,0,0,0,0,0,
0,0,0,0,0,0,0,0,0,0,0,0,0,0,0,0,
0,0,0,0,0,0,0,0,0,0,0,0,0,0,0,0,
0,0,0,0,0,0,0,0,0,0,0,0,0,0,0,0,
0,0,0,0,0,0,0,0,0,0,0,0,0,0,0,0,
0,0,0,0,0,0,0,0,0,0,0,0,0,0,0,0,
0,0,0,0,0,0,0,0,0,0,0,0,0,0,0,0,
0,0,0,0,0,0,0,0,0,0,0,0,0,0,0,0,
0,0,0,0,0,0,0,0,0,0,0,0,0,0,0,0,
0,0,0,0,0,0,0,0,0,0,0,0,0,0,0,0,
0,0,0,0,0,0,0,0,0,0,0,0,0,0,0,0,
0,0,0,0,0,0,0,0,0,0,0,0,0,0,0,0
</chunk>
  </data>
 </layer>
 <layer id="16" name="Objects5" width="16" height="24">
  <data encoding="csv">
   <chunk x="-16" y="0" width="16" height="16">
0,0,0,0,0,0,0,0,0,0,0,0,0,0,0,0,
0,0,0,0,0,0,0,0,0,0,0,0,0,0,0,0,
0,0,0,0,0,0,0,0,0,0,0,0,0,0,0,0,
0,0,0,0,0,0,0,1384,1385,1386,0,0,0,0,0,0,
0,0,0,0,0,0,0,1406,1407,1408,0,0,0,0,0,0,
0,0,0,0,0,0,0,1428,1429,1430,0,0,0,0,0,0,
0,0,0,0,0,0,0,0,0,0,0,0,0,0,0,0,
0,0,0,0,0,0,0,0,0,0,0,0,0,0,0,0,
0,0,0,0,0,0,0,0,0,0,0,0,0,0,0,0,
0,0,0,0,0,0,0,0,0,0,0,0,0,0,0,0,
0,0,0,0,0,0,0,0,0,0,0,0,0,0,0,0,
0,0,0,0,0,0,0,0,0,0,0,0,0,0,0,0,
0,0,0,0,0,0,0,0,0,0,0,0,0,0,0,0,
0,0,0,0,0,0,0,0,0,0,0,0,0,0,0,0,
0,0,0,0,0,0,0,0,0,0,0,0,0,0,0,0,
0,0,0,0,0,0,0,0,0,0,0,0,0,0,0,0
</chunk>
   <chunk x="0" y="0" width="16" height="16">
0,0,0,0,0,0,0,0,0,0,0,0,0,0,0,0,
0,0,0,0,0,0,0,0,0,0,0,0,0,0,0,0,
0,0,0,0,0,0,0,0,0,0,0,0,0,0,0,0,
0,0,0,0,0,0,0,0,0,2391,2392,2393,0,0,0,0,
0,0,0,0,0,0,0,0,0,2403,2404,2405,0,0,0,0,
0,0,0,0,0,0,0,0,0,2415,2416,2417,0,0,0,0,
0,0,0,0,0,0,0,0,0,0,0,0,0,0,0,0,
0,0,0,0,0,0,0,0,0,0,0,0,0,0,0,0,
0,0,0,0,0,0,0,0,0,0,0,0,0,0,0,0,
0,0,0,0,0,0,0,0,0,0,0,0,0,0,0,0,
0,0,0,0,0,0,0,0,0,0,0,0,0,0,0,0,
0,0,0,0,0,0,0,0,0,0,0,0,0,0,0,0,
0,0,0,0,0,0,0,0,0,0,0,0,0,0,0,0,
0,0,0,0,0,0,0,0,0,0,0,0,0,0,0,0,
0,0,0,0,0,0,0,0,0,0,0,0,0,0,0,0,
0,0,0,0,0,0,0,0,0,0,0,0,0,0,0,0
</chunk>
  </data>
 </layer>
 <layer id="17" name="Objects6" width="16" height="24">
  <data encoding="csv">
   <chunk x="-16" y="0" width="16" height="16">
0,0,0,0,0,0,0,0,0,0,0,0,0,0,0,0,
0,0,0,0,0,0,0,0,0,0,0,0,0,0,0,0,
0,0,0,0,0,0,0,0,0,0,0,0,0,0,0,0,
0,0,0,0,0,0,0,0,0,2427,2428,2429,0,0,0,0,
0,0,0,0,0,2419,2420,0,0,2439,2440,2441,0,0,0,0,
0,0,0,0,0,2431,2432,0,0,2451,2452,2453,0,0,0,0,
0,0,0,0,0,0,0,0,0,0,0,0,0,0,0,0,
0,0,0,0,0,0,0,0,0,0,0,0,0,0,0,0,
0,0,0,0,0,0,0,0,0,0,0,0,0,0,0,0,
0,0,0,0,0,0,0,0,0,0,0,0,0,0,0,0,
0,0,0,0,0,0,0,0,0,0,0,0,0,0,0,0,
0,0,0,0,0,0,0,0,0,0,0,0,0,0,0,0,
0,0,0,0,0,0,0,0,0,0,0,0,0,0,0,0,
0,0,0,0,0,0,0,0,0,0,0,0,0,0,0,0,
0,0,0,0,0,0,0,0,0,0,0,0,0,0,0,0,
0,0,0,0,0,0,0,0,0,0,0,0,0,0,0,0
</chunk>
   <chunk x="0" y="0" width="16" height="16">
0,0,0,0,0,0,0,0,0,0,0,0,0,0,0,0,
0,0,0,0,0,0,0,0,0,0,0,0,0,0,0,0,
0,0,0,0,0,0,0,0,0,0,0,0,0,0,0,0,
0,0,0,0,0,0,0,0,0,0,0,0,0,0,0,0,
0,0,0,0,0,0,0,0,1176,1177,0,0,0,0,0,0,
0,0,0,0,0,0,0,0,1198,1199,0,1308,0,0,0,0,
0,0,0,0,0,0,0,0,0,0,0,0,0,0,0,0,
0,0,0,0,0,0,0,0,0,0,0,0,0,0,0,0,
0,0,0,0,0,0,0,0,0,0,0,0,0,0,0,0,
0,0,0,0,0,0,0,0,0,0,0,0,0,0,0,0,
0,0,0,0,0,0,0,0,0,0,0,0,0,0,0,0,
0,0,0,0,0,0,0,0,0,0,0,0,0,0,0,0,
0,0,0,0,0,0,0,0,0,0,0,0,0,0,0,0,
0,0,0,0,0,0,0,0,0,0,0,0,0,0,0,0,
0,0,0,0,0,0,0,0,0,0,0,0,0,0,0,0,
0,0,0,0,0,0,0,0,0,0,0,0,0,0,0,0
</chunk>
  </data>
 </layer>
 <layer id="18" name="Objects7" width="16" height="24">
  <data encoding="csv">
   <chunk x="-16" y="0" width="16" height="16">
0,0,0,0,0,0,0,0,0,0,0,0,0,0,0,0,
0,0,0,0,0,0,0,0,0,0,0,0,0,0,0,0,
0,0,0,0,0,0,0,0,0,0,0,0,0,0,0,0,
0,0,0,0,0,0,0,0,0,0,0,1070,1071,1072,1073,1074,
0,0,0,0,0,0,0,0,0,0,0,1092,1093,1094,1095,1096,
0,0,0,0,0,0,0,0,0,0,0,1114,1115,1116,1117,1118,
0,0,0,0,0,0,0,0,0,0,0,1136,1137,1138,1139,1140,
0,0,0,0,0,0,0,0,0,0,0,0,0,0,0,0,
0,0,0,0,0,0,0,0,0,0,0,0,0,0,0,0,
0,0,0,0,0,0,0,0,0,0,0,0,0,0,0,0,
0,0,0,0,0,0,0,0,0,0,0,0,0,0,0,0,
0,0,0,0,0,0,0,0,0,0,0,0,0,0,0,0,
0,0,0,0,0,0,0,0,0,0,0,0,0,0,0,0,
0,0,0,0,0,0,0,0,0,0,0,0,0,0,0,0,
0,0,0,0,0,0,0,0,0,0,0,0,0,0,0,0,
0,0,0,0,0,0,0,0,0,0,0,0,0,0,0,0
</chunk>
   <chunk x="0" y="0" width="16" height="16">
0,0,0,0,0,0,0,0,0,0,0,0,0,0,0,0,
0,0,0,0,0,0,0,0,0,0,0,0,0,0,0,0,
0,0,0,0,0,0,0,0,0,0,0,0,0,0,0,0,
0,0,1075,1076,1077,1078,1079,0,0,0,0,0,0,0,0,0,
0,0,1097,1098,1099,1100,1101,0,0,0,0,0,0,0,0,0,
0,0,1119,1120,1121,1122,1123,0,0,0,0,0,0,0,0,0,
0,0,1141,1142,1143,1144,1145,0,0,0,0,0,0,0,0,0,
0,0,0,0,0,0,0,0,0,0,0,0,0,0,0,0,
0,0,0,0,0,0,0,0,0,0,0,0,0,0,0,0,
0,0,0,0,0,0,0,0,0,0,0,0,0,0,0,0,
0,0,0,0,0,0,0,0,0,0,0,0,0,0,0,0,
0,0,0,0,0,0,0,0,0,0,0,0,0,0,0,0,
0,0,0,0,0,0,0,0,0,0,0,0,0,0,0,0,
0,0,0,0,0,0,0,0,0,0,0,0,0,0,0,0,
0,0,0,0,0,0,0,0,0,0,0,0,0,0,0,0,
0,0,0,0,0,0,0,0,0,0,0,0,0,0,0,0
</chunk>
  </data>
 </layer>
 <layer id="20" name="Fountain" width="16" height="24">
  <data encoding="csv">
   <chunk x="-16" y="0" width="16" height="16">
0,0,0,0,0,0,0,0,0,0,0,0,0,0,0,0,
0,0,0,0,0,0,0,0,0,0,0,0,0,0,0,0,
0,0,0,0,0,0,0,0,0,0,0,0,0,0,0,0,
0,0,0,0,0,0,0,0,0,0,0,0,0,0,0,0,
0,0,0,0,0,0,0,0,0,0,0,0,0,0,0,0,
0,0,0,0,0,0,0,0,0,0,0,0,0,0,0,0,
0,0,0,0,0,0,0,0,0,0,0,0,0,0,4388,4389,
0,0,0,0,0,0,0,0,0,0,0,0,0,0,4394,4395,
0,0,0,0,0,0,0,0,0,0,0,0,0,0,4400,4401,
0,0,0,0,0,0,0,0,0,0,0,0,0,0,4406,4407,
0,0,0,0,0,0,0,0,0,0,0,0,0,0,4412,4413,
0,0,0,0,0,0,0,0,0,0,0,0,0,0,0,0,
0,0,0,0,0,0,0,0,0,0,0,0,0,0,0,0,
0,0,0,0,0,0,0,0,0,0,0,0,0,0,0,0,
0,0,0,0,0,0,0,0,0,0,0,0,0,0,0,0,
0,0,0,0,0,0,0,0,0,0,0,0,0,0,0,0
</chunk>
   <chunk x="0" y="0" width="16" height="16">
0,0,0,0,0,0,0,0,0,0,0,0,0,0,0,0,
0,0,0,0,0,0,0,0,0,0,0,0,0,0,0,0,
0,0,0,0,0,0,0,0,0,0,0,0,0,0,0,0,
0,0,0,0,0,0,0,0,0,0,0,0,0,0,0,0,
0,0,0,0,0,0,0,0,0,0,0,0,0,0,0,0,
0,0,0,0,0,0,0,0,0,0,0,0,0,0,0,0,
4390,4391,4392,4393,0,0,0,0,0,0,0,0,0,0,0,0,
4396,4397,4398,4399,0,0,0,0,0,0,0,0,0,0,0,0,
4402,4403,4404,4405,0,0,0,0,0,0,0,0,0,0,0,0,
4408,4409,4410,4411,0,0,0,0,0,0,0,0,0,0,0,0,
4414,4415,4416,4417,0,0,0,0,0,0,0,0,0,0,0,0,
0,0,0,0,0,0,0,0,0,0,0,0,0,0,0,0,
0,0,0,0,0,0,0,0,0,0,0,0,0,0,0,0,
0,0,0,0,0,0,0,0,0,0,0,0,0,0,0,0,
0,0,0,0,0,0,0,0,0,0,0,0,0,0,0,0,
0,0,0,0,0,0,0,0,0,0,0,0,0,0,0,0
</chunk>
  </data>
 </layer>
 <layer id="12" name="Fence_top" width="16" height="24">
  <data encoding="csv">
   <chunk x="-16" y="0" width="16" height="16">
0,0,0,0,0,0,0,0,0,0,0,0,0,0,0,0,
0,0,0,0,0,0,0,0,0,0,0,0,0,0,0,0,
0,0,0,0,0,0,0,0,0,0,0,0,0,0,0,0,
0,0,0,0,0,0,0,0,0,0,0,0,0,0,0,0,
0,0,0,0,0,0,0,0,0,0,0,0,0,0,0,0,
0,0,0,0,0,0,0,0,0,0,0,0,0,0,0,0,
0,0,0,0,0,0,0,0,0,0,0,0,0,0,0,0,
0,0,0,0,1488,0,0,0,0,0,0,0,0,0,0,0,
0,0,0,0,1488,0,0,0,0,0,0,0,0,0,0,0,
0,0,0,0,1488,0,0,0,0,0,0,0,0,0,0,0,
0,0,0,0,1488,0,0,0,0,0,0,0,0,0,0,0,
0,0,0,0,1510,1518,1518,1518,1518,1518,1518,1518,1518,1518,1517,1518,
0,0,0,0,1532,1540,1540,1540,1540,1540,1540,1540,1540,1540,1539,1540,
0,0,0,0,0,0,0,0,0,0,0,0,0,0,0,0,
0,0,0,0,0,0,0,0,0,0,0,0,0,0,0,0,
0,0,0,0,0,0,0,0,0,0,0,0,0,0,0,0
</chunk>
   <chunk x="0" y="0" width="16" height="16">
0,0,0,0,0,0,0,0,0,0,0,0,0,0,0,0,
0,0,0,0,0,0,0,0,0,0,0,0,0,0,0,0,
0,0,0,0,0,0,0,0,0,0,0,0,0,0,0,0,
0,0,0,0,0,0,0,0,0,0,0,0,0,0,0,0,
0,0,0,0,0,0,0,0,0,0,0,0,0,0,0,0,
0,0,0,0,0,0,0,0,0,0,0,0,0,0,0,0,
0,0,0,0,0,0,0,0,0,0,0,0,0,0,0,0,
0,0,0,0,0,0,0,0,0,0,0,0,0,1490,0,0,
0,0,0,0,0,0,0,0,0,0,0,0,0,1490,0,0,
0,0,0,0,0,0,0,0,0,0,0,0,0,1490,0,0,
0,0,0,0,0,0,0,0,0,0,0,0,0,1490,0,0,
1451,1452,1518,1518,1518,1518,1518,1518,1518,1518,1518,1517,1518,1512,0,0,
1473,1474,1540,1540,1540,1540,1540,1540,1540,1540,1540,1539,1540,1534,0,0,
0,0,0,0,0,0,0,0,0,0,0,0,0,0,0,0,
0,0,0,0,0,0,0,0,0,0,0,0,0,0,0,0,
0,0,0,0,0,0,0,0,0,0,0,0,0,0,0,0
</chunk>
  </data>
 </layer>
 <layer id="19" name="Birds" width="16" height="24">
  <data encoding="csv">
   <chunk x="0" y="-16" width="16" height="16">
0,0,0,0,0,0,0,0,0,0,0,0,0,0,0,0,
0,0,0,0,0,0,0,0,0,0,0,0,0,0,0,0,
0,0,0,0,0,0,0,0,0,0,0,0,0,0,0,0,
0,0,0,0,0,0,0,0,0,0,0,0,0,0,0,0,
0,0,0,0,0,0,0,0,0,0,0,0,0,0,0,0,
0,0,0,0,0,0,0,0,0,0,0,0,0,0,0,0,
0,0,0,0,0,0,0,0,0,0,0,0,0,0,0,0,
0,0,0,0,0,0,0,0,0,0,0,0,0,0,0,0,
0,0,0,0,0,0,0,0,0,0,0,0,0,0,0,0,
0,0,0,0,0,0,0,0,0,0,0,0,0,0,0,0,
0,0,0,0,0,0,0,0,0,0,0,0,0,0,0,0,
0,0,0,0,0,0,0,0,0,0,0,0,0,0,0,0,
0,0,0,0,0,0,0,0,0,0,0,0,0,0,0,0,
0,0,0,0,0,0,0,0,0,0,0,0,0,0,0,0,
0,0,0,0,0,0,0,0,0,4186,4187,0,0,0,0,0,
0,0,0,0,0,0,0,0,0,4226,4227,0,0,0,0,0
</chunk>
   <chunk x="-16" y="0" width="16" height="16">
0,0,0,0,0,0,0,0,2467,2468,2469,2470,2471,2472,2473,2474,
0,0,0,0,0,0,0,0,2494,2495,2496,2497,2498,2499,2500,2501,
0,0,0,0,0,0,0,0,2521,2522,2523,2524,2525,2526,2527,2528,
0,0,0,0,0,0,0,0,2548,2549,2550,2551,0,0,0,0,
0,0,0,0,0,0,0,0,0,0,0,0,0,0,0,0,
0,0,0,0,0,0,0,0,0,0,0,0,0,0,0,0,
0,0,0,0,0,0,0,0,0,0,0,0,0,0,0,0,
0,0,0,0,0,0,0,0,0,0,0,0,0,0,0,0,
0,0,0,0,0,0,0,0,0,0,0,0,0,0,0,0,
0,0,0,0,0,0,0,0,0,0,0,0,0,0,0,0,
0,0,0,0,0,0,0,0,0,0,0,0,0,0,0,0,
0,0,0,0,0,0,0,0,0,0,0,0,0,0,0,0,
0,0,0,0,0,0,0,0,0,0,0,0,0,0,0,0,
0,0,0,0,0,0,0,0,0,0,0,0,0,0,0,0,
0,0,0,0,0,0,0,0,0,0,0,0,0,0,0,0,
0,0,0,0,0,0,0,0,0,0,0,0,0,0,0,0
</chunk>
   <chunk x="0" y="0" width="16" height="16">
2475,0,0,0,0,0,0,0,0,0,0,0,0,0,0,0,
2502,0,0,0,0,0,0,0,0,0,0,0,0,0,0,0,
2529,0,0,0,0,0,0,0,0,0,0,0,0,0,0,0,
0,0,0,0,0,0,0,0,0,0,0,0,0,0,0,0,
0,0,0,0,0,0,0,0,0,0,0,0,0,0,0,0,
0,0,0,0,0,0,0,0,0,0,0,0,0,0,0,0,
0,0,0,0,0,0,0,0,0,0,0,0,0,0,0,0,
0,0,0,0,0,0,0,0,0,0,0,0,0,0,0,0,
0,0,0,0,0,0,0,0,0,0,0,0,0,0,0,0,
0,0,0,0,0,0,0,0,0,0,0,0,0,0,0,0,
0,0,0,0,0,0,0,0,0,0,0,0,0,0,0,0,
0,0,0,0,0,0,0,0,0,0,0,0,0,0,0,0,
0,0,0,0,0,0,0,0,0,0,0,0,0,0,0,0,
0,0,0,0,0,0,0,0,0,0,0,0,0,0,0,0,
0,0,0,0,0,0,0,0,0,0,0,0,0,0,0,0,
0,0,0,0,0,0,0,0,0,0,0,0,0,0,0,0
</chunk>
  </data>
 </layer>
</map>
